!!!!SEGMENT: pl-wtm--r-1741_stefani-jozef--mazur-zgoda-do-baletu-wesele-w-ojcowie.krn
!!!cenid: 18xx:2334
!!!COM: Stefani, Józef
!!!COM-rismID: pe30024097
!!!CDT: 1800/04/16-1876/03/19
!!!CNT: Polish
!!!OTL: Mazur Zgoda do baletu Wesele w Ojcowie
!!!PDT: 1842
!!!AGN: Secular
!!!SMS-siglum: PL-Wtm
!!!SMS-shelfmark: R 1741
!!!SMS-shelfwork: W
!!!SMS-variant:
!!!SMS-altvar:
!!!NIFC-rismSourceID: 1001137578
!!!NIFC-islandoraID: pl-wtm:28685
!!!URL-pdf-islandora: https://repozytorium.nifc.pl/islandora/object/pl-wtm%3A28685/datastream/PDF/view
!!!URL-scan: https://polish.musicsources.pl/pl/lokalizacje/galeria/rekopisy/6478 @EN{Scan on Polish Music Sources Website} @PL{Skany w portalu Dziedzictwo Muzyki Polskiej w otwartym dostępie}
!!!ONB-nifc:
!!!AIN: 1 cbass 1 cello 1 clars 1 cor 1 fagot 1 oboe 1 picco 1 timpa 1 tromp 1 tromt 1 viola 2 violn
!!!key:
**kern	**dynam	**kern	**dynam	**kern	**dynam	**kern	**dynam	**kern	**dynam	**kern	**dynam	**kern	**dynam	**kern	**dynam	**kern	**dynam	**kern	**dynam	**kern	**dynam	**kern	**dynam	**kern	**dynam
*part13	*part13	*part12	*part12	*part11	*part11	*part10	*part10	*part9	*part9	*part8	*part8	*part7	*part7	*part6	*part6	*part5	*part5	*part4	*part4	*part3	*part3	*part2	*part2	*part1	*part1
*staff13	*	*staff12	*	*staff11	*	*staff10	*	*staff9	*	*staff8	*	*staff7	*	*staff6	*	*staff5	*	*staff4	*	*staff3	*	*staff2	*	*staff1	*
*Itimpa	*	*Icbass	*	*Icello	*	*Iviola	*	*Ivioln	*	*Ivioln	*	*Itromt	*	*Itromp	*	*Ifagot	*	*Icor	*	*Iclars	*	*Ioboe	*	*Ipicco	*
*I"Tympani	*	*I"C:B:	*	*I"Violoncelli	*	*I"Viole	*	*I"Violini	*	*I"Violini	*	*I"Trombone	*	*I"in d. Trombe	*	*I"Fagotti	*	*I"in d Corni	*	*I"in C Clarinetti	*	*I"Oboe	*	*I"Picolini	*
*I'Timp.	*	*I'Vc.	*	*I'V-c.	*	*I'Va	*	*I'Vn II	*	*I'Vn I	*	*I'Tr-ne	*	*I'Tr-ba in d	*	*I'Fag.	*	*I'C. in d	*	*I'Cl. in C	*	*I'Ob.	*	*I'Fl.	*
*clefF4	*	*clefF4	*	*clefF4	*	*clefC3	*	*clefG2	*	*clefG2	*	*clefF4	*	*clefG2	*	*clefF4	*	*clefG2	*	*clefG2	*	*clefG2	*	*clefG2	*
*	*	*	*	*	*	*	*	*	*	*	*	*	*	*ITrd-1c-2	*	*	*	*ITrd-1c-2	*	*	*	*	*	*	*
*stria1	*	*	*	*	*	*	*	*	*	*	*	*	*	*	*	*	*	*	*	*	*	*	*	*	*
*k[f#c#]	*	*k[f#c#]	*	*k[f#c#]	*	*k[f#c#]	*	*k[f#c#]	*	*k[f#c#]	*	*k[f#c#]	*	*k[f#c#]	*	*k[f#c#]	*	*k[f#c#]	*	*k[f#c#]	*	*k[f#c#]	*	*k[f#c#]	*
*D:	*	*D:	*	*D:	*	*D:	*	*D:	*	*D:	*	*D:	*	*D:	*	*D:	*	*D:	*	*D:	*	*D:	*	*D:	*
*M3/8	*	*M3/8	*	*M3/8	*	*M3/8	*	*M3/8	*	*M3/8	*	*M3/8	*	*M3/8	*	*M3/8	*	*M3/8	*	*M3/8	*	*M3/8	*	*M3/8	*
*>[A,B,B,C,C,D,D,E,E,F,F,G,G,H,H,I,I1,I,I2,J]	*	*	*	*	*	*	*	*	*	*	*	*	*	*	*	*	*	*	*	*	*	*	*	*	*
=1	=1	=1	=1	=1	=1	=1	=1	=1	=1	=1	=1	=1	=1	=1	=1	=1	=1	=1	=1	=1	=1	=1	=1	=1	=1
*>A	*	*	*	*	*	*	*	*	*	*	*	*	*	*	*	*	*	*	*	*	*	*	*	*	*
*	*	*	*	*^	*	*^	*	*	*	*^	*	*	*	*^	*	*	*	*	*	*	*	*	*	*^	*
!LO:SIC:s=4D/	!	!	!	!	!	!	!	!	!LO:DY:rj	!	!	!	!	!	!	!	!	!	!LO:DY:rj	!	!LO:DY:rj	!	!LO:DY:rj	!	!LO:DY:rj	!	!	!	!	!
4ReT</	.	4.D\	.	4A/	4.D\	.	4.d/	4A\	f	4ff#\ 4d\	.	4aa/	4a\	f	4.D\	.	4f#/	4.d\	f	4A\ 4F#\	f	4.dd/ 4.d/	f	4a/ 4f#/	f	4ff#\ 4a\	.	4aaT/	4ff#\	.
!LO:SIC:s=8D/	!	!	!	!	!	!	!	!	!	!	!	!	!	!	!	!	!	!	!	!	!	!	!	!	!	!	!	!	!	!
8Re'/	.	.	.	8B/	.	.	.	8G#X^\	.	8ee#X\ 8d\	.	24gg#X/LL	8b^\	.	.	.	8e#X/	.	.	8B\ 8G#X\	.	.	.	8b/ 8g#X^/	.	8ee#X\ 8g#X\	.	24gg#X/LL	8ee#X^\	.
.	.	.	.	.	.	.	.	.	.	.	.	24aa/	.	.	.	.	.	.	.	.	.	.	.	.	.	.	.	24aa/	.	.
.	.	.	.	.	.	.	.	.	.	.	.	24bb/JJ	.	.	.	.	.	.	.	.	.	.	.	.	.	.	.	24bb/JJ	.	.
=2	=2	=2	=2	=2	=2	=2	=2	=2	=2	=2	=2	=2	=2	=2	=2	=2	=2	=2	=2	=2	=2	=2	=2	=2	=2	=2	=2	=2	=2	=2
*rep	*	*rep	*	*rep	*rep	*	*rep	*rep	*	*rep	*	*rep	*rep	*	*	*	*rep	*rep	*	*rep	*	*rep	*	*rep	*	*rep	*	*	*	*
!LO:SIC:s=4D\	!	!	!	!	!	!	!	!	!	!	!	!	!	!	!	!	!	!	!	!	!	!	!	!	!	!	!	!	!	!
4Re\	.	4.D\	.	4A/	4.D\	.	4.d/	4A\	.	4ff#\ 4d\	.	4aa/	4a\	.	4.D\	.	4f#/	4.d\	.	4A\ 4F#\	.	4.dd/ 4.d/	.	4a/ 4f#/	.	4ff#\ 4a\	.	4aaT/	4ff#\	.
!LO:SIC:s=8D\	!	!	!	!	!	!	!	!	!	!	!	!	!	!	!	!	!	!	!	!	!	!	!	!	!	!	!	!	!	!
8Re\	.	.	.	8B/	.	.	.	8G#X^\	.	8ee#X\ 8d\	.	24gg#X/LL	8b^\	.	.	.	8e#X/	.	.	8B\ 8G#X\	.	.	.	8b/ 8g#X/	.	8ee#X\ 8g#X\	.	24gg#X/LL	8ee#X^\	.
.	.	.	.	.	.	.	.	.	.	.	.	24aa/	.	.	.	.	.	.	.	.	.	.	.	.	.	.	.	24aa/	.	.
.	.	.	.	.	.	.	.	.	.	.	.	24bb/JJ	.	.	.	.	.	.	.	.	.	.	.	.	.	.	.	24bb/JJ	.	.
*Xrep	*	*Xrep	*	*Xrep	*Xrep	*	*Xrep	*Xrep	*	*Xrep	*	*Xrep	*Xrep	*	*	*	*Xrep	*Xrep	*	*Xrep	*	*Xrep	*	*Xrep	*	*Xrep	*	*	*	*
=3	=3	=3	=3	=3	=3	=3	=3	=3	=3	=3	=3	=3	=3	=3	=3	=3	=3	=3	=3	=3	=3	=3	=3	=3	=3	=3	=3	=3	=3	=3
*rep	*	*rep	*	*rep	*rep	*	*rep	*rep	*	*rep	*	*rep	*rep	*	*	*	*rep	*rep	*	*rep	*	*rep	*	*rep	*	*rep	*	*rep	*rep	*
!LO:SIC:s=4D\	!	!	!	!	!	!	!	!	!	!	!	!	!	!	!	!	!	!	!	!	!	!	!	!	!	!	!	!	!	!
4Re\	.	4.D\	.	4A/	4.D\	.	4.d/	4A\	.	4ff#\ 4d\	.	4aa/	4a\	.	4.D\	.	4f#/	4.d\	.	4A\ 4F#\	.	4.dd/ 4.d/	.	4a/ 4f#/	.	4ff#\ 4a\	.	4aaT/	4ff#\	.
!LO:SIC:s=8D\	!	!	!	!	!	!	!	!	!	!	!	!	!	!	!	!	!	!	!	!	!	!	!	!	!	!	!	!	!	!
8Re\	.	.	.	8B/	.	.	.	8G#X^\	.	8ee#X\ 8d\	.	24gg#X/LL	8b^\	.	.	.	8e#X/	.	.	8B\ 8G#X\	.	.	.	8b/ 8g#X/	.	8ee#X\ 8g#X\	.	24gg#X/LL	8ee#X^\	.
.	.	.	.	.	.	.	.	.	.	.	.	24aa/	.	.	.	.	.	.	.	.	.	.	.	.	.	.	.	24aa/	.	.
.	.	.	.	.	.	.	.	.	.	.	.	24bb/JJ	.	.	.	.	.	.	.	.	.	.	.	.	.	.	.	24bb/JJ	.	.
*Xrep	*	*Xrep	*	*Xrep	*Xrep	*	*Xrep	*Xrep	*	*Xrep	*	*Xrep	*Xrep	*	*	*	*Xrep	*Xrep	*	*Xrep	*	*Xrep	*	*Xrep	*	*Xrep	*	*Xrep	*Xrep	*
=4	=4	=4	=4	=4	=4	=4	=4	=4	=4	=4	=4	=4	=4	=4	=4	=4	=4	=4	=4	=4	=4	=4	=4	=4	=4	=4	=4	=4	=4	=4
*rep	*	*rep	*	*rep	*rep	*	*rep	*rep	*	*rep	*	*rep	*rep	*	*	*	*rep	*rep	*	*rep	*	*rep	*	*rep	*	*rep	*	*rep	*rep	*
!LO:SIC:s=4D\	!	!	!	!	!	!	!	!	!	!	!	!	!	!	!	!	!	!	!	!	!	!	!	!	!	!	!	!	!	!
4Re\	.	4.D\	.	4A/	4.D\	.	4.d/	4A\	.	4ff#\ 4d\	.	4aa/	4a\	.	4.D\	.	4f#/	4.d\	.	4A\ 4F#\	.	4.dd/ 4.d/	.	4a/ 4f#/	.	4ff#\ 4a\	.	4aaT/	4ff#\	.
!LO:SIC:s=8D\	!	!	!	!	!	!	!	!	!	!	!	!	!	!	!	!	!	!	!	!	!	!	!	!	!	!	!	!	!	!
8Re\	.	.	.	8B/	.	.	.	8G#X^\	.	8ee#X\ 8d\	.	24gg#X/LL	8b^\	.	.	.	8e#X/	.	.	8B\ 8G#X\	.	.	.	8b/ 8g#X/	.	8ee#X\ 8g#X\	.	24gg#X/LL	8ee#X^\	.
.	.	.	.	.	.	.	.	.	.	.	.	24aa/	.	.	.	.	.	.	.	.	.	.	.	.	.	.	.	24aa/	.	.
.	.	.	.	.	.	.	.	.	.	.	.	24bb/JJ	.	.	.	.	.	.	.	.	.	.	.	.	.	.	.	24bb/JJ	.	.
*Xrep	*	*Xrep	*	*Xrep	*Xrep	*	*Xrep	*Xrep	*	*Xrep	*	*Xrep	*Xrep	*	*	*	*Xrep	*Xrep	*	*Xrep	*	*Xrep	*	*Xrep	*	*Xrep	*	*Xrep	*Xrep	*
*	*	*	*	*v	*v	*	*	*	*	*	*	*v	*v	*	*	*	*	*	*	*	*	*	*	*	*	*	*	*v	*v	*
*	*	*	*	*	*	*v	*v	*	*	*	*	*	*	*	*	*	*	*	*	*	*	*	*	*	*	*	*
=5!|:	=5!|:	=5!|:	=5!|:	=5!|:	=5!|:	=5!|:	=5!|:	=5!|:	=5!|:	=5!|:	=5!|:	=5!|:	=5!|:	=5!|:	=5!|:	=5!|:	=5!|:	=5!|:	=5!|:	=5!|:	=5!|:	=5!|:	=5!|:	=5!|:	=5!|:	=5!|:
*>B	*	*	*	*	*	*	*	*	*	*	*	*	*	*	*	*	*	*	*	*	*	*	*	*	*	*
*	*	*	*	*	*	*	*	*	*	*	*	*	*	*	*	*	*^	*	*	*	*	*	*^	*	*	*
*	*	*tremolo	*	*tremolo	*	*	*	*	*	*	*	*tremolo	*	*	*	*	*	*	*	*tremolo	*	*	*	*	*tremolo	*	*	*
!LO:SIC:s=8D/L	!	!	!	!	!	!	!	!	!	!	!	!	!	!	!	!	!	!	!	!	!	!	!	!	!	!	!	!
8Re/L	.	8D\L	.	8A\L 8D\	.	8d\L 8A\	.	8ff#\ 8d\	.	16.aa\LL|	.	8D\L	.	16.f#/LL	8d\L	.	16.A/LL	8D\L	.	8dd/L 8d/	.	8a/L 8f#'/	.	16.ff#/LL	8dd\L	.	16.aa\LL 16.ff#\	.
.	.	.	.	.	.	.	.	.	.	32ddd\JJk|	.	.	.	32dd/JJk	.	.	32d/JJk	.	.	.	.	.	.	32bb/JJk	.	.	32ddd\JJk	.
!LO:SIC:s=8D/J	!	!	!	!	!	!	!	!	!	!	!	!	!	!	!	!	!	!	!	!	!	!	!	!	!	!	!	!
8Re/J	.	8D\	.	8A\ 8D\	.	8f#\ 8d\	.	8a/L 8f#/	.	8ff#'\L	.	8D\	.	8f#/L	8f#\	.	8F#/L	8BB\	.	8dd/ 8d/	.	8a/ 8f#'/	.	8ff#/L	8dd\	.	8ff#\L	.
!LO:SIC:s=8DT/	!	!	!	!	!	!	!	!	!	!	!	!	!	!	!	!	!	!	!	!	!	!	!	!	!	!	!	!
8Re/	.	8D\J	.	8A\J 8D\	.	8e#X\J 8d\	.	8b/J 8g#X/	.	8bbT\J	.	8D\J	.	8b/J	8e#X\J	.	8BT/J	8G#X\J	.	8dd/J 8d/	.	(8g#X/J 8e#X/	.	8bbT/J	8dd\J	.	8bbT\J	.
*	*	*	*	*	*	*	*	*	*	*	*	*	*	*	*	*	*v	*v	*	*	*	*	*	*	*	*	*	*
=6	=6	=6	=6	=6	=6	=6	=6	=6	=6	=6	=6	=6	=6	=6	=6	=6	=6	=6	=6	=6	=6	=6	=6	=6	=6	=6	=6
*tremolo	*	*	*	*rep	*	*tremolo	*	*tremolo	*	*	*	*	*	*	*	*	*	*	*rep	*	*tremolo	*	*	*	*	*	*
!LO:SIC:s=8D/L	!	!	!	!	!	!	!	!	!	!	!	!	!	!	!	!	!	!	!	!	!	!	!	!	!	!	!
8Re/L	.	8D\L	.	8A\L 8D\	.	8d\L	.	8a/L 8f#/	.	16.aa'\LL	.	8D\L	.	16.a/LL	8f#\L	.	16.A\LL 16.F#\	.	8dd/L 8d/	.	8a/L 8f#'/)	.	16.aa/LL	8dd\L	.	16.aa\LL	.
.	.	.	.	.	.	.	.	.	.	32ff#\JJk|	.	.	.	32f#/JJk	.	.	32f#\JJk 32D\	.	.	.	.	.	32ff#/JJk	.	.	32ff#\JJk	.
!LO:SIC:s=8D/	!	!	!	!	!	!	!	!	!	!	!	!	!	!	!	!	!	!	!	!	!	!	!	!	!	!	!
8Re/	.	8D\	.	8A\ 8D\	.	8d\	.	8a/ 8f#/	.	8dd'\L	.	8D\	.	8d/L	8f#\	.	8d\L 8F#\	.	8dd/ 8d/	.	8a/ 8f#'/	.	8dd/L	8dd\	.	8dd\L	.
!LO:SIC:s=8DTJ/	!	!	!	!	!	!	!	!	!	!	!	!	!	!	!	!	!	!	!	!	!	!	!	!	!	!	!
8Re/J	.	8D\J	.	8A\J 8D\	.	8d\J	.	8a/J 8f#/	.	8ff#t\J	.	8D\J	.	8f#/J	8d\J	.	8f#\J 8AT\	.	8dd/J 8d/	.	8a/J 8f#'/	.	8ff#t/J	8dd\J	.	8ff#t\J	.
*	*	*	*	*Xrep	*	*	*	*	*	*	*	*	*	*	*	*	*	*	*Xrep	*	*	*	*	*	*	*	*
*	*	*	*	*	*	*	*	*	*	*	*	*	*	*v	*v	*	*	*	*	*	*	*	*	*	*	*	*
=7	=7	=7	=7	=7	=7	=7	=7	=7	=7	=7	=7	=7	=7	=7	=7	=7	=7	=7	=7	=7	=7	=7	=7	=7	=7	=7
*	*	*	*	*	*	*	*	*	*	*	*	*	*	*	*	*^	*	*	*	*	*	*	*	*	*	*
*	*	*	*	*	*	*	*	*	*	*	*	*	*	*tremolo	*	*	*tremolo	*	*	*	*	*	*	*	*	*	*
!LO:SIC:s=8AA\L	!	!	!	!	!	!	!	!	!	!	!	!	!	!	!	!	!	!	!	!	!	!	!	!	!	!	!
8Re\L	.	8AA/L	.	8E/L 8AA/	.	8e\L 8c#\	.	8a/L 8e/	.	(8ee\L	.	8AA/L	.	8e/L 8A/	.	(8e/L	8AA\L	.	8ee/L 8a/	.	8a/L 8e/	.	8ee/L	8cc#\L	.	(8ee\L	.
!LO:SIC:s=8AA\	!	!	!	!	!	!	!	!	!	!	!	!	!	!	!	!	!	!	!	!	!	!	!	!	!	!	!
8Re\	.	8AA/	.	8E/ 8AA/	.	8e\ 8c#\	.	8a/ 8e/	.	16.dd\L)	.	8AA/	.	8e/ 8A/	.	16.d/L)	8AA\	.	8ee/ 8a/	.	8a/ 8e/	.	8ee/	8cc#\	.	16.dd\L)	.
.	.	.	.	.	.	.	.	.	.	32cc#\K|	.	.	.	.	.	32c#/K|	.	.	.	.	.	.	.	.	.	32cc#\K|	.
!LO:SIC:s=8AA\J	!	!	!	!	!	!	!	!	!	!	!	!	!	!	!	!	!	!	!	!	!	!	!	!	!	!	!
8Re\J	.	8AA/J	.	8E/J 8AA/	.	8e\J 8c#\	.	8a/J 8e/	.	16.b\|	.	8AA/J	.	8e/J 8A/	.	16.B/|	8AA\J	.	8ee/J 8a/	.	8a/J 8e/	.	8ee/J	8cc#\J	.	16.b\|	.
.	.	.	.	.	.	.	.	.	.	32a\JJk|	.	.	.	.	.	32A/JJk|	.	.	.	.	.	.	.	.	.	32a\JJk|	.
*	*	*Xtremolo	*	*Xtremolo	*	*Xtremolo	*	*Xtremolo	*	*	*	*Xtremolo	*	*Xtremolo	*	*	*Xtremolo	*	*Xtremolo	*	*Xtremolo	*	*	*Xtremolo	*	*	*
*	*	*	*	*	*	*	*	*	*	*	*	*	*	*	*	*v	*v	*	*	*	*	*	*v	*v	*	*	*
!!LO:PB:g=original
=8	=8	=8	=8	=8	=8	=8	=8	=8	=8	=8	=8	=8	=8	=8	=8	=8	=8	=8	=8	=8	=8	=8	=8	=8	=8
!LO:SIC:s=8D\L	!	!	!	!	!	!	!	!	!	!	!	!	!	!	!	!	!	!	!	!	!	!	!	!	!
8Re/L	.	8D\L	.	8D\L	.	8f#\L 8d\	.	8a/L 8f#/	.	8ff#\L 8dd\	.	8D\L	.	8f#/L 8d/	.	8f#\L 8D\	.	8ff#\L 8dd\	.	8a/L 8f#/	.	8ff#\L 8dd\	.	8ff#'\L	.
!LO:SIC:s=8D\	!	!	!	!	!	!	!	!	!	!	!	!	!	!	!	!	!	!	!	!	!	!	!	!	!
8Re/	.	8F#\	.	8F#\	.	8f#\ 8d\	.	8a/ 8f#/	.	8dd\ 8f#\	.	8F#\	.	8f#/ 8d/	.	8d\ 8F#\	.	8dd\ 8f#\	.	8a/ 8f#/	.	8dd\	.	8dd'\	.
!LO:SIC:s=8D\J	!	!	!	!	!	!	!	!	!	!	!	!	!	!	!	!	!	!	!	!	!	!	!	!	!
8Re/J	.	8A\J	.	8A\J	.	8e\J 8A\	.	8cc#/J 8e/	.	8ee\J 8a\	.	8A\J	.	8e/J 8c#/	.	8e\J 8A\	.	8ee\J 8a\	.	8a/J 8e/	.	8ee\J 8cc#\	.	8ee'\J	.
!!pagebreak:original
=9	=9	=9	=9	=9	=9	=9	=9	=9	=9	=9	=9	=9	=9	=9	=9	=9	=9	=9	=9	=9	=9	=9	=9	=9	=9
*	*	*	*	*	*	*	*	*	*	*	*	*	*	*^	*	*^	*	*	*	*	*	*^	*	*	*
*	*	*tremolo	*	*	*	*	*	*	*	*	*	*tremolo	*	*	*	*	*	*	*	*tremolo	*	*	*	*	*tremolo	*	*	*
!LO:SIC:s=8D\L	!	!	!	!	!	!	!	!	!	!	!	!	!	!	!	!	!	!	!	!	!	!	!	!	!	!	!	!
8Re/L	.	8D\L	.	8A\L 8D\	.	8f#\L 8d\	.	8dd/L 8f#/	.	16.aa\LL	.	8D\L	.	16.a/LL	8d\L	.	16.A/LL	8F#\	.	8dd/L 8d/	.	8a/L 8f#/	.	16.aa/LL	8dd\L	.	16.aa\LL	.
.	.	.	.	.	.	.	.	.	.	32ddd\JJk	.	.	.	32dd/JJk	.	.	32d/JJk	.	.	.	.	.	.	32ddd/JJk	.	.	32ddd\JJk	.
!LO:SIC:s=8D\J	!	!	!	!	!	!	!	!	!	!	!	!	!	!	!	!	!	!	!	!	!	!	!	!	!	!	!	!
8Re/J	.	8D\	.	8A\ 8D\	.	8f#\ 8d\	.	8a/ 8f#/	.	8ff#\L	.	8D\	.	8f#/L	8f#\	.	8F#/L	8D\L	.	8dd/ 8d/	.	8a/J 8f#/	.	8ff#/L	8dd\	.	8ff#\L	.
!LO:SIC:s=8DT\	!	!	!	!	!	!	!	!	!	!	!	!	!	!	!	!	!	!	!	!	!	!	!	!	!	!	!	!
8ReT/	.	8D\J	.	8B\J 8D\	.	8e#X\J 8d^<\	.	8b/J 8g#X^/	.	8bb^<T\J	.	8D\J	.	8b/J	8e#X\J	.	8BT/J	8G#X\J	.	8dd/J 8d/	.	(8g#X/ (8e#X/	.	8bbT/J	8dd\J	.	8bbT\J	.
*	*	*	*	*	*	*	*	*	*	*	*	*	*	*	*	*	*	*	*	*Xtremolo	*	*	*	*	*	*	*	*
=10	=10	=10	=10	=10	=10	=10	=10	=10	=10	=10	=10	=10	=10	=10	=10	=10	=10	=10	=10	=10	=10	=10	=10	=10	=10	=10	=10	=10
*	*	*	*	*tremolo	*	*tremolo	*	*tremolo	*	*	*	*rep	*	*	*	*	*	*	*	*	*	*tremolo	*	*	*	*	*	*
!LO:SIC:s=8D/L	!	!	!	!	!	!	!	!	!	!	!	!	!	!	!	!	!	!	!	!	!	!	!	!	!	!	!	!
8Re/L	.	8D\L	.	8A\L 8D\	.	8f#\L 8d\	.	8a/L 8f#/	.	16.aa\LL	.	8D\L	.	16.a/LL	8f#\L	.	16.A/LL	16.F#\LL	.	8dd/L 8d/	.	8a/L 8f#'/))	.	16.aa/LL	8dd\L	.	16.aa\LL	.
.	.	.	.	.	.	.	.	.	.	32ff#\JJk	.	.	.	32f#/JJk	.	.	32f#/JJk	32D\JJk	.	.	.	.	.	32ff#/JJk	.	.	32ff#\JJk	.
!LO:SIC:s=8D/	!	!	!	!	!	!	!	!	!	!	!	!	!	!	!	!	!	!	!	!	!	!	!	!	!	!	!	!
8Re/	.	8D\	.	8A\ 8D\	.	8f#\ 8d\	.	8a/ 8f#/	.	8dd\L	.	8D\	.	8d/L	8f#\	.	8d/L	8F#\L	.	8dd/J 8d/	.	8a/ 8f#'/	.	8dd/L	8dd\	.	8dd\L	.
!LO:SIC:s=8D/J	!	!	!	!	!	!	!	!	!	!	!	!	!	!	!	!	!	!	!	!	!	!	!	!	!	!	!	!
8Re/J	.	8D\J	.	8A\J 8D\	.	8f#\J 8d\	.	8a/J 8f#/	.	8ff#t\J	.	8D\J	.	8f#/J	8d\J	.	8f#t/J	8A\J	.	8ff#\ 8dd\	.	8a/J 8f#'/	.	8ff#t/J	8dd\J	.	8ff#t\J	.
*	*	*	*	*	*	*	*	*	*	*	*	*Xrep	*	*	*	*	*	*	*	*	*	*Xtremolo	*	*	*Xtremolo	*	*	*
*	*	*Xtremolo	*	*Xtremolo	*	*Xtremolo	*	*Xtremolo	*	*	*	*Xtremolo	*	*	*	*	*	*	*	*	*	*	*	*	*	*	*	*
*	*	*	*	*	*	*	*	*	*	*	*	*	*	*v	*v	*	*	*	*	*	*	*	*	*v	*v	*	*	*
*	*	*	*	*	*	*	*	*	*	*	*	*	*	*	*	*v	*v	*	*	*	*	*	*	*	*	*
=11	=11	=11	=11	=11	=11	=11	=11	=11	=11	=11	=11	=11	=11	=11	=11	=11	=11	=11	=11	=11	=11	=11	=11	=11	=11
*	*	*	*	*	*	*	*	*	*	*	*	*	*	*	*	*	*	*^	*	*	*	*	*	*	*
!	!	!	!	!	!	!	!	!	!	!LO:TUP:a:problem=klamra łukowa	!	!	!	!	!	!	!	!	!	!	!	!	!	!	!LO:TUP:a:problem=klamra łukowa	!
4.r	.	8E\	.	8E\	.	8a\ 8e\	.	8cc#/ 8e/	.	24ee\LL	.	8E\	.	8e/ 8c#/	.	8c#\ 8A\	.	8ee/	8ee\	.	8a/ 8e/	.	8ee\ 8cc#\	.	24ee\LL	.
.	.	.	.	.	.	.	.	.	.	24aa\	.	.	.	.	.	.	.	.	.	.	.	.	.	.	24aa\	.
.	.	.	.	.	.	.	.	.	.	24ccc#\JJ	.	.	.	.	.	.	.	.	.	.	.	.	.	.	24ccc#\JJ	.
.	.	8r	.	8r	.	8r	.	8r	.	16eee\	.	8r	.	8r	.	8r	.	8r	8r	.	8r	.	8r	.	16eee\	.
.	.	.	.	.	.	.	.	.	.	16r	.	.	.	.	.	.	.	.	.	.	.	.	.	.	16r	.
.	.	8E\	.	8E\	.	8b\ 8e\	.	8dd/ 8e/	.	8gg#X\	.	8E\	.	8f#/ 8d/	.	8d\ 8B\	.	8ee/	8ee\	.	8b/ 8e/	.	8gg#X\ 8dd\	.	8gg#X\	.
*	*	*	*	*	*	*	*	*	*	*	*	*	*	*	*	*	*	*v	*v	*	*	*	*	*	*	*
=12	=12	=12	=12	=12	=12	=12	=12	=12	=12	=12	=12	=12	=12	=12	=12	=12	=12	=12	=12	=12	=12	=12	=12	=12	=12
*	*	*	*	*	*	*	*	*	*	*	*	*	*	*	*	*	*	*	*	*	*	*^	*	*	*
!LO:SIC:s=16AA\	!	!	!	!	!	!	!	!	!	!	!	!	!	!	!	!	!	!	!	!	!	!	!	!	!	!
16Re\	.	16AA/	.	16AA/	.	16a\ 16e\	.	16cc#/ 16e/	.	(32bb\KLL	.	16AA/	.	16e/ 16c#/	.	16c#\ 16A\	.	16ee/ 16a/	.	16a/ 16e/	.	32bb/KLL	16cc#\	.	(32bb\KLL	.
.	.	.	.	.	.	.	.	.	.	16aa\JJ)	.	.	.	.	.	.	.	.	.	.	.	16aa/JJ	.	.	16aa\JJ)	.
16r	.	16r	.	16r	.	16r	.	16r	.	.	.	16r	.	16r	.	16r	.	16r	.	16r	.	.	16r	.	.	.
.	.	.	.	.	.	.	.	.	.	32r	.	.	.	.	.	.	.	.	.	.	.	32r	.	.	32r	.
!LO:SIC:s=4AA\	!	!	!	!	!	!	!	!	!	!	!	!	!	!	!	!	!	!	!	!	!	!	!	!	!	!
4Re\	.	4A\	.	4A/ 4E/ 4AA/	.	4a\ 4e\ 4A^<\	.	4cc#/ 4e/ 4A/	.	4aa\ 4a\	.	4AA/	.	4e/ 4c#/	.	4c#\ 4A\	.	4ee/ 4a/	.	4a/ 4e/	.	4aa/	4cc#\	.	4aa\	.
*	*	*	*	*	*	*	*	*	*	*	*	*	*	*	*	*	*	*	*	*	*	*v	*v	*	*	*
=13:|!|:	=13:|!|:	=13:|!|:	=13:|!|:	=13:|!|:	=13:|!|:	=13:|!|:	=13:|!|:	=13:|!|:	=13:|!|:	=13:|!|:	=13:|!|:	=13:|!|:	=13:|!|:	=13:|!|:	=13:|!|:	=13:|!|:	=13:|!|:	=13:|!|:	=13:|!|:	=13:|!|:	=13:|!|:	=13:|!|:	=13:|!|:	=13:|!|:	=13:|!|:
*>C	*	*	*	*	*	*	*	*	*	*	*	*	*	*	*	*	*	*	*	*	*	*	*	*	*
*	*	*	*	*	*	*	*	*^	*	*	*	*	*	*	*	*	*	*^	*	*^	*	*	*	*	*
!	!	!	!	!	!	!	!	!	!	!	!LO:TX:a:t=4	!	!	!	!	!	!	!	!	!	!	!	!	!	!	!	!	!
.	.	.	.	.	.	.	.	.	.	.	(>8qee/	.	.	.	.	.	.	.	.	.	.	.	.	.	.	.	.	.
!	!	!	!	!	!	!	!	!	!	!LO:DY:rj:a	!LO:TX:a:t=4	!	!	!	!	!	!	!	!	!	!	!	!	!LO:DY:rj	!	!	!	!
4.r	.	4.r	.	16d\	.	16e\ 16d\	.	16b-X/ 16g/|	16ryy	mf	16.gg\LL)	.	4.r	.	4.r	.	16d\|	.	16ee/	16ee\|	.	16b-X/	16g\	mf	4.r	.	16.r	.
.	.	.	.	16r	.	16r	.	16r	16ryy	.	.	.	.	.	.	.	16r	.	16r	16ryy	.	16r	16r	.	.	.	.	.
.	.	.	.	.	.	.	.	.	.	.	(32gg\JJk|	.	.	.	.	.	.	.	.	.	.	.	.	.	.	.	(32gg\|	.
.	.	.	.	4c#\	.	4e\ 4c#\	.	4a^/	4g\	.	4a/)	.	.	.	.	.	4c#^<\	.	4ee^/	4ee\	.	4a^/	4g\	.	.	.	4a/)	.
=14	=14	=14	=14	=14	=14	=14	=14	=14	=14	=14	=14	=14	=14	=14	=14	=14	=14	=14	=14	=14	=14	=14	=14	=14	=14	=14	=14	=14
*	*	*	*	*	*	*	*	*	*	*	*	*	*	*	*	*	*	*	*	*	*	*rep	*rep	*	*	*	*	*
!	!	!	!	!	!	!	!	!	!	!	!LO:TX:a:t=4	!	!	!	!	!	!	!	!	!	!	!	!	!	!	!	!	!
.	.	.	.	.	.	.	.	.	.	.	8qee/	.	.	.	.	.	.	.	.	.	.	.	.	.	.	.	.	.
!	!	!	!	!	!	!	!	!	!	!	!LO:TX:a:t=4	!	!	!	!	!	!	!	!	!	!	!	!	!	!	!	!	!
4.r	.	4.r	.	16d\	.	16e\ 16d\	.	16b-X/ 16g/|	16ryy	.	16.gg\LL	.	4.r	.	4.r	.	16d\|	.	16ee/	16ee\	.	16b-X/|	16g\	.	4.r	.	16.r	.
.	.	.	.	16r	.	16r	.	16r	16ryy	.	.	.	.	.	.	.	16r	.	16r	16ryy	.	16r	16r	.	.	.	.	.
.	.	.	.	.	.	.	.	.	.	.	(32gg\JJk	.	.	.	.	.	.	.	.	.	.	.	.	.	.	.	32gg\	.
.	.	.	.	4c#\	.	4e\ 4c#\	.	4a/	4g\	.	4a/)	.	.	.	.	.	4c#^<\	.	4ee/	4ee\	.	4a^/	4g\	.	.	.	4a/	.
.	.	.	.	.	.	.	.	.	.	.	.	f	.	.	.	.	.	.	.	.	.	.	.	.	.	.	.	.
*	*	*	*	*	*	*	*	*	*	*	*	*	*	*	*	*	*	*	*	*	*	*Xrep	*Xrep	*	*	*	*	*
*	*	*	*	*	*	*	*	*	*	*	*	*	*	*	*	*	*	*	*v	*v	*	*	*	*	*	*	*	*
*	*	*	*	*	*	*	*	*v	*v	*	*	*	*	*	*	*	*	*	*	*	*v	*v	*	*	*	*	*
=15	=15	=15	=15	=15	=15	=15	=15	=15	=15	=15	=15	=15	=15	=15	=15	=15	=15	=15	=15	=15	=15	=15	=15	=15	=15
*	*	*	*	*	*	*	*	*	*	*	*	*	*	*^	*	*	*	*	*	*	*	*	*	*	*
*	*	*tremolo	*	*	*	*	*	*	*	*	*	*	*	*	*	*	*	*	*tremolo	*	*	*	*	*	*	*
!	!	!	!	!	!	!	!	!	!	!	!	!	!	!	!	!	!	!	!	!	!LO:TX:a:t=Col Oboe	!	!	!	!	!
!	!	!	!	!	!	!	!	!	!	!	!	!	!	!	!	!	!	!	!	!	!LO:TX:a:t=2o 8va	!	!LO:TX:a:t=2o 8va	!	!	!
!LO:SIC:s=8D/L	!	!	!	!	!	!	!	!	!	!	!	!	!	!	!	!	!	!	!	!	!	!	!	!	!	!
8Re/L	.	8D\L	.	8d\L	.	8d\L	.	16.d/LL	.	16.dd\LL|	.	4.D\	.	16.d/LL|	16.d\LL	.	8d\L 8D\	.	8aa\L 8dd\	.	16dd\LLyy|	fyy	16dd\LL|	.	16dd\LL|	.
.	.	.	.	.	.	.	.	.	.	.	.	.	.	.	.	.	.	.	.	.	16ee\yy|	.	16ee\|	.	16ee\|	.
.	.	.	.	.	.	.	.	32e/K	.	32ee\K|	.	.	.	32e/K|	32e\K	.	.	.	.	.	.	.	.	.	.	.
!LO:SIC:s=8D/	!	!	!	!	!	!	!	!	!	!	!	!	!	!	!	!	!	!	!	!	!	!	!	!	!	!
8Re/	.	8D\	.	8A\ 8D\	.	8a\ 8d\	.	16f#/	.	16ff#'\	.	.	.	16f#/|	16f#\	.	8A\ 8D\	.	8aa\ 8dd\	.	16ff#'\yy	.	16ff#'\	.	16ff#'\	.
.	.	.	.	.	.	.	.	16g#X/	.	16gg#X'\	.	.	.	16g#X/|	16g#\	.	.	.	.	.	16gg#X'\yy	.	16gg#X'\	.	16gg#X'\	.
!LO:SIC:s=8D/J	!	!	!	!	!	!	!	!	!	!	!	!	!	!	!	!	!	!	!	!	!	!	!	!	!	!
8Re/J	.	8D\J	.	8A\J 8D\	.	8a\J 8d\	.	16a/	.	16aa'\	.	.	.	16a/|	16a\	.	8A\J 8D\	.	8aa\J 8dd\	.	16aa'\yy	.	16aa'\	.	16aa'\	.
.	.	.	.	.	.	.	.	16b/JJ	.	16bb'\JJ	.	.	.	16b/JJ|	16b\JJ	.	.	.	.	.	16bb'\JJyy	.	16bb'\JJ	.	16bb'\JJ	.
*	*	*	*	*	*	*	*	*	*	*	*	*	*	*	*	*	*	*	*Xtremolo	*	*	*	*	*	*	*
!!LO:PB:g=original
=16	=16	=16	=16	=16	=16	=16	=16	=16	=16	=16	=16	=16	=16	=16	=16	=16	=16	=16	=16	=16	=16	=16	=16	=16	=16	=16
*	*	*	*	*tremolo	*	*tremolo	*	*	*	*	*	*	*	*	*	*	*tremolo	*	*	*	*	*	*	*	*	*
!LO:SIC:s=4DT/	!	!	!	!	!	!	!	!	!	!	!	!	!	!	!	!	!	!	!	!	!	!	!	!	!	!
4ReT/	.	8D\L	.	8A\L 8D\	.	8a\L 8d\	.	4aT/	.	4aaT\	.	4.D\	.	4a/	4a\	.	8A\L 8D\	.	4.ryy	.	4.ryy	.	4aa\ 4aT\	.	4aaT\	.
.	.	8D\	.	8A\ 8D\	.	8a\ 8d\	.	.	.	.	.	.	.	.	.	.	8A\ 8D\	.	.	.	.	.	.	.	.	.
!LO:SIC:s=8D/	!	!	!	!	!	!	!	!	!	!	!	!	!	!	!	!	!	!	!	!	!	!	!	!	!	!
8Re/	.	8D\J	.	8A\J 8D\	.	8a\J 8d\	.	8f#/	.	8ff#\	.	.	.	8f#/	8f#\	.	8A\J 8D\	.	.	.	.	.	8ff#\ 8f#\	.	8ff#\	.
*	*	*Xtremolo	*	*Xtremolo	*	*Xtremolo	*	*	*	*	*	*	*	*	*	*	*Xtremolo	*	*	*	*	*	*	*	*	*
*	*	*	*	*	*	*	*	*	*	*	*	*	*	*v	*v	*	*	*	*	*	*	*	*	*	*	*
!!pagebreak:original
=17	=17	=17	=17	=17	=17	=17	=17	=17	=17	=17	=17	=17	=17	=17	=17	=17	=17	=17	=17	=17	=17	=17	=17	=17	=17
*	*	*	*	*	*	*	*	*	*	*	*	*	*	*	*	*	*	*^	*	*^	*	*	*	*	*
.	.	.	.	.	.	.	.	.	.	(8qee/	.	.	.	.	.	.	.	.	.	.	.	.	.	.	.	.	.
!	!	!	!	!	!	!	!	!	!LO:DY:rj	!	!	!	!	!	!	!	!	!	!	!	!	!	!	!	!	!	!
4.r	.	4.r	.	16d\	.	16e\ 16d\	.	16b-X/ 16g'/|	mf	16.gg\LL)	.	4.r	.	4.r	.	16d\|	.	16ee/	16ee\	.	16b-X/	16g\|	.	4.r	.	16.r	.
.	.	.	.	16r	.	16r	.	16r	.	.	.	.	.	.	.	16r	.	16r	16ryy	.	16r	16r	.	.	.	.	.
.	.	.	.	.	.	.	.	.	.	(32gg\JJk|	.	.	.	.	.	.	.	.	.	.	.	.	.	.	.	(32gg\|	.
.	.	.	.	4c#\	.	4e\ 4c#\	.	4a/ 4g'^/	.	4a/)	.	.	.	.	.	4c#'\	.	4ee/	4ee\	.	4a'^/	4g\	.	.	.	4a/)	.
=18	=18	=18	=18	=18	=18	=18	=18	=18	=18	=18	=18	=18	=18	=18	=18	=18	=18	=18	=18	=18	=18	=18	=18	=18	=18	=18	=18
.	.	.	.	.	.	.	.	.	.	(8qee/	.	.	.	.	.	.	.	.	.	.	.	.	.	.	.	.	.
4.r	.	4.r	.	16d\	.	16e\ 16d\	.	16b-X/ 16g/	.	16.gg\LL)	.	4.r	.	4.r	.	16d\|	.	16ee/	16ee\	.	16b-X/|	16g\	.	4.r	.	16.r	.
.	.	.	.	16r	.	16r	.	16r	.	.	.	.	.	.	.	16r	.	16r	16ryy	.	16r	16r	.	.	.	.	.
.	.	.	.	.	.	.	.	.	.	32gg\JJk|	.	.	.	.	.	.	.	.	.	.	.	.	.	.	.	(32gg\|	.
.	.	.	.	4c#\	.	4e\ 4c#\	.	4a/ 4g^/	.	4a/	.	.	.	.	.	4c#'\	.	4ee/	4ee\	.	4a'^/	4g\	.	.	.	4a/)	.
*	*	*	*	*	*	*	*	*	*	*	*	*	*	*	*	*	*	*v	*v	*	*	*	*	*	*	*	*
=19	=19	=19	=19	=19	=19	=19	=19	=19	=19	=19	=19	=19	=19	=19	=19	=19	=19	=19	=19	=19	=19	=19	=19	=19	=19	=19
*	*	*	*	*	*	*tremolo	*	*	*	*	*	*	*	*	*	*	*	*tremolo	*	*tremolo	*tremolo	*	*	*	*	*
!LO:SIC:s=8AA\L	!	!LO:TX:a:t=P:mixedbeam:problem	!	!LO:TX:a:t=P:problem=mixedbeam	!LO:DY:rj	!	!LO:DY:rj	!	!	!	!LO:DY:rj	!	!	!	!	!LO:TX:a:t=P:problem=mixedbeam	!	!	!	!	!	!	!LO:TX:a:t=Col Picolini	!	!	!
8Re\L	.	8AA/L	.	8AA/L	f	8g\L 8A\	f	16.cc#\LL	.	16.ee\LL	f	4A\	.	16.e/LL 16.c#/	.	8AA/L	.	8ee/L 8a/	.	8a/L	8g\L	.	16.eeyy\LL 16.cc#\yy	.	16.ee\LL 16.cc#\	.
.	.	.	.	.	.	.	.	32dd\K	.	32ff#\K	.	.	.	32f#/K 32d/	.	.	.	.	.	.	.	.	32ff#yy\K 32dd\yy	.	32ff#\K 32dd\	.
!LO:SIC:s=8AA\	!	!	!	!	!	!	!	!	!	!	!	!	!	!	!	!	!	!	!	!	!	!	!	!	!	!
8Re\	.	8A\	.	8A\	.	8g\ 8A\	.	16.ee\	.	16.gg\	.	.	.	16.g/ 16.e/	.	8A\	.	8ee/ 8a/	.	8a/	8g\	.	16.ggyy\ 16.ee\yy	.	16.gg\ 16.ee\	.
.	.	.	.	.	.	.	.	32ff#\K	.	32aa\K	.	.	.	32a/K 32f#/	.	.	.	.	.	.	.	.	32aayy\K 32ff#\yy	.	32aa\K 32ff#\	.
!LO:SIC:s=8AA\J	!	!	!	!	!	!	!	!	!	!	!	!	!	!	!	!	!	!	!	!	!	!	!	!	!	!
8Re\J	.	8AA/J	.	8AA\J	.	8g\J 8A\	.	16.gg\	.	16.bb\	.	8AA/	.	16.b/ 16.g/	.	8AA/J	.	8ee/J 8a/	.	8a/J	8g\J	.	16.bbyy\ 16.gg\yy	.	16.bb\ 16.gg\	.
.	.	.	.	.	.	.	.	32ee\JJk	.	32ccc#\JJk	.	.	.	32cc#/JJk 32e/	.	.	.	.	.	.	.	.	32ccc#yy\JJk 32ee\yy	.	32ccc#\JJk 32ee\	.
*	*	*	*	*	*	*Xtremolo	*	*	*	*	*	*	*	*	*	*	*	*Xtremolo	*	*Xtremolo	*Xtremolo	*	*	*	*	*
*	*	*	*	*	*	*	*	*	*	*	*	*	*	*	*	*	*	*	*	*v	*v	*	*	*	*	*
=20	=20	=20	=20	=20	=20	=20	=20	=20	=20	=20	=20	=20	=20	=20	=20	=20	=20	=20	=20	=20	=20	=20	=20	=20	=20
!LO:SIC:s=16D/	!	!	!	!	!	!	!	!	!	!	!	!	!	!	!	!	!	!	!	!	!	!	!	!	!
16Re/	.	16D\	.	16D\	.	16f#\ 16A\	.	16ff#\	.	16ddd\	.	16D\	.	16dd/ 16f#/	.	16D\	.	16dd/ 16f#/	.	16a/ 16f#/	.	16dddyy\ 16ff#\yy	.	16ddd\ 16ff#\	.
16r	.	16r	.	16r	.	16r	.	16r	.	16r	.	16r	.	16r	.	16r	.	16r	.	16r	.	16ryy	.	16r	.
!LO:SIC:s=4D/	!	!	!	!	!	!	!	!	!	!	!	!	!	!	!	!	!	!	!	!	!	!	!	!	!
4Re/	.	4d\ 4D\	.	4A\ 4D\	.	4f#\ 4A\	.	4dd/ 4d/	.	4bb\ 4ff#\ 4d\	.	4D\	.	4dd/ 4f#/	.	4D\	.	4dd/ 4f#/	.	4a/ 4f#/	.	4dddyy\ 4ff#\yy	.	4ddd\ 4ff#\	.
=21:|!|:	=21:|!|:	=21:|!|:	=21:|!|:	=21:|!|:	=21:|!|:	=21:|!|:	=21:|!|:	=21:|!|:	=21:|!|:	=21:|!|:	=21:|!|:	=21:|!|:	=21:|!|:	=21:|!|:	=21:|!|:	=21:|!|:	=21:|!|:	=21:|!|:	=21:|!|:	=21:|!|:	=21:|!|:	=21:|!|:	=21:|!|:	=21:|!|:	=21:|!|:
*>D	*	*	*	*	*	*	*	*	*	*	*	*	*	*	*	*	*	*	*	*	*	*	*	*	*
!	!	!	!LO:DY:rj	!	!LO:DY:rj	!	!	!	!	!	!	!	!	!	!	!	!	!	!	!LO:TX:a:t=dolce	!	!	!	!	!
4.r	.	8GG/	p	16G\LL	p	8G/	.	8r	.	8r	p	4.r	.	4.r	.	8.d\L 8.B'\	.	4.r	.	8.dd\L 8.b\	.	8.bb\L 8.dd\|	.	4.r	.
.	.	.	.	16d\	.	.	.	.	.	.	.	.	.	.	.	.	.	.	.	.	.	.	.	.	.
!	!	!	!	!	!	!	!	!	!LO:DY:rj	!	!	!	!	!	!	!	!	!	!	!	!	!	!	!	!
.	.	8r	.	16B\	.	8r	.	8d/L 8G/	p	8g/L 8B'/	.	.	.	.	.	.	.	.	.	.	.	.	.	.	.
.	.	.	.	16d\	.	.	.	.	.	.	.	.	.	.	.	16c#X\Jk 16A#X'\	.	.	.	16cc#\Jk 16a#X\	.	16aa#X\Jk 16cc#\|	.	.	.
.	.	8r	.	16B\	.	8r	.	8d/J 8G/	.	8g/J 8B'/	.	.	.	.	.	16d\LL 16B'\	.	.	.	16dd\LL 16b'\	.	16bb\LL 16dd'\	.	.	.
.	.	.	.	16d\JJ	.	.	.	.	.	.	.	.	.	.	.	16B\JJ 16G'\	.	.	.	16b\JJ 16g'\	.	16gg\JJ 16b'\	.	.	.
=22	=22	=22	=22	=22	=22	=22	=22	=22	=22	=22	=22	=22	=22	=22	=22	=22	=22	=22	=22	=22	=22	=22	=22	=22	=22
*	*	*	*	*	*	*rep	*	*	*	*	*	*	*	*	*	*	*	*	*	*	*	*	*	*	*
!	!	!	!	!	!	!	!	!	!	!	!	!	!	!	!	!LO:TUP:a:problem=klamra łukowa	!	!	!	!LO:TUP:a:problem=klamra łukowa	!	!	!	!LO:TUP:a:problem=klamra łukowa	!
4.r	.	8GG/	.	16G\LL	.	8G/	.	16e/ 16G/	.	16g/ 16cn/|	.	4.r	.	4.r	.	24e\LL 24cn\	.	4.r	.	24ee\LL 24ccn\	.	16cccn\ 16ee\	.	24ee\LL 24ccn\	.
.	.	.	.	.	.	.	.	.	.	.	.	.	.	.	.	24f#\ 24d\	.	.	.	24ff#\ 24dd\	.	.	.	24ff#\ 24dd\	.
.	.	.	.	16e\	.	.	.	16r	.	16r	.	.	.	.	.	.	.	.	.	.	.	16r	.	.	.
.	.	.	.	.	.	.	.	.	.	.	.	.	.	.	.	24g\JJ 24e\	.	.	.	24gg\JJ 24ee\	.	.	.	24gg\JJ 24ee\	.
.	.	8r	.	16G\	.	8r	.	8d/L 8G/	.	8g/L 8B'/	.	.	.	.	.	4d\ 4B'\	.	.	.	4dd\ 4b\	.	4bb\ 4dd^<\	.	4dd\ 4b'\	.
.	.	.	.	16d\	.	.	.	.	.	.	.	.	.	.	.	.	.	.	.	.	.	.	.	.	.
.	.	8r	.	16B\	.	8r	.	8d/J 8G/	.	8g/J 8B'/	.	.	.	.	.	.	.	.	.	.	.	.	.	.	.
.	.	.	.	16d\JJ	.	.	.	.	.	.	.	.	.	.	.	.	.	.	.	.	.	.	.	.	.
*	*	*	*	*	*	*Xrep	*	*	*	*	*	*	*	*	*	*	*	*	*	*	*	*	*	*	*
=23	=23	=23	=23	=23	=23	=23	=23	=23	=23	=23	=23	=23	=23	=23	=23	=23	=23	=23	=23	=23	=23	=23	=23	=23	=23
*	*	*	*	*	*	*	*	*	*	*	*	*	*	*	*	*	*	*^	*	*	*	*	*	*	*
!	!	!	!	!	!	!	!	!	!	!	!	!	!	!LO:TUP:b:problem=klamra łukowa	!	!	!	!	!	!	!	!	!	!	!	!
!	!	!	!	!	!	!	!	!	!	!	!	!	!	!LO:TX:a:t=dolce	!	!	!	!	!	!	!LO:TUP:a:problem=klamra łukowa	!	!LO:TUP:a:problem=klamra łukowa	!	!	!
4.r	.	8D\	.	16D\LL	.	8D/	.	8r	.	8r	.	4.r	.	24ccX/LL 24a/	.	4.r	.	[4.dd/	4.dd\	.	24ccn/LL 24a/	.	24aa\LL 24ccn\	.	4.r	.
.	.	.	.	.	.	.	.	.	.	.	.	.	.	24dd/ 24b/	.	.	.	.	.	.	24dd/ 24b/	.	24bb\ 24dd\	.	.	.
.	.	.	.	16d\	.	.	.	.	.	.	.	.	.	.	.	.	.	.	.	.	.	.	.	.	.	.
.	.	.	.	.	.	.	.	.	.	.	.	.	.	24cc/JJ 24a/	.	.	.	.	.	.	24cc/JJ 24a/	.	24aa\JJ 24cc\	.	.	.
.	.	8r	.	16A\	.	8r	.	8d/L 8A/	.	8f#/L 8cn'/	.	.	.	8b/L 8g'/	.	.	.	.	.	.	8b/L 8g/	.	8gg\L 8b\	.	.	.
.	.	.	.	16d\	.	.	.	.	.	.	.	.	.	.	.	.	.	.	.	.	.	.	.	.	.	.
.	.	8r	.	16A\	.	8r	.	8d/J 8A/	.	8f#/J 8c'/	.	.	.	8a/J 8f#'/	.	.	.	.	.	.	8a/J 8f#/	.	8ff#\J 8a\	.	.	.
.	.	.	.	16d\JJ	.	.	.	.	.	.	.	.	.	.	.	.	.	.	.	.	.	.	.	.	.	.
!!pagebreak:original
=24	=24	=24	=24	=24	=24	=24	=24	=24	=24	=24	=24	=24	=24	=24	=24	=24	=24	=24	=24	=24	=24	=24	=24	=24	=24	=24
4.r	.	8G\	.	16G\LL	.	8G/	.	8r	.	8r	.	4.r	.	16b/LL 16g/	.	4.r	.	4.dd/]	4.dd\	.	16b/LL 16g/	.	16gg\LL 16b\|	.	4.r	.
.	.	.	.	16d\	.	.	.	.	.	.	.	.	.	32r	.	.	.	.	.	.	32r	.	32r	.	.	.
.	.	.	.	.	.	.	.	.	.	.	.	.	.	32e'/JJk	.	.	.	.	.	.	32e/JJk|	.	32ee\JJk|	.	.	.
.	.	8r	.	16B\	.	8r	.	8d/L 8G/	.	8g/L 8B'/	.	.	.	4d'/	.	.	.	.	.	.	4d'/	.	4dd'^<\	.	.	.
.	.	.	.	16d\	.	.	.	.	.	.	.	.	.	.	.	.	.	.	.	.	.	.	.	.	.	.
.	.	8r	.	16B\	.	8r	.	8d/J 8G/	.	8g/J 8B'/	.	.	.	.	.	.	.	.	.	.	.	.	.	.	.	.
.	.	.	.	16d\JJ	.	.	.	.	.	.	.	.	.	.	.	.	.	.	.	.	.	.	.	.	.	.
*	*	*	*	*	*	*	*	*	*	*	*	*	*	*	*	*	*	*v	*v	*	*	*	*	*	*	*
!!LO:PB:g=original
=25	=25	=25	=25	=25	=25	=25	=25	=25	=25	=25	=25	=25	=25	=25	=25	=25	=25	=25	=25	=25	=25	=25	=25	=25	=25
4.r	.	8GG/	.	16G\LL	.	8G/	.	8r	.	8r	.	4.r	.	4.r	.	8.d\L 8.B'\	.	4.r	.	8.dd\L 8.b\|	.	8.bb\L 8.dd\	.	4.r	.
.	.	.	.	16d\	.	.	.	.	.	.	.	.	.	.	.	.	.	.	.	.	.	.	.	.	.
.	.	8r	.	16B\	.	8r	.	8d/L 8G/	.	8g/L 8B/	.	.	.	.	.	.	.	.	.	.	.	.	.	.	.
.	.	.	.	16d\	.	.	.	.	.	.	.	.	.	.	.	16c#\Jk 16A#X'\	.	.	.	16cc#\Jk 16a#X\|	.	16aa#X\Jk 16cc#\	.	.	.
.	.	8r	.	16B\	.	8r	.	8d/J 8G/	.	8g/J 8B/	.	.	.	.	.	16d\LL 16B'\	.	.	.	16dd\LL 16b'\	.	16bb\LL 16dd\	.	.	.
.	.	.	.	16d\JJ	.	.	.	.	.	.	.	.	.	.	.	16B\JJ 16G'\	.	.	.	16b\JJ 16g'\	.	16gg\JJ 16b\	.	.	.
=26	=26	=26	=26	=26	=26	=26	=26	=26	=26	=26	=26	=26	=26	=26	=26	=26	=26	=26	=26	=26	=26	=26	=26	=26	=26
!	!	!	!	!	!	!	!	!	!	!	!	!	!	!	!	!LO:TUP:a:problem=klamra łukowa	!	!	!	!LO:TUP:a:problem=klamra łukowa	!	!	!	!LO:TUP:a:problem=klamra łukowa	!
4.r	.	8GG/	.	16G\LL	.	8G/	.	16e/ 16G/	.	16g/ 16cn/	.	4.r	.	4.r	.	24e\LL 24cn\	.	4.r	.	24ee\LL 24ccn\	.	16cccn\ 16ee\	.	24ee\LL 24ccn\	.
.	.	.	.	.	.	.	.	.	.	.	.	.	.	.	.	24f#\ 24d\	.	.	.	24ff#\ 24dd\	.	.	.	24ff#\ 24dd\	.
.	.	.	.	16e\	.	.	.	16r	.	16r	.	.	.	.	.	.	.	.	.	.	.	16r	.	.	.
.	.	.	.	.	.	.	.	.	.	.	.	.	.	.	.	24g\JJ 24e\	.	.	.	24gg\JJ 24ee\	.	.	.	24gg\JJ 24ee\	.
*	*	*	*	*	*	*	*	*	*	*	*	*	*	*	*	*	*	*	*	*^	*	*	*	*	*
.	.	8r	.	16G\	.	8r	.	8d/L 8G/	.	8g/L 8B/	.	.	.	.	.	4d\ 4B^<\	.	.	.	4dd^/	4b\	.	4bb\ 4dd^<\	.	4dd\ 4b'\	.
.	.	.	.	16d\	.	.	.	.	.	.	.	.	.	.	.	.	.	.	.	.	.	.	.	.	.	.
.	.	8r	.	16B\	.	8r	.	8d/J 8G/	.	8g/J 8B/	.	.	.	.	.	.	.	.	.	.	.	.	.	.	.	.
.	.	.	.	16d\JJ	.	.	.	.	.	.	.	.	.	.	.	.	.	.	.	.	.	.	.	.	.	.
*	*	*	*	*	*	*	*	*	*	*	*	*	*	*	*	*	*	*	*	*v	*v	*	*	*	*	*
=27	=27	=27	=27	=27	=27	=27	=27	=27	=27	=27	=27	=27	=27	=27	=27	=27	=27	=27	=27	=27	=27	=27	=27	=27	=27
*	*	*	*	*	*	*	*	*	*	*	*	*	*	*	*	*	*	*^	*	*	*	*	*	*	*
!	!	!	!	!	!	!	!	!	!	!	!	!	!	!LO:TUP:b:problem=klamra łukowa	!	!	!	!	!	!	!LO:TUP:a:problem=klamra łukowa	!	!LO:TUP:a:problem=klamra łukowa	!	!	!
4.r	.	8D\	.	16D\LL	.	8D/	.	8r	.	8r	.	4.r	.	24ccX/LL 24a/	.	4.r	.	[4.dd/	[4.dd\	.	24ccn/LL 24a/	.	24aa\LL 24ccn\	.	4.r	.
.	.	.	.	.	.	.	.	.	.	.	.	.	.	24dd/ 24b/	.	.	.	.	.	.	24dd/ 24b/	.	24bb\ 24dd\	.	.	.
.	.	.	.	16d\	.	.	.	.	.	.	.	.	.	.	.	.	.	.	.	.	.	.	.	.	.	.
.	.	.	.	.	.	.	.	.	.	.	.	.	.	24cc/JJ 24a/	.	.	.	.	.	.	24cc/JJ 24a/	.	24aa\JJ 24cc\	.	.	.
.	.	8r	.	16A\	.	8r	.	8d/L 8A/	.	8f#/L 8cn/	.	.	.	8b/L 8g/	.	.	.	.	.	.	8b/L 8g'/	.	8gg\L 8b'\	.	.	.
.	.	.	.	16d\	.	.	.	.	.	.	.	.	.	.	.	.	.	.	.	.	.	.	.	.	.	.
.	.	8r	.	16A\	.	8r	.	8d/J 8A/	.	8f#/J 8c/	.	.	.	8a/J 8f#/	.	.	.	.	.	.	8a/J 8f#'/	.	8ff#\J 8a'\	.	.	.
.	.	.	.	16d\JJ	.	.	.	.	.	.	.	.	.	.	.	.	.	.	.	.	.	.	.	.	.	.
=28	=28	=28	=28	=28	=28	=28	=28	=28	=28	=28	=28	=28	=28	=28	=28	=28	=28	=28	=28	=28	=28	=28	=28	=28	=28	=28
*	*	*	*	*	*	*	*	*	*	*	*	*	*	*^	*	*	*	*	*	*	*	*	*	*	*	*
4.r	.	16GG/	.	16G\	.	16G/	.	16d/ 16G/	.	16g/ 16B/	.	4.r	.	16g/	16g\	.	4.r	.	16dd/]	16dd\]	.	16b/ 16g/	.	16gg\ 16b\	.	4.r	.
.	.	16r	.	16r	.	16r	.	16r	.	16r	.	.	.	16r	16ryy	.	.	.	16r	16r	.	16r	.	16r	.	.	.
.	.	4G\	.	4GG/	.	4d/ 4G/	.	4d/ 4G/	.	4g/ 4B/	.	.	.	4g/ 4B/	4ryy	.	.	.	4dd/	4dd\	.	4b/ 4g/	.	4gg\ 4b\	.	.	.
*	*	*	*	*	*	*	*	*	*	*	*	*	*	*v	*v	*	*	*	*v	*v	*	*	*	*	*	*	*
*	*	*	*	*clefC4	*	*	*	*	*	*	*	*	*	*	*	*	*	*	*	*	*	*	*	*	*
=29:|!|:	=29:|!|:	=29:|!|:	=29:|!|:	=29:|!|:	=29:|!|:	=29:|!|:	=29:|!|:	=29:|!|:	=29:|!|:	=29:|!|:	=29:|!|:	=29:|!|:	=29:|!|:	=29:|!|:	=29:|!|:	=29:|!|:	=29:|!|:	=29:|!|:	=29:|!|:	=29:|!|:	=29:|!|:	=29:|!|:	=29:|!|:	=29:|!|:	=29:|!|:
*>E	*	*	*	*	*	*	*	*	*	*	*	*	*	*	*	*	*	*	*	*	*	*	*	*	*
*	*	*	*	*	*	*	*	*	*	*	*	*	*	*	*	*	*	*	*	*	*	*^	*	*	*
*	*	*tremolo	*	*	*	*tremolo	*	*tremolo	*	*	*	*	*	*	*	*	*	*	*	*	*	*	*	*	*	*
!LO:SIC:s=8AA\L	!	!	!LO:DY:rj	!	!	!	!	!	!	!	!LO:DY:rj	!	!	!	!LO:DY:rj	!	!	!	!LO:DY:rj	!	!	!	!	!	!	!
8Re\L	.	8AA/L	f	16.c#\LL 16.E\ 16.AA\|	.	8e\L 8c#\	.	8g/L 8A/	.	16.cc#/LL 16.e/ 16.A/|	f	4.AA/	.	4.e/ 4.A/	f	4.A\ 4.AA\	.	4.ee/ 4.a/	f	([4.a/ 4.g/	.	16.cc#/LL	(4.g\	f	16.cc#\LL	.
.	.	.	.	32c#\JJK|	.	.	.	.	.	32cc#/JJk|	.	.	.	.	.	.	.	.	.	.	.	32cc#/JJk	.	.	32cc#\JJk	.
!LO:SIC:s=8AA\	!	!	!	!	!	!	!	!	!	!	!	!	!	!	!	!	!	!	!	!	!	!	!	!	!	!
8Re\	.	8AA/	.	8e\L|	.	8e\ 8c#\	.	8g/ 8A/	.	8ee'\L	.	.	.	.	.	.	.	.	.	.	.	(<8ee/L	.	.	8ee\L	.
!LO:SIC:s=8AA\J	!	!	!	!	!	!	!	!	!	!	!	!	!	!	!	!	!	!	!	!	!	!	!	!	!	!
8Re\J	.	8AA/J	.	8a\J|	.	8e\J 8c#\	.	8g/J 8A/	.	8aa'\J	.	.	.	.	.	.	.	.	.	.	.	(8aa/J	.	.	8aa\J	.
=30	=30	=30	=30	=30	=30	=30	=30	=30	=30	=30	=30	=30	=30	=30	=30	=30	=30	=30	=30	=30	=30	=30	=30	=30	=30	=30
*	*	*	*	*	*	*	*	*	*	*	*	*	*	*	*	*	*	*	*	*	*	*	*tremolo	*	*	*
!	!	!	!	!	!	!	!	!	!	!	!	!	!	!	!	!	!	!	!	!	!	!	!	!	!LO:TX:a:t=Col Vo. 1o.	!
!LO:SIC:s=8D/L	!	!	!	!LO:TUP:a:problem=klamra łukowa	!	!	!	!	!	!LO:TUP:a:problem=klamra łukowa	!	!	!	!	!	!	!	!	!	!	!	!	!	!	!LO:TUP:a:problem=klamra łukowa	!
8Re/L	.	8D\L	.	24f#\LL	.	8d\L	.	8f#/L 8A/	.	24ff#\LL	.	8D\L	.	8d/L	.	8A\L 8D\	.	8ff#\L 8dd'\	.	8a/]L 8f#/)	.	24ff#/LL))	8f#\L)	.	24ff#\LLyy	.
.	.	.	.	24g\	.	.	.	.	.	24gg\	.	.	.	.	.	.	.	.	.	.	.	24gg/	.	.	24gg\yy	.
.	.	.	.	24f#\JJ	.	.	.	.	.	24ff#\JJ	.	.	.	.	.	.	.	.	.	.	.	24ff#/JJ	.	.	24ff#\JJyy	.
!LO:SIC:s=8D/	!	!	!	!	!	!	!	!	!	!	!	!	!	!LO:TUP:b	!	!	!	!	!	!	!	!	!	!	!	!
8Re/	.	8D\	.	8e\L	.	8d\	.	8f#/ 8A/	.	8ee\L	.	8D\	.	24d/L	.	8A\ 8D\	.	8ff#\ 8dd'\	.	8a/ 8f#'/	.	8ee'/L	8f#\	.	8ee\Lyy	.
.	.	.	.	.	.	.	.	.	.	.	.	.	.	24f#/	.	.	.	.	.	.	.	.	.	.	.	.
.	.	.	.	.	.	.	.	.	.	.	.	.	.	24a/JJ	.	.	.	.	.	.	.	.	.	.	.	.
!LO:SIC:s=8D/J	!	!	!	!	!	!	!	!	!	!	!	!	!	!	!	!	!	!	!	!	!	!	!	!	!	!
8Re/J	.	8D\J	.	8d'\J	.	8d\J	.	8f#/J 8A/	.	8dd'\J	.	8D\J	.	8dd\	.	8A\J 8D\	.	8ff#\J 8dd'\	.	8a/J 8f#'/	.	8dd'/J	8f#\J	.	8dd'\Jyy	.
*	*	*	*	*	*	*Xtremolo	*	*Xtremolo	*	*	*	*	*	*	*	*	*	*	*	*	*	*	*Xtremolo	*	*	*
*	*	*	*	*	*	*	*	*	*	*	*	*	*	*	*	*	*	*	*	*	*	*v	*v	*	*	*
!!pagebreak:original
=31	=31	=31	=31	=31	=31	=31	=31	=31	=31	=31	=31	=31	=31	=31	=31	=31	=31	=31	=31	=31	=31	=31	=31	=31	=31
*	*	*	*	*	*	*	*	*	*	*	*	*	*	*	*	*^	*	*	*	*	*	*	*	*	*
*	*	*Xtremolo	*	*	*	*	*	*	*	*	*	*	*	*	*	*	*	*	*	*	*	*	*	*	*	*
!	!	!	!	!LO:TUP:a:problem=klamra łukowa	!	!	!	!	!	!LO:TUP:a:problem=klamra łukowa	!LO:DY:rj	!	!	!	!	!	!	!LO:DY:rj	!	!LO:DY:rj	!	!	!	!	!LO:TUP:a:problem=klamra łukowa	!
4.r	.	8G\L	.	24e\LL	.	8e\L 8B\	.	8g/L 8B/	.	24ee\LL	p	4.r	.	4.r	.	4B\ 4G\	4ryy	p	4.gg\ 4.ee\	p	4.r	.	4.r	.	24ee\LLyy	pyy
.	.	.	.	24f#\	.	.	.	.	.	24ff#\	.	.	.	.	.	.	.	.	.	.	.	.	.	.	24ff#\yy	.
.	.	.	.	24e\JJ	.	.	.	.	.	24ee\JJ	.	.	.	.	.	.	.	.	.	.	.	.	.	.	24ee\JJyy	.
.	.	8G\	.	16.B\LL	.	8e\ 8B\	.	8g/ 8B/	.	16.b\LL	.	.	.	.	.	.	.	.	.	.	.	.	.	.	16.b\LLyy	.
.	.	.	.	32e\K|	.	.	.	.	.	32ee\K|	.	.	.	.	.	.	.	.	.	.	.	.	.	.	32ee\Kyy|	.
.	.	8A\J	.	16.c#\|	.	8e\J 8c#\	.	8g/J 8A/	.	16.cc#\|	.	.	.	.	.	8A/	8A\	.	.	.	.	.	.	.	16.cc#\yy|	.
.	.	.	.	32A\JJk|	.	.	.	.	.	32a\JJk|	.	.	.	.	.	.	.	.	.	.	.	.	.	.	32a\JJkyy|	.
*	*	*	*	*	*	*	*	*	*	*	*	*	*	*	*	*v	*v	*	*	*	*	*	*	*	*	*
=32	=32	=32	=32	=32	=32	=32	=32	=32	=32	=32	=32	=32	=32	=32	=32	=32	=32	=32	=32	=32	=32	=32	=32	=32	=32
*	*	*tremolo	*	*	*	*tremolo	*	*	*	*	*	*	*	*	*	*	*	*tremolo	*	*	*	*	*	*	*
!	!	!	!	!	!	!	!	!	!	!	!	!	!	!	!	!	!	!	!	!	!	!	!	!LO:TX:a:t=8va. bassa	!
4.r	.	8D\L	.	16.d\LL	.	8d\L	.	16.f#/LL 16.A/	.	16.dd\LL|	.	4.r	.	4.r	.	16.A\LL 16.D\	.	8ff#\L 8dd'\	.	4.r	.	4.r	.	16.ddd\LL	.
.	.	.	.	32B\K	.	.	.	32g/K	.	32b\K|	.	.	.	.	.	32B\K 32G\	.	.	.	.	.	.	.	32bb\K 32gg\	.
.	.	8D\	.	16.A\	.	8d\	.	16.f#/	.	16.a\|	.	.	.	.	.	16.A\ 16.F#\	.	8ff#\ 8dd'\	.	.	.	.	.	16.aa\ 16.ff#\	.
.	.	.	.	32B\JK	.	.	.	32g/JK	.	32b\JK|	.	.	.	.	.	32B\JK 32G\	.	.	.	.	.	.	.	32bb\JK 32gg\	.
.	.	8D\J	.	8A\J	.	8d\J	.	8f#/J	.	8a\J|	.	.	.	.	.	8A\J 8F#\	.	8ff#\J 8dd'\	.	.	.	.	.	8aa\J 8ff#\	.
*	*	*	*	*	*	*	*	*	*	*	*	*	*	*	*	*	*	*Xtremolo	*	*	*	*	*	*	*
!!LO:PB:g=original
=33	=33	=33	=33	=33	=33	=33	=33	=33	=33	=33	=33	=33	=33	=33	=33	=33	=33	=33	=33	=33	=33	=33	=33	=33	=33
*	*	*	*	*	*	*	*	*	*	*	*	*	*	*	*	*	*	*	*	*	*	*^	*	*	*
*	*	*	*	*	*	*	*	*tremolo	*	*	*	*	*	*	*	*	*	*	*	*	*	*	*	*	*	*
!LO:SIC:s=8AA\L	!	!	!	!	!	!	!	!	!	!	!LO:DY:rj	!	!	!	!LO:DY:rj	!	!LO:DY:rj	!	!	!	!LO:DY:rj	!	!	!	!	!
8Re\L	.	8AA/L	.	16.c#\LL	.	8e\L 8c#\	.	8g/L 8A/	.	16.cc#/LL 16.e/ 16.A/	f	4.AA/	.	4.e/ 4.A/	f	4.A\ 4.AA\	f	4.ee/ 4.a/	.	4.a/ 4.e/	f	16.cc#/LL	4.g\	.	16.cc#\LL	.
.	.	.	.	32c#\JJk	.	.	.	.	.	32cc#/JJk	.	.	.	.	.	.	.	.	.	.	.	32cc#/JJk	.	.	32cc#\JJk	.
!LO:SIC:s=8AA\	!	!	!	!	!	!	!	!	!	!	!	!	!	!	!	!	!	!	!	!	!	!	!	!	!	!
8Re\	.	8AA/	.	8e\L	.	8e\ 8c#\	.	8g/ 8A/	.	8ee\L	.	.	.	.	.	.	.	.	.	.	.	8ee/L	.	.	8ee\L	.
!LO:SIC:s=8AA\J	!	!	!	!	!	!	!	!	!	!	!	!	!	!	!	!	!	!	!	!	!	!	!	!	!	!
8Re\J	.	8AA/J	.	8a\J	.	8e\J 8c#\	.	8g/J 8A/	.	8aa\J	.	.	.	.	.	.	.	.	.	.	.	8aa/J	.	.	8aa\J	.
=34	=34	=34	=34	=34	=34	=34	=34	=34	=34	=34	=34	=34	=34	=34	=34	=34	=34	=34	=34	=34	=34	=34	=34	=34	=34	=34
*	*	*	*	*	*	*	*	*	*	*	*	*	*	*	*	*tremolo	*	*tremolo	*	*tremolo	*	*	*tremolo	*	*	*
!LO:SIC:s=8D/L	!	!	!	!LO:TUP:a:problem=klamra łukowa	!	!	!	!	!	!LO:TUP:a:problem=klamra łukowa	!	!	!	!	!	!	!	!	!	!	!	!	!	!	!LO:TUP:a:problem=klamra łukowa	!
8Re/L	.	8D\L	.	24f#\LL	.	8d\L	.	8f#/L 8A/	.	24ff#\LL	.	8D\L	.	8d/L	.	8A\L 8D\	.	8ff#\L 8dd\	.	8a/L 8f#/	.	24ff#/LL	8f#\L	.	24ff#\LL	.
.	.	.	.	24g\	.	.	.	.	.	24gg\	.	.	.	.	.	.	.	.	.	.	.	24gg/	.	.	24gg\	.
.	.	.	.	(24f#\JJ	.	.	.	.	.	24ff#\JJ	.	.	.	.	.	.	.	.	.	.	.	24ff#/JJ	.	.	24ff#\JJ	.
!LO:SIC:s=8D/	!	!	!	!	!	!	!	!	!	!	!	!	!	!LO:TUP:b	!	!	!	!	!	!	!	!	!	!	!	!
8Re/	.	8D\	.	8e\L)	.	8d\	.	8f#/ 8A/	.	8ee\L	.	8D\	.	24d/L	.	8A\ 8D\	.	8ff#\ 8dd\	.	8a/ 8f#/	.	8ee/L	8f#\	.	8ee\L	.
.	.	.	.	.	.	.	.	.	.	.	.	.	.	24f#/	.	.	.	.	.	.	.	.	.	.	.	.
.	.	.	.	.	.	.	.	.	.	.	.	.	.	24a/JJ	.	.	.	.	.	.	.	.	.	.	.	.
!LO:SIC:s=8D/J	!	!	!	!	!	!	!	!	!	!	!	!	!	!	!	!	!	!	!	!	!	!	!	!	!	!
8Re/J	.	8D\J	.	8d'\J	.	8d\J	.	8f#/J 8A/	.	8dd'\J	.	8D\J	.	8dd\	.	8A\J 8D\	.	8ff#\J 8dd\	.	8a/J 8f#/	.	8dd/J	8f#\J	.	8dd'\J	.
*	*	*Xtremolo	*	*	*	*Xtremolo	*	*Xtremolo	*	*	*	*	*	*	*	*Xtremolo	*	*Xtremolo	*	*Xtremolo	*	*	*Xtremolo	*	*	*
*	*	*	*	*	*	*	*	*	*	*	*	*	*	*	*	*	*	*	*	*	*	*v	*v	*	*	*
=35	=35	=35	=35	=35	=35	=35	=35	=35	=35	=35	=35	=35	=35	=35	=35	=35	=35	=35	=35	=35	=35	=35	=35	=35	=35
!	!	!	!	!LO:TUP:a:problem=klamra łukowa	!	!	!	!	!	!LO:TUP:a:problem=klamra łukowa	!LO:DY:rj	!	!	!	!	!	!	!	!LO:DY:rj	!	!	!	!	!LO:TUP:a:problem=klamra łukowa	!
4.r	.	8G\L	.	24e\LL	.	8e\L 8B\	.	8g/L 8B/	.	24ee\LL	p	4.r	.	4.r	.	4B\ 4G\	.	4.gg\ 4.ee\	p	4.r	.	4.r	.	24ee\LL	p
.	.	.	.	24f#\	.	.	.	.	.	24ff#\	.	.	.	.	.	.	.	.	.	.	.	.	.	24ff#\	.
.	.	.	.	(24e\JJ	.	.	.	.	.	24ee\JJ	.	.	.	.	.	.	.	.	.	.	.	.	.	24ee\JJ	.
.	.	8G\	.	16.B\LL)|	.	8e\ 8B\	.	8g/ 8B/	.	16.b\LL|	.	.	.	.	.	.	.	.	.	.	.	.	.	16.b\LL	.
.	.	.	.	32e\K|	.	.	.	.	.	32ee\K|	.	.	.	.	.	.	.	.	.	.	.	.	.	32ee\K	.
.	.	8A\J	.	16.c#\|	.	8e\J 8c#\	.	8g/J 8A/	.	16.cc#\|	.	.	.	.	.	8A\	.	.	.	.	.	.	.	16.cc#\	.
.	.	.	.	32A\JJk|	.	.	.	.	.	32a\JJk|	.	.	.	.	.	.	.	.	.	.	.	.	.	32a\JJk	.
=36	=36	=36	=36	=36	=36	=36	=36	=36	=36	=36	=36	=36	=36	=36	=36	=36	=36	=36	=36	=36	=36	=36	=36	=36	=36
4.r	.	16D\	.	32e\KLL	.	16d\	.	16f#/ 16A/	.	(32ee\KLL	.	4.r	.	4.r	.	16A\ 16D\	.	16ff#\ 16dd\	.	4.r	.	4.r	.	(32ee\KLL	.
.	.	.	.	16d\JJ	.	.	.	.	.	16dd\JJ)	.	.	.	.	.	.	.	.	.	.	.	.	.	16dd\JJ)	.
.	.	16r	.	.	.	16r	.	16r	.	.	.	.	.	.	.	16r	.	16r	.	.	.	.	.	.	.
.	.	.	.	32r	.	.	.	.	.	32r	.	.	.	.	.	.	.	.	.	.	.	.	.	32r	.
.	.	4D\	.	4d\	.	4a\ 4d\	.	4f#/ 4A/	.	4dd\ 4d'\	.	.	.	.	.	4A\ 4D\	.	4ff#\ 4dd\	.	.	.	.	.	4dd\	.
=37:|!|:	=37:|!|:	=37:|!|:	=37:|!|:	=37:|!|:	=37:|!|:	=37:|!|:	=37:|!|:	=37:|!|:	=37:|!|:	=37:|!|:	=37:|!|:	=37:|!|:	=37:|!|:	=37:|!|:	=37:|!|:	=37:|!|:	=37:|!|:	=37:|!|:	=37:|!|:	=37:|!|:	=37:|!|:	=37:|!|:	=37:|!|:	=37:|!|:	=37:|!|:
*>F	*	*	*	*	*	*	*	*	*	*	*	*	*	*	*	*	*	*	*	*	*	*	*	*	*
*	*	*	*	*	*	*	*	*^	*	*	*	*	*	*^	*	*	*	*	*	*^	*	*	*	*	*
!	!	!	!	!LO:CL:ed	!	!	!	!	!	!	!	!	!	!	!	!	!	!	!	!	!	!	!	!	!	!	!	!
*	*	*	*	*clefF4	*	*	*	*	*	*	*	*	*	*	*	*	*	*	*	*	*	*	*	*	*	*	*	*
!LO:SIC:s=4GGT/	!	!	!	!	!LO:DY:rj	!	!	!	!	!	!	!LO:DY:rj	!	!	!	!	!LO:DY:rj	!	!	!	!LO:DY:rj	!	!	!LO:DY:rj:a	!	!LO:DY:rj:a	!LO:TX:a:t=Picolo 1o. in 8va	!
4ReT/	.	4G\	.	4G\	f	4d\	.	4b/	4g\	.	8gg\L 8b\ 8d\	f	4.G\	.	4.g/	4d\	f	4d\ 4B\	.	4gg\ 4dd\	f	8gg/L	4b\	f	4dd\ 4b\	f	8gg\L	.
.	.	.	.	.	.	.	.	.	.	.	8dd'\	.	.	.	.	.	.	.	.	.	.	8dd/	.	.	.	.	8dd\	.
!LO:SIC:s=8GG/	!	!	!	!	!	!	!	!	!	!	!	!	!	!	!	!	!	!	!	!	!	!	!	!	!	!	!	!
8Re/	.	8GG/	.	8GG^/	.	8e\ 8c#^<\	.	8a#X/	8g\	.	8ee^<T\J	.	.	.	.	8c#\	.	8c#\ 8A#X\	.	8gg\ 8ee\	.	8eeT/J	8a#X^\	.	8cc#X\ 8a#X^<\	.	8ee^<T\J	.
=38	=38	=38	=38	=38	=38	=38	=38	=38	=38	=38	=38	=38	=38	=38	=38	=38	=38	=38	=38	=38	=38	=38	=38	=38	=38	=38	=38	=38
*rep	*	*	*	*rep	*	*	*	*	*	*	*	*	*	*	*	*	*	*rep	*	*	*	*	*	*	*	*	*	*
!LO:SIC:s=4GGT/	!	!	!	!	!	!	!	!	!	!	!	!	!	!	!	!	!	!	!	!	!	!	!	!	!	!	!	!
4Re/	.	4G\	.	4G\	.	4d\	.	4b/	4g\	.	16dd'\LL	.	4.G\	.	4.g/	4d\	.	4d\ 4B\	.	4gg\ 4dd\	.	16dd'/LL	4b\	.	4dd\ 4b\	.	16dd'\LL	.
.	.	.	.	.	.	.	.	.	.	.	16gg'\J	.	.	.	.	.	.	.	.	.	.	16gg'/J	.	.	.	.	16gg'\J	.
.	.	.	.	.	.	.	.	.	.	.	8dd'\	.	.	.	.	.	.	.	.	.	.	8dd'/	.	.	.	.	8dd'\	.
!LO:SIC:s=8GG/	!	!	!	!	!	!	!	!	!	!	!	!	!	!	!	!	!	!	!	!	!	!	!	!	!	!	!	!
8Re/	.	8GG/	.	8FF#^/	.	8e\ 8c#^<\	.	8a#X/	8g\	.	8ee^<T\J	.	.	.	.	8c#\	.	8c#\ 8A#X\	.	8gg\ 8ee\	.	8gg/J 8eeT/	8a#X^\	.	8cc#X\ 8a#X^<\	.	8ee^<T\J	.
*Xrep	*	*	*	*Xrep	*	*	*	*	*	*	*	*	*	*	*	*	*	*Xrep	*	*	*	*	*	*	*	*	*	*
*	*	*	*	*	*	*	*	*v	*v	*	*	*	*	*	*v	*v	*	*	*	*	*	*v	*v	*	*	*	*	*
!!pagebreak:original
=39	=39	=39	=39	=39	=39	=39	=39	=39	=39	=39	=39	=39	=39	=39	=39	=39	=39	=39	=39	=39	=39	=39	=39	=39	=39
*	*	*	*	*	*	*	*	*	*	*	*	*	*	*	*	*^	*	*	*	*	*	*	*	*	*
*	*	*tremolo	*	*tremolo	*	*	*	*	*	*	*	*	*	*	*	*	*tremolo	*	*tremolo	*	*	*	*	*	*	*
!LO:SIC:s=8GG/	!	!	!	!	!	!	!	!	!	!	!	!	!	!	!	!	!	!	!	!	!LO:TX:b:t=Unis	!	!	!	!	!
8Re/	.	8G\L	.	8G\L	.	8d\L	.	16.b/LL 16.g/|	.	16.g/LL|	.	8G\L	.	4.r	.	16.G/LL	8G\L	.	8gg\L 8dd\	.	16.b/LL 16.g/	.	16.g'/LL	.	16.g'/LL	.
.	.	.	.	.	.	.	.	32a/K|	.	32a/K|	.	.	.	.	.	32An/K	.	.	.	.	32an/K	.	32a'/K	.	32a'/K	.
8r	.	8G\	.	8G\	.	8d\ 8G\	.	16b/|	.	16b'/	.	8G\	.	.	.	16B/	8G\	.	8gg\ 8dd\	.	16b/	.	16b'/	.	16b'/	.
.	.	.	.	.	.	.	.	16cc#/|	.	16cc#'/	.	.	.	.	.	16c#X/	.	.	.	.	16cc#X/	.	16cc#X'/	.	16cc#X'/	.
8r	.	8G\J	.	8G\J	.	8d\J 8G\	.	16dd'/	.	16dd'/	.	8G\J	.	.	.	16d/	8G\J	.	8gg\J 8dd\	.	16dd/	.	16dd'/	.	16dd'/	.
.	.	.	.	.	.	.	.	16ee'/JJ	.	16ee'/JJ	.	.	.	.	.	16e/JJ	.	.	.	.	16ee/JJ	.	16ee'/JJ	.	16ee'/JJ	.
=40	=40	=40	=40	=40	=40	=40	=40	=40	=40	=40	=40	=40	=40	=40	=40	=40	=40	=40	=40	=40	=40	=40	=40	=40	=40	=40
*	*	*	*	*	*	*	*	*	*	*	*	*	*	*	*	*	*	*	*	*	*	*	*^	*	*	*
*	*	*	*	*	*	*tremolo	*	*	*	*	*	*	*	*	*	*	*	*	*	*	*	*	*	*	*	*	*
!LO:SIC:s=4GGT/	!	!	!	!	!	!	!	!	!	!	!	!	!	!	!	!	!	!	!	!	!	!	!	!	!	!	!
4ReT/	.	8D\L	.	8A\L 8D\	.	8d\L 8A\	.	4ddT/	.	4ddT\	.	8D\L	.	4.r	.	4dT/	8D\L	.	8aa\L 8dd\	.	4ddT/	.	4ddT/	4dd\	.	4ddT/	.
.	.	8D\	.	8A\ 8D\	.	8d\ 8A\	.	.	.	.	.	8D\	.	.	.	.	8D\	.	8aa\ 8dd\	.	.	.	.	.	.	.	.
!LO:SIC:s=8GG/	!	!	!	!	!	!	!	!	!	!	!	!	!	!	!	!	!	!	!	!	!	!	!	!	!	!	!
8Re/	.	8D\J	.	8A\J 8D\	.	8d\J 8A\	.	8a/	.	8a\	.	8D\J	.	.	.	8A/	8D\J	.	8aa\J 8dd\	.	8a/	.	8a/	8a\	.	8a/	.
*	*	*Xtremolo	*	*Xtremolo	*	*Xtremolo	*	*	*	*	*	*	*	*	*	*	*Xtremolo	*	*Xtremolo	*	*	*	*	*	*	*	*
*	*	*	*	*	*	*	*	*	*	*	*	*	*	*	*	*	*	*	*	*	*	*	*v	*v	*	*	*
*	*	*	*	*	*	*	*	*	*	*	*	*	*	*	*	*v	*v	*	*	*	*	*	*	*	*	*
!!LO:PB:g=original
=41	=41	=41	=41	=41	=41	=41	=41	=41	=41	=41	=41	=41	=41	=41	=41	=41	=41	=41	=41	=41	=41	=41	=41	=41	=41
*	*	*	*	*	*	*	*	*^	*	*	*	*	*	*	*	*	*	*	*	*^	*	*	*	*	*
!LO:SIC:s=4GGT/	!	!	!	!	!	!	!	!	!	!	!	!	!	!	!	!	!	!	!	!	!	!	!	!	!	!	!
4ReT/	.	4G\	.	4G\	.	4d\ 4G\	.	4b/	4g\	.	8gg\L 8b\ 8d\	.	4.G\	.	4g/ 4d/	.	8B\L 8G\	.	4gg\ 4dd\	.	8dd/L	4b\	.	4dd\ 4b\	.	8gg\L	.
.	.	.	.	.	.	.	.	.	.	.	8dd\	.	.	.	.	.	8d\ 8B\	.	.	.	8gg/	.	.	.	.	8dd\	.
!LO:SIC:s=8GG/	!	!	!	!	!	!	!	!	!	!	!	!	!	!	!	!	!	!	!	!	!	!	!	!	!	!	!
8Re/	.	8GG/	.	8GG^/	.	8e\ 8c#^<\	.	8a#X/	8g^\	.	8ee^<T\J	.	.	.	8g/ 8c#/	.	8c#X\J 8A#X\	.	8gg\ 8ee^<\	.	8eeT/J	8a#X\	.	8cc#X\ 8a#X^<\	.	8eeT\J	.
=42	=42	=42	=42	=42	=42	=42	=42	=42	=42	=42	=42	=42	=42	=42	=42	=42	=42	=42	=42	=42	=42	=42	=42	=42	=42	=42	=42
*rep	*	*	*	*	*	*	*	*	*	*	*	*	*	*	*	*	*	*	*	*	*	*	*	*	*	*	*
!LO:SIC:s=4GGT/	!	!	!	!	!	!	!	!	!	!	!	!	!	!	!	!	!	!	!	!	!	!	!	!	!	!	!
4ReT/	.	4G\	.	4G\	.	4d\	.	4b/	4g\	.	16dd'\LL	.	4.G\	.	4g/ 4d/	.	4d\ 4B\	.	4gg\ 4dd\	.	16dd/LL	4b\	.	4dd\ 4b\	.	16dd'\LL	.
.	.	.	.	.	.	.	.	.	.	.	16gg'\J	.	.	.	.	.	.	.	.	.	16gg/J	.	.	.	.	16gg'\J	.
.	.	.	.	.	.	.	.	.	.	.	8dd'\	.	.	.	.	.	.	.	.	.	8dd/	.	.	.	.	8dd\	.
!LO:SIC:s=8GG/	!	!	!	!	!	!	!	!	!	!	!	!	!	!	!	!	!	!	!	!	!	!	!	!	!	!	!
8Re/	.	8GG/	.	8GG^/	.	8e\ 8c#^<\	.	8a#X/	8g\	.	8ee^<T\J	.	.	.	8g/ 8c#/	.	8c#X\ 8A#X\	.	8gg\ 8ee^\	.	8eeT/J	8a#X\	.	8cc#X\ 8a#X^<\	.	8eeT\J	.
*Xrep	*	*	*	*	*	*	*	*	*	*	*	*	*	*	*	*	*	*	*	*	*	*	*	*	*	*	*
*	*	*	*	*	*	*	*	*v	*v	*	*	*	*	*	*	*	*	*	*	*	*	*	*	*	*	*	*
=43	=43	=43	=43	=43	=43	=43	=43	=43	=43	=43	=43	=43	=43	=43	=43	=43	=43	=43	=43	=43	=43	=43	=43	=43	=43	=43
*	*	*	*	*	*	*	*	*	*	*	*	*	*	*	*	*	*	*^	*	*	*	*	*^	*	*	*
!LO:SIC:s=8GG/	!	!	!	!	!	!	!	!	!	!	!	!	!	!	!	!	!	!	!	!	!	!	!	!	!	!	!	!
8Re/	.	8GG/L	.	8GG/L	.	16d\ 16B\	.	16b/ 16g/	.	16.dd\LL	.	8GG/L	.	16g/ 16d/	.	16d\ 16B\	.	16gg\ 16dd\	16ryy	.	16dd/	16b\ 16g\	.	16.dd/LL	16b\KL	.	16.dd\LL	.
.	.	.	.	.	.	16r	.	16r	.	.	.	.	.	16r	.	16r	.	16r	16ryy	.	16r	16ryy	.	.	16r	.	.	.
.	.	.	.	.	.	.	.	.	.	32ee\JJk	.	.	.	.	.	.	.	.	.	.	.	.	.	32ee/JJk	.	.	32ee\JJk	.
8r	.	8BB/	.	8BB/	.	8d\L 8B\	.	8g/L	.	16dd\LL	.	8BB/	.	8g/L 8d/	.	8B\L 8G\	.	8dd/L	8dd\L	.	8g/L 8B/	8ryy	.	16dd/LL	8g\	.	16dd\LL	.
.	.	.	.	.	.	.	.	.	.	16cc#\	.	.	.	.	.	.	.	.	.	.	.	.	.	16cc#/	.	.	16cc#\	.
8r	.	8D/J	.	8D/J	.	8d\J 8cn\	.	8f#/J	.	16b\	.	8D/J	.	8f#/J 8d/	.	8cn\J 8A\	.	8dd/J	8dd\J	.	8f#/J 8cn/	8ryy	.	16b/	8f#\J	.	16b\	.
.	.	.	.	.	.	.	.	.	.	16a\JJ	.	.	.	.	.	.	.	.	.	.	.	.	.	16a/JJ	.	.	16a\JJ	.
*	*	*	*	*	*	*	*	*	*	*	*	*	*	*	*	*	*	*	*	*	*v	*v	*	*	*	*	*	*
=44	=44	=44	=44	=44	=44	=44	=44	=44	=44	=44	=44	=44	=44	=44	=44	=44	=44	=44	=44	=44	=44	=44	=44	=44	=44	=44	=44
!LO:SIC:s=16GG/	!	!	!	!	!	!	!	!	!	!	!	!	!	!	!	!	!	!	!	!	!	!	!	!	!	!	!
16Re/	.	16G\	.	16G\	.	16d\ 16B\	.	16g/	.	16g/	.	16G\	.	16g/ 16d/	.	16B\ 16G\	.	16dd/	16dd\	.	16g/ 16B/	.	16b/	16g\	.	16g/	.
16r	.	16r	.	16r	.	16r	.	16r	.	16r	.	16r	.	16r	.	16r	.	16r	16ryy	.	16r	.	16r	16ryy	.	16r	.
!LO:SIC:s=4GG/	!	!	!	!	!	!	!	!	!	!	!	!	!	!	!	!	!	!	!	!	!	!	!	!	!	!	!
4Re/	.	4GG/	.	4D/ 4GG/	.	4d\ 4G\	.	4g/ 4B/	.	4gg\ 4b\ 4d\	.	4GG/	.	4g/ 4d/	.	4G/ 4GG/	.	4dd/	4dd\	.	4gg\ 4b\	.	4gg\ 4b\	4ryy	.	4gg\	.
*	*	*	*	*	*	*	*	*	*	*	*	*	*	*	*	*	*	*v	*v	*	*	*	*v	*v	*	*	*
=45:|!|:	=45:|!|:	=45:|!|:	=45:|!|:	=45:|!|:	=45:|!|:	=45:|!|:	=45:|!|:	=45:|!|:	=45:|!|:	=45:|!|:	=45:|!|:	=45:|!|:	=45:|!|:	=45:|!|:	=45:|!|:	=45:|!|:	=45:|!|:	=45:|!|:	=45:|!|:	=45:|!|:	=45:|!|:	=45:|!|:	=45:|!|:	=45:|!|:	=45:|!|:
*>G	*	*	*	*	*	*	*	*	*	*	*	*	*	*	*	*	*	*	*	*	*	*	*	*	*
*k[b-e-]	*	*k[fncnb-e-]	*	*k[fncnb-e-]	*	*k[fncnb-e-]	*	*k[fncnb-e-]	*	*k[fncnb-e-]	*	*k[fncnb-e-]	*	*k[b-e-]	*	*k[fncnb-e-]	*	*k[]	*	*k[fncnb-e-]	*	*k[fncnb-e-]	*	*k[fncnb-e-]	*
*	*	*	*	*	*	*	*	*	*	*	*	*	*	*	*	*clefC4	*	*	*	*	*	*	*	*	*
!	!	!	!LO:DY:rj	!	!	!	!LO:DY:rj:a	!	!	!	!LO:DY:rj	!	!	!LO:SIC:v:t=brak znaków	!	!	!	!LO:SIC:v:t=brak znaków	!	!	!	!LO:TX:t=2o	!LO:DY:rj	!	!
4.r	.	8BB-/	p	16B-\LL	.	16B-/LL	p	16B-/LL	.	16d/LL|	p	4.r	.	4.r	.	16.d\LL 16.B-\|	.	4.r	.	16.dd\LL 16.b-\|	.	[4.f\	p	4.r	.
.	.	.	.	16F\	.	16F/	.	16f/	.	16f/|	.	.	.	.	.	.	.	.	.	.	.	.	.	.	.
.	.	.	.	.	.	.	.	.	.	.	.	.	.	.	.	32c\JJk 32F\|	.	.	.	32cc\JJk 32a\|	.	.	.	.	.
.	.	8r	.	16F\	.	16F/	.	16f/	.	16f/|	.	.	.	.	.	8d\L 8B-\|	.	.	.	8dd\L 8b-'\	.	.	.	.	.
.	.	.	.	16F\	.	16F/	.	16f/	.	16f/|	.	.	.	.	.	.	.	.	.	.	.	.	.	.	.
.	.	8r	.	16B-\	.	16B-/	.	16B-/	.	16d/|	.	.	.	.	.	8e-\J 8c\|	.	.	.	8ee-\J 8cc'\	.	.	.	.	.
.	.	.	.	16F\JJ	.	16F/JJ	.	16f/JJ	.	16f/JJ|	.	.	.	.	.	.	.	.	.	.	.	.	.	.	.
!!pagebreak:original
=46	=46	=46	=46	=46	=46	=46	=46	=46	=46	=46	=46	=46	=46	=46	=46	=46	=46	=46	=46	=46	=46	=46	=46	=46	=46
*	*	*	*	*rep	*	*rep	*	*rep	*	*rep	*	*	*	*	*	*	*	*	*	*	*	*	*	*	*
4.r	.	8B-\	.	16B-\LL	.	16B-/LL	.	16B-/LL	.	16d/LL|	.	4.r	.	4.r	.	16.f\LL 16.d\|	.	4.r	.	16.ff\LL 16.dd\|	.	4.f\_	.	4.r	.
.	.	.	.	16F\	.	16F/	.	16f/	.	16f/|	.	.	.	.	.	.	.	.	.	.	.	.	.	.	.
.	.	.	.	.	.	.	.	.	.	.	.	.	.	.	.	32f\JJk 32d\|	.	.	.	32ff\JJk 32dd\|	.	.	.	.	.
.	.	8r	.	16F\	.	16F/	.	16f/	.	16f/|	.	.	.	.	.	8g\L 8e-'\	.	.	.	8gg\L 8ee-'\	.	.	.	.	.
.	.	.	.	16F\	.	16F/	.	16f/	.	16f/|	.	.	.	.	.	.	.	.	.	.	.	.	.	.	.
.	.	8r	.	16B-\	.	16B-/	.	16B-/	.	16d/|	.	.	.	.	.	8f\J 8d'\	.	.	.	8ff\J 8dd'\	.	.	.	.	.
.	.	.	.	16F\JJ	.	16F/JJ	.	16f/JJ	.	16f/JJ|	.	.	.	.	.	.	.	.	.	.	.	.	.	.	.
*	*	*	*	*Xrep	*	*Xrep	*	*Xrep	*	*Xrep	*	*	*	*	*	*	*	*	*	*	*	*	*	*	*
=47	=47	=47	=47	=47	=47	=47	=47	=47	=47	=47	=47	=47	=47	=47	=47	=47	=47	=47	=47	=47	=47	=47	=47	=47	=47
4.r	.	8F\	.	16A\LL	.	16A/LL	.	16c/LL	.	16e-/LL	.	4.r	.	4.r	.	16.e-\LL 16.c\|	.	4.r	.	16.ee-\LL 16.cc\|	.	4.f\_	.	4.r	.
.	.	.	.	16F\	.	16F/	.	16f/	.	16f/	.	.	.	.	.	.	.	.	.	.	.	.	.	.	.
.	.	.	.	.	.	.	.	.	.	.	.	.	.	.	.	32e-\JJk 32c\|	.	.	.	32ee-\JJk 32cc\|	.	.	.	.	.
.	.	8r	.	16F\	.	16F/	.	16f/	.	16f/	.	.	.	.	.	8f\L 8d'\	.	.	.	8ff\L 8dd\|	.	.	.	.	.
.	.	.	.	16F\	.	16F/	.	16f/	.	16f/	.	.	.	.	.	.	.	.	.	.	.	.	.	.	.
.	.	8r	.	16A\	.	16A/	.	16c/	.	16e-/	.	.	.	.	.	8e-\J 8c'\	.	.	.	8ee-\J 8cc\|	.	.	.	.	.
.	.	.	.	16F\JJ	.	16F/JJ	.	16f/JJ	.	16f/JJ	.	.	.	.	.	.	.	.	.	.	.	.	.	.	.
=48	=48	=48	=48	=48	=48	=48	=48	=48	=48	=48	=48	=48	=48	=48	=48	=48	=48	=48	=48	=48	=48	=48	=48	=48	=48
*	*	*	*	*	*	*	*	*	*	*	*	*	*	*	*	*	*	*	*	*^	*	*	*	*^	*
!	!	!	!	!	!	!	!	!	!	!LO:SIC:o:s:v:t=dźwięki wykreślone i wpisane inne	!	!	!	!	!	!	!	!	!	!	!	!	!	!	!	!	!
4.r	.	8B-\	.	16B-\LL	.	16B-/LL	.	16d/LL	.	16dd^>/LL	.	4.r	.	4.r	.	16d\ 16B-\	.	4.r	.	(16dd^/LL	16b-\	.	4.f\]	.	(16ff/LL	16b-\	.
.	.	.	.	16F\	.	16F/	.	16f/	.	32bb-/JJk	.	.	.	.	.	16r	.	.	.	32bb-/JJk)	16r	.	.	.	32bb-/JJk)	16r	.
.	.	.	.	.	.	.	.	.	.	32r	.	.	.	.	.	.	.	.	.	32r	.	.	.	.	32r	.	.
.	.	8r	.	16F\	.	16F/	.	16f/	.	8.ff/L	.	.	.	.	.	8.f\L 8.d\|	.	.	.	8.ff/L|	8.dd\L	.	.	.	8.ff/L	8.dd\L	.
.	.	.	.	16F\	.	16F/	.	16f/JJ	.	.	.	.	.	.	.	.	.	.	.	.	.	.	.	.	.	.	.
.	.	8r	.	16B-\	.	16B-/	.	16d/LL	.	.	.	.	.	.	.	.	.	.	.	.	.	.	.	.	.	.	.
.	.	.	.	16F\JJ	.	16F/JJ	.	16f/JJ	.	16ee-/Jk	.	.	.	.	.	16e-\Jk 16c\|	.	.	.	16ee-/Jk|	16cc\Jk	.	.	.	16ee-/Jk	16cc\Jk	.
*	*	*	*	*	*	*	*	*	*	*	*	*	*	*	*	*	*	*	*	*v	*v	*	*	*	*v	*v	*
!!LO:PB:g=original
=49	=49	=49	=49	=49	=49	=49	=49	=49	=49	=49	=49	=49	=49	=49	=49	=49	=49	=49	=49	=49	=49	=49	=49	=49	=49
!	!	!	!	!	!	!	!	!	!	!	!	!	!	!	!	!	!	!	!	!	!	!	!	!LO:TX:a:t=Col Clarinetti unisono picolini	!
.	.	.	.	.	.	.	.	.	.	.	.	.	.	.	.	(8qe-/ (8qc/	.	.	.	(8qee-/ (8qcc/|	.	.	.	(8qee-yy/ yy(yy8qcc/yy|	.
4.r	.	8BB-/	.	16B-'\LL	.	16B-'/LL	.	16B-'/LL	.	16d/LL	.	4.r	.	4.r	.	16.d\LL 16.B-\))	.	4.r	.	16.dd\LL 16.b-\))	.	[4.ff\ [4.f\	.	16.ddyy\LL 16.b-\))yy	.
.	.	.	.	16F'\	.	16F'/	.	16f'/	.	16f/	.	.	.	.	.	.	.	.	.	.	.	.	.	.	.
.	.	.	.	.	.	.	.	.	.	.	.	.	.	.	.	32c\JJk 32A\|	.	.	.	32cc\JJk 32a\|	.	.	.	32ccyy\JJk 32a\yy|	.
.	.	8r	.	16F'\	.	16F'/	.	16f'/	.	16f/	.	.	.	.	.	8d\L 8B-'\	.	.	.	8dd\L 8b-\|	.	.	.	8ddyy\L 8b-\yy|	.
.	.	.	.	16F'\	.	16F'/	.	16f'/	.	16f/	.	.	.	.	.	.	.	.	.	.	.	.	.	.	.
.	.	8r	.	16B-'\	.	16B-'/	.	16B-'/	.	16d/	.	.	.	.	.	8e-\J 8c'\	.	.	.	8ee-\J 8cc\|	.	.	.	8ee-yy\J 8cc\yy|	.
.	.	.	.	16F'\JJ	.	16F'/JJ	.	16f'/JJ	.	16f/JJ	.	.	.	.	.	.	.	.	.	.	.	.	.	.	.
=50	=50	=50	=50	=50	=50	=50	=50	=50	=50	=50	=50	=50	=50	=50	=50	=50	=50	=50	=50	=50	=50	=50	=50	=50	=50
*	*	*	*	*rep	*	*rep	*	*rep	*	*rep	*	*	*	*	*	*	*	*	*	*	*	*	*	*	*
4.r	.	8B-\	.	16B-'\LL	.	16B-'/LL	.	16B-'/LL	.	16d'/LL	.	4.r	.	4.r	.	16.en\LL 16.c#X\|	.	4.r	.	16.een\LL 16.cc#X\|	.	4.ff\_ 4.f\_	.	16.eenyy\LL 16.cc#X\yy|	.
.	.	.	.	16F'\	.	16F'/	.	16f'/	.	16f'/	.	.	.	.	.	.	.	.	.	.	.	.	.	.	.
.	.	.	.	.	.	.	.	.	.	.	.	.	.	.	.	32f\JJk 32d\|	.	.	.	32ff\JJk 32dd\|	.	.	.	32ffyy\JJk 32dd\yy|	.
.	.	.	.	.	.	.	.	.	.	.	.	.	.	.	.	(8qa/ (8qf/	.	.	.	(8qaa/ (8qff/	.	.	.	(8qaayy/ yy(yy8qff/yy	.
.	.	8r	.	16F'\	.	16F'/	.	16f'/	.	16f'/	.	.	.	.	.	8.g\L 8.e\))	.	.	.	8.gg\L 8.ee\))	.	.	.	8.ggyy\L 8.ee\))yy	.
.	.	.	.	16F'\	.	16F'/	.	16f'/	.	16f'/	.	.	.	.	.	.	.	.	.	.	.	.	.	.	.
.	.	8r	.	16B-'\	.	16B-'/	.	16B-'/	.	16d'/	.	.	.	.	.	.	.	.	.	.	.	.	.	.	.
.	.	.	.	16F'\JJ	.	16F'/JJ	.	16f'/JJ	.	16f'/JJ	.	.	.	.	.	16f\Jk 16d'\	.	.	.	16ff\Jk 16dd\|	.	.	.	16ffyy\Jk 16dd\yy|	.
*	*	*	*	*Xrep	*	*Xrep	*	*Xrep	*	*Xrep	*	*	*	*	*	*	*	*	*	*	*	*	*	*	*
=51	=51	=51	=51	=51	=51	=51	=51	=51	=51	=51	=51	=51	=51	=51	=51	=51	=51	=51	=51	=51	=51	=51	=51	=51	=51
4.r	.	8F\	.	16A\LL	.	16c/LL	.	16c/LL	.	16e-'/LL	.	4.r	.	4.r	.	16.d\LL 16.Bn\|	.	4.r	.	16.dd\LL 16.bn\|	.	4.ff\_ 4.f\_	.	16.ddyy\LL 16.bn\yy|	.
.	.	.	.	16F\	.	16F/	.	16f/	.	16f'/	.	.	.	.	.	.	.	.	.	.	.	.	.	.	.
.	.	.	.	.	.	.	.	.	.	.	.	.	.	.	.	32e-X\JJk 32cn\|	.	.	.	32ee-X\JJk 32ccn\|	.	.	.	32ee-Xyy\JJk 32ccn\yy|	.
.	.	.	.	.	.	.	.	.	.	.	.	.	.	.	.	(8qg/ (8qe-/	.	.	.	(8qgg/ (8qee-/	.	.	.	(8qggyy/ yy(yy8qee-/yy	.
.	.	8r	.	16F\	.	16F/	.	16f/	.	16f'/	.	.	.	.	.	8.f\L 8.d\))	.	.	.	8.ff\L 8.dd\))	.	.	.	8.ffyy\L 8.dd\))yy	.
.	.	.	.	16F\	.	16F/	.	16f/	.	16f'/	.	.	.	.	.	.	.	.	.	.	.	.	.	.	.
.	.	8r	.	16A\	.	16c/	.	16c/	.	16e-'/	.	.	.	.	.	.	.	.	.	.	.	.	.	.	.
.	.	.	.	16F\JJ	.	16F/JJ	.	16f/JJ	.	16f'/JJ	.	.	.	.	.	16e-\Jk 16c\	.	.	.	16ee-\Jk 16cc\|	.	.	.	16ee-yy\Jk 16cc\yy|	.
=52	=52	=52	=52	=52	=52	=52	=52	=52	=52	=52	=52	=52	=52	=52	=52	=52	=52	=52	=52	=52	=52	=52	=52	=52	=52
4.r	.	8BB-/	.	16B-\LL	.	16B-/LL	.	16B-/LL	.	16d/LL	.	4.r	.	4.r	.	16.d\LL 16.B-\	.	4.r	.	16.dd\LL 16.b-\|	.	4.ff\] 4.f\]	.	16.ddyy\LL 16.b-\yy|	.
.	.	.	.	16F\JJ	.	16F/JJ	.	16f/JJ	.	16f/JJ	.	.	.	.	.	.	.	.	.	.	.	.	.	.	.
.	.	.	.	.	.	.	.	.	.	.	.	.	.	.	.	32c\JJk 32F\	.	.	.	32cc\JJk 32f\|	.	.	.	32ccyy\JJk 32f\yy|	.
.	.	8r	.	4B-^<\	.	4B-^/	.	4B-^/	.	4bb-\ 4b-\ 4d^\	.	.	.	.	.	4B-/ 4D/	.	.	.	4b-/ 4d'/	.	.	.	4b-yy/ 4d'/yy	.
.	.	8r	.	.	.	.	.	.	.	.	.	.	.	.	.	.	.	.	.	.	.	.	.	.	.
!!pagebreak:original
=53:|!|:	=53:|!|:	=53:|!|:	=53:|!|:	=53:|!|:	=53:|!|:	=53:|!|:	=53:|!|:	=53:|!|:	=53:|!|:	=53:|!|:	=53:|!|:	=53:|!|:	=53:|!|:	=53:|!|:	=53:|!|:	=53:|!|:	=53:|!|:	=53:|!|:	=53:|!|:	=53:|!|:	=53:|!|:	=53:|!|:	=53:|!|:	=53:|!|:	=53:|!|:
*>H	*	*	*	*	*	*	*	*	*	*	*	*	*	*	*	*	*	*	*	*	*	*	*	*	*
*	*	*	*	*	*	*	*	*	*	*	*	*	*	*	*	*	*	*^	*	*	*	*	*	*^	*
!	!	!	!LO:DY:rj:a	!	!	!	!	!	!	!LO:TUP:a:problem=klamra łukowa	!	!	!	!	!	!	!LO:DY:rj	!	!	!LO:DY:rj	!	!	!	!	!LO:TUP:b:problem=klamra łukowa	!	!LO:DY:rj
4.r	.	8F\	p	4.ryy	.	8r	.	8r	.	24ee-\LL	.	4.r	.	4.r	.	[>4.e-\ [>4.c\	p	[<4.fnX/	4.fnX\	p	4.r	.	4.r	.	24ee-/LL	4.r	p
.	.	.	.	.	.	.	.	.	.	24ff\	.	.	.	.	.	.	.	.	.	.	.	.	.	.	24ff/	.	.
.	.	.	.	.	.	.	.	.	.	24gg\JJ	.	.	.	.	.	.	.	.	.	.	.	.	.	.	24gg/JJ	.	.
!	!	!	!	!	!	!	!	!	!	!LO:TUP:a:problem=klamra łukowa	!	!	!	!	!	!	!	!	!	!	!	!	!	!	!LO:TUP:a:problem=klamra łukowa	!	!
.	.	8r	.	.	.	8f\L 8A\	.	8e-/L 8c/	.	24cc\LL	.	.	.	.	.	.	.	.	.	.	.	.	.	.	24cc/LL	.	.
.	.	.	.	.	.	.	.	.	.	24dd\	.	.	.	.	.	.	.	.	.	.	.	.	.	.	24dd/	.	.
.	.	.	.	.	.	.	.	.	.	24ee-\JJ	.	.	.	.	.	.	.	.	.	.	.	.	.	.	24ee-/JJ	.	.
!	!	!	!	!	!	!	!	!	!	!LO:TUP:b:problem=klamra łukowa	!	!	!	!	!	!	!	!	!	!	!	!	!	!	!LO:TUP:a:problem=klamra łukowa	!	!
.	.	8r	.	.	.	8f\J 8A\	.	8e-/J 8c/	.	24a/LL	.	.	.	.	.	.	.	.	.	.	.	.	.	.	24a/LL	.	.
.	.	.	.	.	.	.	.	.	.	24b-/	.	.	.	.	.	.	.	.	.	.	.	.	.	.	24b-/	.	.
.	.	.	.	.	.	.	.	.	.	24cc/JJ	.	.	.	.	.	.	.	.	.	.	.	.	.	.	24cc/JJ	.	.
=54	=54	=54	=54	=54	=54	=54	=54	=54	=54	=54	=54	=54	=54	=54	=54	=54	=54	=54	=54	=54	=54	=54	=54	=54	=54	=54	=54
*	*	*	*	*	*	*	*	*	*	*	*	*	*	*	*	*	*	*	*	*	*^	*	*^	*	*	*	*
*Xtremolo	*	*	*	*	*	*	*	*	*	*	*	*	*	*	*	*	*	*	*	*	*	*	*	*	*	*	*	*	*
8r	.	8FF/	.	4.ryy	.	8r	.	8r	.	8f/	f	8r	.	8r	.	4.e-\] 4.c\]	.	4.fnX/	4.fnX\	.	8r	8ryy	.	8r	8ryy	.	8f/	8r	f
!LO:SIC:s=8D\L	!	!LO:TX:a:t=P:problem=mixedbeam	!LO:DY:rj:a	!	!	!	!	!	!	!	!	!LO:TX:a:t=P:problem=mixedbeam	!	!	!	!	!	!	!	!	!	!	!	!	!	!	!	!	!
8Re\L	.	8F\L	f	.	.	8f\L 8A\	.	8e-/L 8c/	.	8ff\L 8a'\	.	8Fn\L	.	8ffX/L 8fX/	.	.	.	.	.	.	8cc'/L	8a\L	.	8ff/L	8a^<\L	.	8fff/L	8ff\L	.
!LO:SIC:s=8D\J	!	!	!	!	!	!	!	!	!	!	!	!	!	!	!	!	!	!	!	!	!	!	!	!	!	!	!	!	!
8Re\J	.	8FF/J	.	.	.	8f\J 8A\	.	8e-/J 8c/	.	8f'\J	.	8FF/J	.	8f/J	.	.	.	.	.	.	8f'/J	8f\J	.	8f/J	8f^<\J	.	8ff/J	8f\J	.
*	*	*	*	*	*	*	*	*	*	*	*	*	*	*	*	*	*	*	*	*	*v	*v	*	*	*	*	*	*	*
*	*	*	*	*	*	*	*	*	*	*	*	*	*	*	*	*	*	*	*	*	*	*	*v	*v	*	*	*	*
=55	=55	=55	=55	=55	=55	=55	=55	=55	=55	=55	=55	=55	=55	=55	=55	=55	=55	=55	=55	=55	=55	=55	=55	=55	=55	=55	=55
!	!	!	!LO:DY:rj:a	!	!	!	!	!	!	!	!	!	!	!	!	!	!	!	!	!	!	!	!	!	!	!	!
4.r	.	8BB-/	p	4.ryy	.	8r	.	8r	.	(24b-\LL	.	4.r	.	4.r	.	[>4.d\ [>4.B-\	.	[<4.fnX/	4.fn\	.	4.r	.	4.r	.	(24b-/LL	4.r	p
.	.	.	.	.	.	.	.	.	.	24a\	.	.	.	.	.	.	.	.	.	.	.	.	.	.	24a/	.	.
.	.	.	.	.	.	.	.	.	.	24b-\JJ	.	.	.	.	.	.	.	.	.	.	.	.	.	.	24b-/JJ	.	.
.	.	8r	.	.	.	8f\L 8B-\	.	8d/L 8B-/	.	24cc\LL	.	.	.	.	.	.	.	.	.	.	.	.	.	.	24cc/LL	.	.
.	.	.	.	.	.	.	.	.	.	24dd\	.	.	.	.	.	.	.	.	.	.	.	.	.	.	24dd/	.	.
.	.	.	.	.	.	.	.	.	.	24ee-\JJ	.	.	.	.	.	.	.	.	.	.	.	.	.	.	24ee-/JJ	.	.
.	.	8r	.	.	.	8f\J 8B-\	.	8d/J 8B-/	.	24een\LL	.	.	.	.	.	.	.	.	.	.	.	.	.	.	24een/LL	.	.
.	.	.	.	.	.	.	.	.	.	24ff\	.	.	.	.	.	.	.	.	.	.	.	.	.	.	24ff/	.	.
.	.	.	.	.	.	.	.	.	.	24gg\JJ	.	.	.	.	.	.	.	.	.	.	.	.	.	.	24gg/JJ	.	.
=56	=56	=56	=56	=56	=56	=56	=56	=56	=56	=56	=56	=56	=56	=56	=56	=56	=56	=56	=56	=56	=56	=56	=56	=56	=56	=56	=56
8r	.	8BB-/	.	4.ryy	.	8r	.	8r	.	8ff\)	.	8r	.	8r	.	4.d\] 4.B-\]	.	4.fnX/_<	4.fn\	.	8r	.	8r	.	8ff/)	8r	.
!LO:SIC:s=8D/L	!	!LO:TX:a:t=P:problem=mixedbeam	!LO:DY:rj:a	!	!	!	!	!	!	!	!	!LO:TX:a:t=P:problem=mixedbeam	!	!	!	!	!	!	!	!	!	!	!	!	!	!	!
8Re/L	.	8B-'\L	f	.	.	8f\L 8B-\	.	8d/L 8B-/	.	8bb-\L 8b-'\	f	8B-X\L	.	8b-X/L 8d/	.	.	.	.	.	.	8bb-\L 8b-'\	.	8bbn\L 8dd^<\	.	8bb-/L	8bb-\L	f
!LO:SIC:s=8D/J	!	!	!	!	!	!	!	!	!	!	!	!	!	!	!	!	!	!	!	!	!	!	!	!	!	!	!
8Re/J	.	8BB-'/J	.	.	.	8f\J 8B-\	.	8d/J 8B-/	.	8ff\J 8b-'\	.	8BB-X/J	.	8fX/J 8d/	.	.	.	.	.	.	8ff\J 8b-'\	.	8ff\J 8dd^<\	.	8ff/J	8ff\J	.
=57	=57	=57	=57	=57	=57	=57	=57	=57	=57	=57	=57	=57	=57	=57	=57	=57	=57	=57	=57	=57	=57	=57	=57	=57	=57	=57	=57
!	!	!	!LO:DY:rj:a	!	!	!	!	!	!	!LO:TUP:a:problem=klamra łukowa	!	!	!	!	!	!	!	!	!	!	!	!	!	!	!LO:TUP:a:problem=klamra łukowa	!	!
4.r	.	8F\	p	4.ryy	.	8r	.	8r	.	24ee-\LL	.	4.r	.	4.r	.	4.e-\ 4.c\	.	4.fnX/_<	4.fn\	.	4.r	.	4.r	.	24ee-/LL	4.r	.
.	.	.	.	.	.	.	.	.	.	24ff\	.	.	.	.	.	.	.	.	.	.	.	.	.	.	24ff/	.	.
.	.	.	.	.	.	.	.	.	.	24gg\JJ	.	.	.	.	.	.	.	.	.	.	.	.	.	.	24gg/JJ	.	.
!	!	!	!	!	!	!	!	!	!	!LO:TUP:a:problem=klamra łukowa	!	!	!	!	!	!	!	!	!	!	!	!	!	!	!LO:TUP:a:problem=klamra łukowa	!	!
.	.	8r	.	.	.	8f\L 8A\	.	8e-/L 8c/	.	24cc\LL	.	.	.	.	.	.	.	.	.	.	.	.	.	.	24cc/LL	.	.
.	.	.	.	.	.	.	.	.	.	24dd\	.	.	.	.	.	.	.	.	.	.	.	.	.	.	24dd/	.	.
.	.	.	.	.	.	.	.	.	.	24ee-\JJ	.	.	.	.	.	.	.	.	.	.	.	.	.	.	24ee-/JJ	.	.
!	!	!	!	!	!	!	!	!	!	!LO:TUP:a:problem=klamra łukowa	!	!	!	!	!	!	!	!	!	!	!	!	!	!	!LO:TUP:a:problem=klamra łukowa	!	!
.	.	8r	.	.	.	8f\J 8A\	.	8e-/J 8c/	.	24a/LL	.	.	.	.	.	.	.	.	.	.	.	.	.	.	24a/LL	.	.
.	.	.	.	.	.	.	.	.	.	24b-/	.	.	.	.	.	.	.	.	.	.	.	.	.	.	24b-/	.	.
.	.	.	.	.	.	.	.	.	.	24cc/JJ	.	.	.	.	.	.	.	.	.	.	.	.	.	.	24cc/JJ	.	.
*	*	*	*	*	*	*	*	*	*	*	*	*	*	*	*	*	*	*	*	*	*	*	*	*	*v	*v	*
!!LO:PB:g=original
=58	=58	=58	=58	=58	=58	=58	=58	=58	=58	=58	=58	=58	=58	=58	=58	=58	=58	=58	=58	=58	=58	=58	=58	=58	=58	=58
8r	.	8FF/	.	4.ryy	.	8r	.	8r	.	8f/	.	8r	.	8r	.	4.e-X\ 4.c\	.	4.fnX/_<	[>4.fn\	.	8r	.	8r	.	8f/	f
!LO:SIC:s=8D\L	!	!LO:TX:a:t=P:problem=mixedbeam	!	!	!	!	!	!	!	!	!	!LO:TX:a:t=P:problem=mixedbeam	!	!	!	!	!	!	!	!	!	!	!	!	!	!
8Re\L	.	8F\L	.	.	.	8f\L 8A\	.	8e-/L 8c/	.	8ff\L 8a\	f	8Fn\L	.	8ffX/L 8fX/	.	.	.	.	.	.	8cc/L 8a/	.	8ff\L 8a\	.	8fff\L 8ff\	.
!LO:SIC:s=8D\J	!	!	!	!	!	!	!	!	!	!	!	!	!	!	!	!	!	!	!	!	!	!	!	!	!	!
8Re\J	.	8FF/J	.	.	.	8f\J 8A\	.	8e-/J 8c/	.	8f\J	.	8FF/J	.	8f/J	.	.	.	.	.	.	8f/J	.	8f\J	.	8ff\J 8f\	.
=59	=59	=59	=59	=59	=59	=59	=59	=59	=59	=59	=59	=59	=59	=59	=59	=59	=59	=59	=59	=59	=59	=59	=59	=59	=59	=59
!	!	!	!	!	!	!	!	!	!	!LO:TUP:a	!	!	!	!	!	!	!	!	!	!	!	!	!	!	!	!
4.r	.	16BB-/	.	4.ryy	.	16f\ 16B-\	.	16d/ 16B-/	.	(24b-\LL	.	4.r	.	4.r	.	16d\ 16B-\	.	4.fnX/_<	4.fnX\]	.	4.r	.	4.r	.	(>24b-/LL	.
.	.	.	.	.	.	.	.	.	.	24a\	.	.	.	.	.	.	.	.	.	.	.	.	.	.	24a/	.
.	.	16r	.	.	.	16r	.	16r	.	.	.	.	.	.	.	16r	.	.	.	.	.	.	.	.	.	.
.	.	.	.	.	.	.	.	.	.	24b-\JJ	.	.	.	.	.	.	.	.	.	.	.	.	.	.	24b-/JJ	.
!	!	!	!	!	!	!	!	!	!	!LO:TUP:a	!	!	!	!	!	!	!	!	!	!	!	!	!	!	!LO:TUP:a	!
.	.	8FF/L	.	.	.	8f\L 8A\	.	8e-/L 8c/	.	24cc\LL	.	.	.	.	.	4e-X\ 4c\	.	.	.	.	.	.	.	.	24cc/LL	.
.	.	.	.	.	.	.	.	.	.	24dd\	.	.	.	.	.	.	.	.	.	.	.	.	.	.	24dd/	.
.	.	.	.	.	.	.	.	.	.	24ee-\JJ	.	.	.	.	.	.	.	.	.	.	.	.	.	.	24ee-/JJ	.
!	!	!	!	!	!	!	!	!	!	!LO:TUP:a	!	!	!	!	!	!	!	!	!	!	!	!	!	!	!LO:TUP:a	!
.	.	8FF/J	.	.	.	8f\J 8A\	.	8e-/J 8c/	.	24ff\LL	.	.	.	.	.	.	.	.	.	.	.	.	.	.	24een/LL	.
.	.	.	.	.	.	.	.	.	.	24gg\	.	.	.	.	.	.	.	.	.	.	.	.	.	.	24ff/	.
.	.	.	.	.	.	.	.	.	.	24aa\JJ)	.	.	.	.	.	.	.	.	.	.	.	.	.	.	24gg/JJ	.
!!pagebreak:original
=60	=60	=60	=60	=60	=60	=60	=60	=60	=60	=60	=60	=60	=60	=60	=60	=60	=60	=60	=60	=60	=60	=60	=60	=60	=60	=60
*	*	*	*	*	*	*	*	*	*	*	*	*	*	*	*	*	*	*	*	*	*	*	*	*	*^	*
4.r	.	16BB-/	.	4.ryy	.	16f\ 16B-\	.	16d/ 16B-/	.	16bb-\	.	4.r	.	4.r	.	16d\ 16B-\	.	8fnX/]	8fn\	.	8r	.	8r	.	16bb-/)	8r	.
.	.	16r	.	.	.	16r	.	16r	.	16r	.	.	.	.	.	16r	.	.	.	.	.	.	.	.	16r	.	.
.	.	4BB-/	.	.	.	4f\ 4B-\	.	4b-/ 4d/	.	4bb-\ 4b-\ 4d\	.	.	.	.	.	4d\ 4B-\	.	8r	8r	.	4ff\ 4b-\	.	4bb-\ 4dd\	.	4bb-/	4bb-\	.
.	.	.	.	.	.	.	.	.	.	.	.	.	.	.	.	.	.	8r	8r	.	.	.	.	.	.	.	.
*	*	*	*	*	*	*	*	*	*	*	*	*	*	*	*	*	*	*	*	*	*	*	*	*	*v	*v	*
=61:|!|:	=61:|!|:	=61:|!|:	=61:|!|:	=61:|!|:	=61:|!|:	=61:|!|:	=61:|!|:	=61:|!|:	=61:|!|:	=61:|!|:	=61:|!|:	=61:|!|:	=61:|!|:	=61:|!|:	=61:|!|:	=61:|!|:	=61:|!|:	=61:|!|:	=61:|!|:	=61:|!|:	=61:|!|:	=61:|!|:	=61:|!|:	=61:|!|:	=61:|!|:	=61:|!|:
*>I	*	*	*	*	*	*	*	*	*	*	*	*	*	*	*	*	*	*	*	*	*	*	*	*	*	*
*	*	*	*	*	*	*	*	*	*	*	*	*	*	*	*	*^	*	*	*	*	*^	*	*	*	*	*
!LO:SIC:s=4GGT/	!LO:DY:rj	!	!LO:DY:rj	!	!LO:DY:rj	!	!LO:DY:rj:a	!	!	!	!LO:DY:rj	!	!LO:DY:rj	!	!	!	!	!	!	!	!LO:DY:rj	!	!	!	!	!LO:DY:rj:a	!LO:TX:rj:a:t=unis.	!
4Ret/	ff	4G\	ff	8D/L 8GG/	ff	8d\L 8G\	ff	8b-/L 8g'/	.	8gg\L 8b-\ 8d'\	ff	4G\	ff	4g/ 4d/	.	8g/L	4B-\	.	4gg/	4dd\	ff	8gg/Lyy	4b-\yy	.	8gg\L 8b-\	ff	8gg'\L	.
.	.	.	.	8D/ 8GG/	.	8d\ 8G\	.	8b-/ 8g'/	.	8dd'\	.	.	.	.	.	8d/	.	.	.	.	.	8dd/yy	.	.	8dd\ 8b-\	.	8dd'\	.
!LO:SIC:s=8GG/	!	!	!	!	!	!	!	!	!	!	!	!	!	!	!	!	!	!	!	!	!	!	!	!	!	!	!	!
8Ret/	.	8GG/	.	8E-/J 8GG/	.	8e-\J 8G^\	.	8cc/J 8g'/	.	8ee-^<T\J	.	8GG/	.	8g/ 8e-X/	.	8e-T/J	8c\	.	8gg\ 8ee-X\	8ryy	.	8ee-Tyy/Jyy	8cc\yy	.	8ee-\J 8ccT\	.	8ee-T\J	.
*	*	*	*	*	*	*	*	*	*	*	*	*	*	*	*	*	*	*	*v	*v	*	*	*	*	*	*	*	*
=62	=62	=62	=62	=62	=62	=62	=62	=62	=62	=62	=62	=62	=62	=62	=62	=62	=62	=62	=62	=62	=62	=62	=62	=62	=62	=62	=62
*	*	*	*	*	*	*	*	*	*	*	*	*	*	*	*	*	*	*	*	*	*	*	*	*^	*	*	*
*	*	*	*	*rep	*	*	*	*	*	*	*	*	*	*	*	*	*	*	*	*	*	*	*	*	*	*	*	*
!LO:SIC:s=4GGT/	!	!	!	!	!	!	!	!	!	!	!	!	!	!	!	!	!	!	!	!	!LO:TX:a:t=Col Oboe	!	!	!	!	!	!	!
4Ret/	.	4G\	.	8D/L 8GG/	.	8d\L 8G\	.	8b-/L 8g/	.	16dd'\LL	.	4G\	.	4g/ 4d/	.	16d/LL	4B-\	.	4gg\ 4dd\	.	16dd/LLyy	4b-\yy	.	16dd/LL	4b-\	.	16dd'\LL	.
.	.	.	.	.	.	.	.	.	.	16gg'\J	.	.	.	.	.	16g/J	.	.	.	.	16gg/Jyy	.	.	16gg/J	.	.	16gg'\J	.
.	.	.	.	8D/ 8GG/	.	8d\ 8G\	.	8b-/ 8g/	.	8dd'\	.	.	.	.	.	8d/	.	.	.	.	8dd/yy	.	.	8dd/	.	.	8dd'\	.
!LO:SIC:s=8GG/	!	!	!	!	!	!	!	!	!	!	!	!	!	!	!	!	!	!	!	!	!	!	!	!	!	!	!	!
8Re/	.	8GG/	.	8E-/J 8GG/	.	8e-\J 8G^\	.	8cc/J 8g/	.	8ee-^<T\J	.	8GG/	.	8g/ 8e-/	.	8e-T/J	8c\	.	8gg\ 8ee-X\	.	8ggyy/J 8ee-T/yy	8cc\yy	.	8gg/J 8ee-T/	8cc\	.	8ee-T\J	.
*	*	*	*	*Xrep	*	*	*	*	*	*	*	*	*	*	*	*	*	*	*	*	*	*	*	*	*	*	*	*
*	*	*	*	*	*	*	*	*	*	*	*	*	*	*	*	*	*	*	*	*	*v	*v	*	*	*	*	*	*
*	*	*	*	*	*	*	*	*	*	*	*	*	*	*	*	*v	*v	*	*	*	*	*	*v	*v	*	*	*
=63	=63	=63	=63	=63	=63	=63	=63	=63	=63	=63	=63	=63	=63	=63	=63	=63	=63	=63	=63	=63	=63	=63	=63	=63	=63
*	*	*	*	*	*	*	*	*	*	*	*	*	*	*^	*	*	*	*	*	*	*	*	*	*	*
*	*	*tremolo	*	*tremolo	*	*tremolo	*	*tremolo	*	*	*	*	*	*	*	*	*	*	*	*	*	*	*	*	*	*
!LO:SIC:s=8GG/	!	!	!	!	!	!	!	!	!	!	!	!	!	!	!	!	!	!	!	!	!	!	!	!	!	!
8Re/	.	8G\L	.	8D/L 8GG/	.	8d\L 8G\	.	8b-/L 8g/	.	16dd'\LL	.	8G\	.	16g/LL	16d\	.	16d\ 16B-\	.	16gg\ 16dd\	.	16ddyy\LL 16b-'\yy	.	16dd\LL 16b-'\	.	16dd\LL 16b-'\	.
.	.	.	.	.	.	.	.	.	.	(32gg\L	.	.	.	(32g/L	16r	.	16r	.	16r	.	(yy32gg\Lyy	.	(32gg\L	.	(32gg\L	.
.	.	.	.	.	.	.	.	.	.	32aa\JJ	.	.	.	32a/JJJ	.	.	.	.	.	.	32aa\JJyy	.	32aa\JJ	.	32aa\JJ	.
8r	.	8G\	.	8D/ 8GG/	.	8d\ 8G\	.	8b-/ 8g/	.	8bb-\)	.	8r	.	8b-X/L)	8d\L	.	8d\L 8B-\	.	8gg\L 8dd\	.	8bb-\)yy	.	8bb-\)	.	8bb-\)	.
8r	.	8G\J	.	8D/J 8GG/	.	8d\J 8G\	.	8b-/J 8g/	.	8gg'\J	.	8r	.	8g'/J	8d\J	.	8g\J 8B-\	.	8gg\J 8dd\	.	8gg\Jyy	.	8gg\J	.	8gg'\J	.
*	*	*Xtremolo	*	*Xtremolo	*	*Xtremolo	*	*Xtremolo	*	*	*	*	*	*	*	*	*	*	*	*	*	*	*	*	*	*
*	*	*	*	*	*	*	*	*	*	*	*	*	*	*v	*v	*	*	*	*	*	*	*	*	*	*	*
=64	=64	=64	=64	=64	=64	=64	=64	=64	=64	=64	=64	=64	=64	=64	=64	=64	=64	=64	=64	=64	=64	=64	=64	=64	=64
.	.	.	.	.	.	.	.	.	.	(8qbb-/	.	.	.	(8qb-X/ 8qg/	.	(8qg/ (8qB-/	.	.	.	(8qbb-yy/ yy(yy8qgg/yy	.	(8qbb-/ (8qgg/	.	(8qbb-/ (8qgg/	.
!LO:SIC:s=16GG/	!	!	!	!	!	!	!	!	!	!	!	!	!	!	!	!	!	!	!	!	!	!	!	!	!
16Re/	.	16D\	.	16D\	.	16d\	.	16a/ 16f#X/	.	16.aa\LL)	.	16D\	.	16a/LL 16f/)	.	16.f#X\LL 16.A\))	.	16aa\ 16dd\	.	16.aayy\LL 16.ff#X\))yy	.	16.aa\LL 16.ff#X\))	.	16.aa\LL 16.ff#X\))	.
16r	.	16r	.	16r	.	16r	.	16r	.	.	.	16r	.	32r	.	.	.	16r	.	.	.	.	.	.	.
.	.	.	.	.	.	.	.	.	.	32gg#X\JJk|	.	.	.	32g#X/JJk 32e#X/|	.	32e#X\JJk 32G#X\	.	.	.	32gg#Xyy\JJk 32ee#X\yy|	.	32gg#X\JJk 32ee#X\|	.	32gg#X\JJk 32ee#X\|	.
!LO:SIC:s=4GG/	!	!	!	!	!	!	!	!	!	!	!	!	!	!	!	!	!	!	!	!	!	!	!	!	!
4Re/	.	4D\	.	4D\	.	4d\	.	4a/ 4f#/	.	4aa'\	.	4D\	.	4a/ 4f/|	.	4f#\ 4A\	.	4aa\ 4dd\	.	4aayy\ 4ff#\yy|	.	4aa\ 4ff#\|	.	4aa\ 4ff#\|	.
=65	=65	=65	=65	=65	=65	=65	=65	=65	=65	=65	=65	=65	=65	=65	=65	=65	=65	=65	=65	=65	=65	=65	=65	=65	=65
*	*	*	*	*	*	*	*	*	*	*	*	*	*	*	*	*^	*	*	*	*^	*	*^	*	*	*
!LO:SIC:s=4GGT/	!	!	!	!	!	!	!	!	!	!	!	!	!	!	!	!	!	!	!	!	!	!	!	!	!	!	!	!
4Ret/	.	4G\	.	8D/L 8GG/	.	8d/L 8G/	.	8b-/L 8g/	.	8ggn\L 8b-\ 8d'\	.	4.G\	.	4gnX/ 4d/	.	8gn/L	4B-\	.	4gg\ 4dd\	.	8ggn/Lyy	4b-\yy	.	8ggn/L	4b-\	.	8ggn'\L	.
.	.	.	.	8D/ 8GG/	.	8d/ 8G/	.	8b-/ 8g/	.	8dd'\	.	.	.	.	.	8d/	.	.	.	.	8dd/yy	.	.	8dd/	.	.	8dd'\	.
!LO:SIC:s=8GG/	!	!	!	!	!	!	!	!	!	!	!	!	!	!	!	!	!	!	!	!	!	!	!	!	!	!	!	!
8Re/	.	8GG/	.	8E-/J 8GG/	.	8e-/J 8G/	.	8cc/J 8g^/	.	8ee-^<T\J	.	.	.	8g/ 8e-X/	.	8e-T/J	8c\	.	8gg\ 8ee-X\	.	8ee-T/Jyy	8cc\yy	.	8ee-T/J	8cc\	.	8ee-'T\J	.
=66	=66	=66	=66	=66	=66	=66	=66	=66	=66	=66	=66	=66	=66	=66	=66	=66	=66	=66	=66	=66	=66	=66	=66	=66	=66	=66	=66	=66
*	*	*	*	*rep	*	*	*	*	*	*	*	*	*	*	*	*	*	*	*	*	*	*	*	*	*	*	*	*
!LO:SIC:s=4GGT/	!	!	!	!	!	!	!	!	!	!	!	!	!	!	!	!	!	!	!	!	!	!	!	!	!	!	!	!
4Ret/	.	4G\	.	8D/L 8GG/	.	8d/L 8G/	.	8b-/L 8g/	.	16dd'\LL	.	4.G\	.	4g/ 4d/	.	16d/LL	4B-\	.	4gg\ 4dd\	.	16dd/LLyy	4b-\yy	.	16dd/LL	4b-\	.	16dd'\LL	.
.	.	.	.	.	.	.	.	.	.	16gg'\J	.	.	.	.	.	16g/J	.	.	.	.	16gg/JJyy	.	.	16gg/JJ	.	.	16gg'\J	.
.	.	.	.	8D/ 8GG/	.	8d/ 8G/	.	8b-/ 8g/	.	8dd'\	.	.	.	.	.	8d/	.	.	.	.	8dd/Lyy	.	.	8dd/L	.	.	8dd'\	.
!LO:SIC:s=8GG/	!	!	!	!	!	!	!	!	!	!	!	!	!	!	!	!	!	!	!	!	!	!	!	!	!	!	!	!
8Re/	.	8GG/	.	8E-/J 8GG/	.	8e-/J 8G/	.	8cc/J 8g^/	.	8ee-^<T\J	.	.	.	8g/ 8e-X/	.	8e-T/J	8c\	.	8gg\ 8ee-X\	.	8ee-T/Jyy	8cc\yy	.	8ee-T/J	8cc\	.	8ee-T\J	.
*	*	*	*	*Xrep	*	*	*	*	*	*	*	*	*	*	*	*	*	*	*	*	*	*	*	*	*	*	*	*
*	*	*	*	*	*	*	*	*	*	*	*	*	*	*	*	*v	*v	*	*	*	*	*	*	*	*	*	*	*
!!LO:PB:g=original
=67	=67	=67	=67	=67	=67	=67	=67	=67	=67	=67	=67	=67	=67	=67	=67	=67	=67	=67	=67	=67	=67	=67	=67	=67	=67	=67	=67
4.ryy	.	8GG/L	.	8GG/Lyy	.	16d/ 16G/	.	16b-/ 16g/	.	16.dd\LL|	.	8G\	.	8g/ 8d/	.	16d\ 16B-\	.	16gg\ 16dd\	.	16.dd/LL	16b-\	.	16.dd/LL	16b-\	.	16.dd\LL	.
.	.	.	.	.	.	16r	.	16r	.	.	.	.	.	.	.	16r	.	16r	.	.	16r	.	.	16r	.	.	.
.	.	.	.	.	.	.	.	.	.	32ee-\JJk|	.	.	.	.	.	.	.	.	.	32ee-/JJk	.	.	32ee-/JJk	.	.	32ee-\JJk	.
.	.	8BB-/	.	8BB-/yy	.	8d\L 8G\	.	8g/L 8B-/	.	16dd\LL	.	8r	.	8r	.	8B-\L 8G\	.	8gg\L 8dd\	.	16dd/LL	8d\L	.	16dd/LL	8g\L	.	16dd\LL	.
.	.	.	.	.	.	.	.	.	.	16cc\	.	.	.	.	.	.	.	.	.	16cc/	.	.	16cc/	.	.	16cc\	.
.	.	8D/J	.	8D/Jyy	.	8d\J 8A\	.	8f#X/J 8c/	.	16b-\	.	8r	.	8r	.	8c\J 8A\	.	8ff\J 8dd\	.	16b-/	8c\J	.	16b-/	8f#X\J	.	16b-\	.
.	.	.	.	.	.	.	.	.	.	16a\JJ	.	.	.	.	.	.	.	.	.	16a/JJ	.	.	16a/JJ	.	.	16a\JJ	.
*	*	*	*	*	*	*	*	*	*	*	*	*	*	*	*	*	*	*	*	*v	*v	*	*	*	*	*	*
=68	=68	=68	=68	=68	=68	=68	=68	=68	=68	=68	=68	=68	=68	=68	=68	=68	=68	=68	=68	=68	=68	=68	=68	=68	=68	=68
*	*	*	*	*	*	*	*	*	*	*	*	*	*	*	*	*^	*	*	*	*	*	*	*	*	*	*
4.ryy	.	16G\	.	16G\yy	.	16d\ 16G\	.	16g/ 16B-/	.	16g/	.	4.r	.	4.r	.	16B-/	16G\	.	16gg\ 16dd\	.	16g/ 16B-/	.	16g/	16g\	.	16g/	.
.	.	16r	.	16ryy	.	16r	.	16r	.	16r	.	.	.	.	.	16r	16ryy	.	16r	.	16r	.	16r	16ryy	.	16r	.
!	!	!	!	!	!	!	!	!	!	!LO:TX:a:t=[segno]	!	!	!	!	!	!	!	!	!	!	!	!	!	!	!	!LO:TX:a:t=segno	!
.	.	4GG/	.	4GG/yy	.	4d\ 4G\	.	4g/ 4B-/	.	4gg\ 4b-\ 4d\	.	.	.	.	.	4B-/	4G\	.	4gg\ 4dd\	.	4g/ 4B-/	.	4gg\ 4b-\	4ryy	.	4gg\ 4b-\	.
*	*	*	*	*	*	*	*	*	*	*	*	*	*	*	*	*v	*v	*	*	*	*	*	*v	*v	*	*	*
!!pagebreak:original
=69:|!|:	=69:|!|:	=69:|!|:	=69:|!|:	=69:|!|:	=69:|!|:	=69:|!|:	=69:|!|:	=69:|!|:	=69:|!|:	=69:|!|:	=69:|!|:	=69:|!|:	=69:|!|:	=69:|!|:	=69:|!|:	=69:|!|:	=69:|!|:	=69:|!|:	=69:|!|:	=69:|!|:	=69:|!|:	=69:|!|:	=69:|!|:	=69:|!|:	=69:|!|:
*>H	*	*	*	*	*	*	*	*	*	*	*	*	*	*	*	*	*	*	*	*	*	*	*	*	*
!	!	!	!	!	!	!	!	!	!	!	!	!	!	!	!	!	!	!	!	!	!	!	!	!LO:TX:a:t=Coda	!
.	.	.	.	.	.	.	.	.	.	(8qeen/	.	.	.	.	.	.	.	.	.	.	.	.	.	.	.
*	*	*	*	*	*	*	*	*^	*	*	*	*	*	*	*	*	*	*^	*	*^	*	*	*	*	*
!	!	!	!	!	!	!	!	!	!	!LO:DY:a	!	!	!	!	!	!	!	!	!	!	!	!	!	!	!	!	!	!
4.ryy	.	4.ryy	.	16d\yy	.	16enyy\ 16d\yy	.	16b-yy/ 16g/yy|	16ryyyy	mfyy	16.gg\LL)	.	4.ryy	.	4.ryy	.	16d\yy	.	16ee/yy	16ee\yy|	.	16b-/yy	16g\yy	mfyy	4.ryy	.	16.ryy	.
.	.	.	.	16ryy	.	16ryy	.	16ryy	16ryyyy	.	.	.	.	.	.	.	16ryy	.	16ryy	16ryyyy	.	16ryy	16ryy	.	.	.	.	.
.	.	.	.	.	.	.	.	.	.	.	(32gg\JJk|	.	.	.	.	.	.	.	.	.	.	.	.	.	.	.	(32gg\yy|	.
.	.	.	.	4c#X\yy	.	4eyy\ 4c#X\yy	.	4a^/yy	4g\yy	.	4a/)	.	.	.	.	.	4c#X^\yy	.	4ee^/yy	4ee\yy	.	4a^/yy	4g\yy	.	.	.	4a/)yy	.
=70	=70	=70	=70	=70	=70	=70	=70	=70	=70	=70	=70	=70	=70	=70	=70	=70	=70	=70	=70	=70	=70	=70	=70	=70	=70	=70	=70	=70
.	.	.	.	.	.	.	.	.	.	.	(8qeen/	.	.	.	.	.	.	.	.	.	.	.	.	.	.	.	.	.
4.ryy	.	4.ryy	.	16d\yy	.	16enyy\ 16d\yy	.	16b-yy/ 16g/yy|	16ryyyy	.	16.gg\LL)	.	4.ryy	.	4.ryy	.	16d\yy|	.	16ee/yy	16ee\yy	.	16b-/yy|	16g\yy	.	4.ryy	.	16.ryy	.
.	.	.	.	16ryy	.	16ryy	.	16ryy	16ryyyy	.	.	.	.	.	.	.	16ryy	.	16ryy	16ryyyy	.	16ryy	16ryy	.	.	.	.	.
.	.	.	.	.	.	.	.	.	.	.	(32gg\JJk	.	.	.	.	.	.	.	.	.	.	.	.	.	.	.	32gg\yy	.
.	.	.	.	4c#X\yy	.	4eyy\ 4c#X\yy	.	4a/yy	4g\yy	.	4a/)	.	.	.	.	.	4c#X^\yy	.	4ee/yy	4ee\yy	.	4a^/yy	4g\yy	.	.	.	4a/yy	.
*	*	*	*	*	*	*	*	*	*	*	*	*	*	*	*	*	*	*	*v	*v	*	*	*	*	*	*	*	*
*	*	*	*	*	*	*	*	*v	*v	*	*	*	*	*	*	*	*	*	*	*	*v	*v	*	*	*	*	*
=71	=71	=71	=71	=71	=71	=71	=71	=71	=71	=71	=71	=71	=71	=71	=71	=71	=71	=71	=71	=71	=71	=71	=71	=71	=71
*	*	*	*	*	*	*	*	*	*	*	*	*	*	*^	*	*	*	*	*	*	*	*	*	*	*
!	!	!	!	!	!	!	!	!	!	!	!	!	!	!	!	!	!	!	!	!	!LO:TX:a:t=Col Oboe	!	!	!	!	!
!	!	!	!	!	!	!	!	!	!	!	!	!	!	!	!	!	!	!	!	!	!LO:TX:a:t=2o 8va	!	!LO:TX:a:t=2o 8va	!	!	!
!LO:SIC:s=8D/Lyy	!	!	!	!	!	!	!	!	!	!	!	!	!	!	!	!	!	!	!	!	!	!	!	!	!	!
8Re/yy	.	8D\Lyy	.	8d\Lyy	.	8d\Lyy	.	16.d/LLyy	.	16.dd'\LL	.	4.D\yy	.	16.d/LLyy|	16.d\LLyy	.	8dyy/L 8D/yy	.	8aayy\L 8dd\yy	.	16dd\LLyy|	fyy	16dd\LLyy|	.	16dd\LLyy|	.
.	.	.	.	.	.	.	.	.	.	.	.	.	.	.	.	.	.	.	.	.	16een\yy|	.	16een\yy|	.	16een\yy|	.
.	.	.	.	.	.	.	.	32en/Kyy	.	32ee-'\K	.	.	.	32e/Kyy|	32e\Kyy	.	.	.	.	.	.	.	.	.	.	.
!LO:SIC:s=8D/yy	!	!	!	!	!	!	!	!	!	!	!	!	!	!	!	!	!	!	!	!	!	!	!	!	!	!
8Re/yy	.	8D\yy	.	8Ayy\ 8D\yy	.	8ayy\ 8d\yy	.	16f#X/yy	.	16ff'\	.	.	.	16f#/yy|	16f#\yy	.	8Ayy/ 8D/yy	.	8aayy\ 8dd\yy	.	16ff#X'\yy	.	16ff#X'\yy	.	16ff#X'\yy	.
.	.	.	.	.	.	.	.	16g#X/yy	.	16gg#'\	.	.	.	16g#X/yy|	16g#\yy	.	.	.	.	.	16gg#X'\yy	.	16gg#X'\yy	.	16gg#X'\yy	.
!LO:SIC:s=8D/Jyy	!	!	!	!	!	!	!	!	!	!	!	!	!	!	!	!	!	!	!	!	!	!	!	!	!	!
8Re/yy	.	8D\Jyy	.	8Ayy\J 8D\yy	.	8ayy\J 8d\yy	.	16a/yy	.	16aa'\	.	.	.	16a/yy|	16a\yy	.	8Ayy/J 8D/yy	.	8aayy\J 8dd\yy	.	16aa'\yy	.	16aa'\yy	.	16aa'\yy	.
.	.	.	.	.	.	.	.	16bn/JJyy	.	16bb-'\JJ	.	.	.	16b/JJyy|	16b\JJyy	.	.	.	.	.	16bbn'\JJyy	.	16bbn'\JJyy	.	16bbn'\JJyy	.
=72	=72	=72	=72	=72	=72	=72	=72	=72	=72	=72	=72	=72	=72	=72	=72	=72	=72	=72	=72	=72	=72	=72	=72	=72	=72	=72
!LO:SIC:s=4Dt/yy	!	!	!	!	!	!	!	!	!	!	!	!	!	!	!	!	!	!	!	!	!	!	!	!	!	!
4Re/yy	.	8D\Lyy	.	8Ayy\L 8D\yy	.	8ayy\L 8d\yy	.	4at/yy	.	4aat\	.	4.D\yy	.	4a/yy	4a\yy	.	8Ayy/L 8D/yy	.	4.ryy	.	4.ryy	.	4aayy\ 4at\	.	4aat\yy	.
.	.	8D\yy	.	8Ayy\ 8D\yy	.	8ayy\ 8d\yy	.	.	.	.	.	.	.	.	.	.	8Ayy/ 8D/yy	.	.	.	.	.	.	.	.	.
!LO:SIC:s=8D/yy	!	!	!	!	!	!	!	!	!	!	!	!	!	!	!	!	!	!	!	!	!	!	!	!	!	!
8Re/yy	.	8D\Jyy	.	8Ayy\J 8D\yy	.	8ayy\J 8d\yy	.	8f#X/yy	.	8ff#X\	.	.	.	8f#/yy	8f#\yy	.	8Ayy/J 8D/yy	.	.	.	.	.	8ff#Xyy\ 8f#X\	.	8ff#X\yy	.
*	*	*	*	*	*	*	*	*	*	*	*	*	*	*v	*v	*	*	*	*	*	*	*	*	*	*	*
=73	=73	=73	=73	=73	=73	=73	=73	=73	=73	=73	=73	=73	=73	=73	=73	=73	=73	=73	=73	=73	=73	=73	=73	=73	=73
.	.	.	.	.	.	.	.	.	.	(8qeen/	.	.	.	.	.	.	.	.	.	.	.	.	.	.	.
*	*	*	*	*	*	*	*	*	*	*	*	*	*	*	*	*	*	*^	*	*^	*	*	*	*	*
4.ryy	.	4.ryy	.	16d\yy	.	16enyy\ 16d\yy	.	16b-yy/ 16g'/yy|	mfyy	16.gg\LL)	.	4.ryy	.	4.ryy	.	16d\yy|	.	16ee/yy	16ee\yy	.	16b-/yy	16g\yy	.	4.ryy	.	16.ryy	.
.	.	.	.	16ryy	.	16ryy	.	16ryy	.	.	.	.	.	.	.	16ryy	.	16ryy	16ryyyy	.	16ryy	16ryy	.	.	.	.	.
.	.	.	.	.	.	.	.	.	.	(32gg\JJk|	.	.	.	.	.	.	.	.	.	.	.	.	.	.	.	(32gg\yy|	.
.	.	.	.	4c#X\yy	.	4eyy\ 4c#X\yy	.	4ayy/ 4g'^/yy	.	4a/)	.	.	.	.	.	4c#X'\yy	.	4ee/yy	4ee\yy	.	4a'^/yy	4g\yy	.	.	.	4a/)yy	.
=74	=74	=74	=74	=74	=74	=74	=74	=74	=74	=74	=74	=74	=74	=74	=74	=74	=74	=74	=74	=74	=74	=74	=74	=74	=74	=74	=74
*	*	*	*	*	*	*	*	*	*	*rep	*	*	*	*	*	*	*	*	*	*	*	*	*	*	*	*	*
.	.	.	.	.	.	.	.	.	.	(8qeen/	.	.	.	.	.	.	.	.	.	.	.	.	.	.	.	.	.
4.ryy	.	4.ryy	.	16d\yy	.	16enyy\ 16d\yy	.	16b-yy/ 16g/yy	.	16.gg\LL)	.	4.ryy	.	4.ryy	.	16d\yy|	.	16ee/yy	16ee\yy	.	16b-/yy|	16g\yy	.	4.ryy	.	16.ryy	.
.	.	.	.	16ryy	.	16ryy	.	16ryy	.	.	.	.	.	.	.	16ryy	.	16ryy	16ryyyy	.	16ryy	16ryy	.	.	.	.	.
.	.	.	.	.	.	.	.	.	.	32gg\JJk|	.	.	.	.	.	.	.	.	.	.	.	.	.	.	.	(32gg\yy|	.
.	.	.	.	4c#X\yy	.	4eyy\ 4c#X\yy	.	4ayy/ 4g^/yy	.	4a/	.	.	.	.	.	4c#X'\yy	.	4ee/yy	4ee\yy	.	4a'^/yy	4g\yy	.	.	.	4a/)yy	.
*	*	*	*	*	*	*	*	*	*	*Xrep	*	*	*	*	*	*	*	*	*	*	*	*	*	*	*	*	*
*	*	*	*	*	*	*	*	*	*	*	*	*	*	*	*	*	*	*v	*v	*	*	*	*	*	*	*	*
=75	=75	=75	=75	=75	=75	=75	=75	=75	=75	=75	=75	=75	=75	=75	=75	=75	=75	=75	=75	=75	=75	=75	=75	=75	=75	=75
!LO:SIC:s=8AA/Lyy	!	!LO:TX:a:t=P:problem=mixedbeam	!	!LO:TX:a:t=P:problem=mixedbeam	!	!	!	!	!	!	!	!	!	!	!	!LO:TX:a:t=P:problem=mixedbeam	!	!	!	!	!	!	!LO:TX:a:t=Col Picolini	!	!	!
8Re/yy	.	8AA\Lyy	.	8AA\Lyy	fyy	8gyy\L 8A\yy	fyy	16.cc#X\LLyy	.	16.ee-\LL	.	4A\yy	.	16.eyy/LL 16.c#/yy	.	8AA/Lyy	.	8eeyy/L 8a/yy	.	8a/Lyy|	8g\Lyy	.	16.eenyy\LL 16.cc#X\	.	16.eenyy\LL 16.cc#X\	.
.	.	.	.	.	.	.	.	32dd\Kyy	.	32ff\K	.	.	.	32f#yy/K 32d/yy	.	.	.	.	.	.	.	.	32ff#Xyy\K 32dd\	.	32ff#Xyy\K 32dd\	.
!LO:SIC:s=8AA/yy	!	!	!	!	!	!	!	!	!	!	!	!	!	!	!	!	!	!	!	!	!	!	!	!	!	!
8Re/yy	.	8A\yy	.	8A\yy	.	8gyy\ 8A\yy	.	16.een\yy	.	16.gg\	.	.	.	16.gyy/ 16.e/yy	.	8A/yy	.	8eeyy/ 8a/yy	.	8a/yy	8g\yy	.	16.ggyy\ 16.ee\	.	16.ggyy\ 16.ee\	.
.	.	.	.	.	.	.	.	32ff#X\Kyy	.	32aa\K	.	.	.	32ayy/K 32f#/yy	.	.	.	.	.	.	.	.	32aayy\K 32ff#\	.	32aayy\K 32ff#\	.
!LO:SIC:s=8AA/Jyy	!	!	!	!	!	!	!	!	!	!	!	!	!	!	!	!	!	!	!	!	!	!	!	!	!	!
8Re/yy	.	8AA\Jyy	.	8AA\Jyy	.	8gyy\J 8A\yy	.	16.gg\yy	.	16.bb-\	.	8AA/yy	.	16.byy/ 16.g/yy	.	8AA/Jyy	.	8eeyy/J 8a/yy	.	8a/Jyy	8g\Jyy	.	16.bbnyy\ 16.gg\	.	16.bbnyy\ 16.gg\	.
.	.	.	.	.	.	.	.	32ee\JJkyy	.	32ccc\JJk	.	.	.	32cc#yy/JJk 32e/yy	.	.	.	.	.	.	.	.	32ccc#Xyy\JJk 32ee\	.	32ccc#Xyy\JJk 32ee\	.
*	*	*	*	*	*	*	*	*	*	*	*	*	*	*	*	*	*	*	*	*v	*v	*	*	*	*	*
!!LO:PB:g=original
=76	=76	=76	=76	=76	=76	=76	=76	=76	=76	=76	=76	=76	=76	=76	=76	=76	=76	=76	=76	=76	=76	=76	=76	=76	=76
!LO:TX:t=1ma	!	!	!	!	!	!	!	!	!	!	!	!	!	!	!	!	!	!	!	!	!	!	!	!	!
*>I1	*	*	*	*	*	*	*	*	*	*	*	*	*	*	*	*	*	*	*	*	*	*	*	*	*
!LO:SIC:s=16D\yy	!	!	!	!	!	!	!	!	!	!	!	!	!	!	!	!	!	!	!	!	!	!	!	!	!
16Re\yy	.	16D\yy	.	16D\yy	.	16f#Xyy\ 16A\yy	.	16ff#X\yy	.	16dd\yy	.	16D\yy	.	16ddyy/ 16f#/yy	.	16D/yy	.	16ddyy/ 16f#/yy	.	16ayy/ 16f#X/yy	.	16dddyy\ 16ff#X\	.	16dddyy\ 16ff#X\	.
16ryy	.	16ryy	.	16ryy	.	16ryy	.	16ryy	.	16ryy	.	16ryy	.	16ryy	.	16ryy	.	16ryy	.	16ryy	.	16ryy	.	16ryy	.
!LO:SIC:s=4D\yy	!	!	!	!	!	!	!	!	!	!	!	!	!	!	!	!	!	!	!	!	!	!	!	!	!
4Re\yy	.	4dyy\ 4D\yy	.	4Ayy\ 4D\yy	.	4f#yy\ 4A\yy	.	4ddyy/ 4d/yy	.	4bbnyy\ 4ff#Xyy\ 4d\yy	.	4D\yy	.	4ddyy/ 4f#/yy	.	4D/yy	.	4ddyy/ 4f#/yy	.	4ayy/ 4f#/yy	.	4dddyy\ 4ff#\	.	4dddyy\ 4ff#\	.
=77:|!	=77:|!	=77:|!	=77:|!	=77:|!	=77:|!	=77:|!	=77:|!	=77:|!	=77:|!	=77:|!	=77:|!	=77:|!	=77:|!	=77:|!	=77:|!	=77:|!	=77:|!	=77:|!	=77:|!	=77:|!	=77:|!	=77:|!	=77:|!	=77:|!	=77:|!
*>I2	*	*	*	*	*	*	*	*	*	*	*	*	*	*	*	*	*	*	*	*	*	*	*	*	*
*	*	*	*	*	*	*tremolo	*	*	*	*	*	*	*	*	*	*	*	*	*	*	*	*	*	*	*
!LO:TX:t=2	!	!	!	!	!	!	!	!	!	!	!	!	!	!	!	!	!	!	!	!	!	!	!	!	!
!LO:SIC:s=16D/	!	!	!	!	!LO:DY:rj	!	!LO:DY:rj:a	!LO:TX:a:t=P:problem=mixedbeam	!LO:DY:rj:a	!	!	!	!	!	!	!	!	!	!	!	!	!	!	!	!
16Re/	.	16D\	.	16D\	ff	16f\LL 16d\	ff	16ff\LL	ff	16ddd\|	.	16D/	.	16dd/ 16f/	.	16A\	.	16dd/ 16f#/	.	16a/ 16f/	.	16ddd\ 16ff\	.	16ddd\ 16ff\	.
16r	.	16r	.	16r	.	16f\ 16d\	.	16a/JJ 16d/	.	16r	.	16r	.	16r	.	16r	.	16r	.	16r	.	16r	.	16r	.
*	*	*	*	*	*	*	*	*tremolo	*	*	*	*	*	*	*	*	*	*	*	*	*	*	*	*	*
!LO:SIC:s=4Dt/	!	!	!	!	!	!	!	!	!	!	!	!	!	!	!	!	!	!	!	!	!	!	!	!	!
4Ret/	.	4d\	.	4d\ 4D\	.	16f\ 16d\	.	16a/LL 16d/	.	4ddd\ 4ff^<\	.	4D/	.	4a/ 4f/	.	4a\ 4A\	.	4dd/ 4f#/	.	4a/ 4f/	.	4ddd\ 4ff\	.	4ddd\ 4ff\	.
.	.	.	.	.	.	16f\ 16d\	.	16a/ 16d/	.	.	.	.	.	.	.	.	.	.	.	.	.	.	.	.	.
.	.	.	.	.	.	16f\ 16d\	.	16a/ 16d/	.	.	.	.	.	.	.	.	.	.	.	.	.	.	.	.	.
.	.	.	.	.	.	16f\JJ 16d\	.	16a/JJ 16d/	.	.	.	.	.	.	.	.	.	.	.	.	.	.	.	.	.
=78	=78	=78	=78	=78	=78	=78	=78	=78	=78	=78	=78	=78	=78	=78	=78	=78	=78	=78	=78	=78	=78	=78	=78	=78	=78
*>J	*	*	*	*	*	*	*	*	*	*	*	*	*	*	*	*	*	*	*	*	*	*	*	*	*
*	*	*	*	*	*	*	*	*	*	*	*	*	*	*	*	*^	*	*	*	*	*	*^	*	*	*
*rep	*	*	*	*	*	*	*	*	*	*	*	*	*	*	*	*	*	*	*	*	*	*	*	*	*	*	*
!LO:SIC:s=16D/	!	!	!	!	!	!	!	!	!	!	!	!	!	!	!	!	!	!	!	!	!	!	!	!	!	!LO:TX:a:t=1o.in 8va	!
16Re/	.	16BB-/	.	16.d\LL	.	16f\LL 16d\	.	16b-/LL 16d/	.	16.dd\LL	.	16BB-/	.	16b-/ 16f/	.	16.a/LL	16G\	.	16ff#\ 16dd\	.	16dd/ 16f/	.	16.dd/LL	16.dd\LL	.	16.dd'\LL	.
16r	.	16r	.	.	.	16f\ 16d\	.	16b-/ 16d/	.	.	.	16r	.	16r	.	.	16r	.	16r	.	16r	.	.	.	.	.	.
.	.	.	.	32e-\JJk	.	.	.	.	.	32ee-\JJk	.	.	.	.	.	32b-/JJk	.	.	.	.	.	.	32ee-/JJk	32ee-\JJk	.	32ee-'\JJk	.
!LO:SIC:s=4Dt/	!	!	!	!	!	!	!	!	!	!	!	!	!	!	!	!	!	!	!	!	!	!	!	!	!	!	!
4Ret/	.	4B-\	.	8f\L	.	16f\ 16d\	.	16b-/ 16d/	.	8ff^<\L	.	4BB-/	.	4b-/ 4f/	.	8cc/L	4G\	.	4ff#\ 4dd\	.	4dd/ 4f/	.	8ff/L	8ff\L	.	8ff'\L	.
.	.	.	.	.	.	16f\ 16d\	.	16b-/ 16d/	.	.	.	.	.	.	.	.	.	.	.	.	.	.	.	.	.	.	.
.	.	.	.	8f\J	.	16f\ 16d\	.	16b-/ 16d/	.	8ff\J	.	.	.	.	.	8cc/J	.	.	.	.	.	.	8ff/J	8ff\J	.	8ff'\J	.
.	.	.	.	.	.	16f\JJ 16d\	.	16b-/JJ 16d/	.	.	.	.	.	.	.	.	.	.	.	.	.	.	.	.	.	.	.
*Xrep	*	*	*	*	*	*	*	*	*	*	*	*	*	*	*	*	*	*	*	*	*	*	*	*	*	*	*
*	*	*	*	*	*	*	*	*	*	*	*	*	*	*	*	*	*	*	*	*	*	*	*v	*v	*	*	*
=79	=79	=79	=79	=79	=79	=79	=79	=79	=79	=79	=79	=79	=79	=79	=79	=79	=79	=79	=79	=79	=79	=79	=79	=79	=79	=79
*	*	*	*	*	*	*	*	*	*	*	*	*	*	*	*	*	*	*	*^	*	*	*	*	*	*	*
!	!	!	!	!	!	!	!	!	!	!	!	!	!	!	!	!	!	!	!	!	!	!	!	!LO:TX:a:t=Col Picolini	!	!	!
4.r	.	16G\	.	16g\LL	.	16g\LL 16B-\	.	16b-/LL 16e-/	.	16.gg\LL	.	16GG/	.	16b-/ 16g/	.	16.dd/LL	16D\	.	16ee/	16ee\	.	16b-/ 16g/	.	16.gg'\LLyy	.	16.gg'\LL	.
.	.	16r	.	16f\JJ	.	16g\ 16B-\	.	16b-/ 16e-/	.	.	.	16r	.	16r	.	.	16r	.	16r	16ryy	.	16r	.	.	.	.	.
.	.	.	.	.	.	.	.	.	.	32ff\JJk	.	.	.	.	.	32cc/JJk	.	.	.	.	.	.	.	32ff'\JJkyy	.	32ff'\JJk	.
!	!	!LO:TX:a:t=P:problem=mixedbeam	!	!	!	!	!	!	!	!	!	!	!	!	!	!LO:TX:a:t=P:problem=mixedbeam	!	!	!	!	!	!	!	!	!	!	!
.	.	8G\L	.	8.e-\L	.	16g\ 16B-\	.	16b-/ 16e-/	.	8.ee-^<\L	.	4GG/	.	4b-/ 4g/	.	8.b-/L	8d\L	.	4ee/	4ee\	.	4b-/ 4g/	.	8.ee-'\Lyy	.	8.ee-'\L	.
.	.	.	.	.	.	16g\ 16B-\	.	16b-/ 16e-/	.	.	.	.	.	.	.	.	.	.	.	.	.	.	.	.	.	.	.
.	.	8GG/J	.	.	.	16g\ 16B-\	.	16b-/ 16e-/	.	.	.	.	.	.	.	.	8D\J	.	.	.	.	.	.	.	.	.	.
.	.	.	.	16d\Jk	.	16g\JJ 16B-\	.	16b-/JJ 16e-/	.	16dd\Jk	.	.	.	.	.	16a/Jk	.	.	.	.	.	.	.	16dd'\Jkyy	.	16dd'\Jk	.
*	*	*	*	*	*	*	*	*	*	*	*	*	*	*	*	*	*	*	*v	*v	*	*	*	*	*	*	*
=80	=80	=80	=80	=80	=80	=80	=80	=80	=80	=80	=80	=80	=80	=80	=80	=80	=80	=80	=80	=80	=80	=80	=80	=80	=80	=80
*	*	*	*	*	*	*	*	*	*	*	*	*	*	*	*	*	*	*	*	*	*^	*	*^	*	*	*
*tremolo	*	*	*	*	*	*	*	*	*	*	*	*	*	*	*	*	*	*	*	*	*	*	*	*	*	*	*	*
!LO:SIC:s=8AA\L	!	!	!	!	!	!	!	!	!	!	!	!	!	!	!	!	!	!	!	!	!	!	!	!	!	!	!	!
8Re\L	.	16AA/	.	(16c\LL	.	16g\LL 16A\	.	16a/LL 16d/	.	(16cc\LL	.	16AA/	.	16a/ 16e-/	.	16g/LL	16E-\	.	16ee/ 16a/	.	16a/	16g\	.	(yy16cc\LLyy	16ryy	.	(16cc\LL	.
.	.	16r	.	16e-\JJ)	.	16g\ 16A\	.	16a/ 16d/	.	16ee-\JJ)	.	16r	.	16r	.	16b-/JJ	16r	.	16r	.	16r	16r	.	16ee-\JJ)yy	16ryy	.	16ee-\JJ)	.
!	!	!LO:TX:a:t=P:problem=mixedbeam	!	!	!	!	!	!	!	!	!	!	!	!	!	!	!	!	!	!	!	!	!	!	!	!	!	!
!LO:SIC:s=8AA\	!	!	!	!	!	!	!	!	!	!	!	!	!	!	!	!	!	!	!	!	!	!	!	!	!	!	!	!
8Re\	.	8A\L	.	8A\L	.	16g\ 16A\	.	16a/ 16d/	.	8aa\L 8a\	.	4AA/	.	4a/ 4e-/	.	8e-/L	8e-\L	.	4ee/ 4a/	.	4a/	4g\	.	8a/Lyy	8a\Lyy	.	8aa\L 8a'\	.
.	.	.	.	.	.	16g\ 16A\	.	16a/ 16d/	.	.	.	.	.	.	.	.	.	.	.	.	.	.	.	.	.	.	.	.
!LO:SIC:s=8AA\J	!	!	!	!	!	!	!	!	!	!	!	!	!	!	!	!	!	!	!	!	!	!	!	!	!	!	!	!
8Re\J	.	8AA/J	.	8c\J	.	16g\ 16A\	.	16a/ 16d/	.	8ccc\J 8a\	.	.	.	.	.	8g/J	8E-\J	.	.	.	.	.	.	8cc/Jyy	8cc\Jyy	.	8ccc\J 8cc'\	.
.	.	.	.	.	.	16g\JJ 16A\	.	16a/JJ 16d/	.	.	.	.	.	.	.	.	.	.	.	.	.	.	.	.	.	.	.	.
=81	=81	=81	=81	=81	=81	=81	=81	=81	=81	=81	=81	=81	=81	=81	=81	=81	=81	=81	=81	=81	=81	=81	=81	=81	=81	=81	=81	=81
*	*	*	*	*	*	*	*	*	*	*^	*	*	*	*	*	*	*	*	*	*	*	*	*	*	*	*	*	*
*	*	*	*	*	*	*	*	*	*	*	*	*	*tremolo	*	*	*	*	*tremolo	*	*tremolo	*	*tremolo	*tremolo	*	*	*	*	*	*
!LO:SIC:s=8D/L	!	!	!	!	!	!	!	!	!	!	!	!	!	!	!	!	!	!	!	!	!	!	!	!	!	!	!	!	!
8Re/L	.	8D\L	.	16.d\LL	.	16f\LL 16A\	.	16a/LL 16d/	.	16.ddd\LL	16.a\	.	8D\L	.	8a/L 8d/	.	16.a/LL	8A\L	.	8dd/L 8f/	.	8a/L	8f\L	.	16.dd/LL	16.dd\LL	.	16.ddd\LL 16.dd\|	.
.	.	.	.	.	.	16f\ 16A\	.	16a/ 16d/	.	.	.	.	.	.	.	.	.	.	.	.	.	.	.	.	.	.	.	.	.
*	*	*	*	*	*	*	*	*	*	*v	*v	*	*	*	*	*	*	*	*	*	*	*	*	*	*	*	*	*	*
.	.	.	.	32B-\K	.	.	.	.	.	32bb-\K	.	.	.	.	.	32f/K	.	.	.	.	.	.	.	32b-/K	32b-\K	.	32bb-\K 32b-\|	.
!LO:SIC:s=8D/	!	!	!	!	!	!	!	!	!	!	!	!	!	!	!	!	!	!	!	!	!	!	!	!	!	!	!	!
8Re/	.	8d\	.	16.A\	.	16f\ 16A\	.	16a/ 16d/	.	16.aa\	.	8D\	.	8dd/ 8f/	.	16.e-/	8A\	.	8dd/ 8f/	.	8a/	8f\	.	16.a/	16.a\	.	16.aa\ 16.a\|	.
.	.	.	.	.	.	16f\ 16A\	.	16a/ 16d/	.	.	.	.	.	.	.	.	.	.	.	.	.	.	.	.	.	.	.	.
.	.	.	.	32B-\JK	.	.	.	.	.	32bb-\JK	.	.	.	.	.	32f/JK	.	.	.	.	.	.	.	32b-/JK	32b-\JK	.	32bb-\JK 32b-\|	.
!LO:SIC:s=8D/J	!	!	!	!	!	!	!	!	!	!	!	!	!	!	!	!	!	!	!	!	!	!	!	!	!	!	!	!
8Re/J	.	8d\J	.	8A\J	.	16f\ 16A\	.	16a/ 16d/	.	8aa\J	.	8D\J	.	8dd/J 8f/	.	8e-/J	8A\J	.	8dd/J 8f/	.	8a/J	8f\J	.	8a/J	8a\J	.	8aa\J 8a\|	.
.	.	.	.	.	.	16f\JJ 16A\	.	16a/JJ 16d/	.	.	.	.	.	.	.	.	.	.	.	.	.	.	.	.	.	.	.	.
*	*	*	*	*	*	*	*	*Xtremolo	*	*	*	*Xtremolo	*	*	*	*	*	*	*Xtremolo	*	*Xtremolo	*Xtremolo	*	*	*	*	*	*
*	*	*	*	*	*	*	*	*	*	*	*	*	*	*	*	*	*	*	*	*	*v	*v	*	*	*	*	*	*
*	*	*	*	*	*	*	*	*	*	*	*	*	*	*	*	*	*	*	*	*	*	*	*v	*v	*	*	*
=82	=82	=82	=82	=82	=82	=82	=82	=82	=82	=82	=82	=82	=82	=82	=82	=82	=82	=82	=82	=82	=82	=82	=82	=82	=82	=82
*	*	*tremolo	*	*	*	*	*	*	*	*	*	*	*	*	*	*	*	*	*	*	*	*	*	*	*	*
!LO:SIC:s=16D/	!	!	!	!	!	!	!	!	!	!	!	!	!	!	!	!	!	!	!	!	!	!	!	!	!	!
16Re/	.	8B-\L	.	16.d\LL	.	16dd\LL 16f\	.	16.dd\LL	.	16.ddd\LL	.	4.BB-/	.	4.b-/ 4.f/	.	16.a/LL	8F\L	.	4.ff\ 4.dd\	.	4.dd/ 4.f/	.	16.dd\LL	.	16.ddd\LL 16.dd'\	.
16r	.	.	.	.	.	16dd\ 16f\	.	.	.	.	.	.	.	.	.	.	.	.	.	.	.	.	.	.	.	.
.	.	.	.	32e-\JJk	.	.	.	32ee-\JJk	.	32eee-\JJk	.	.	.	.	.	32a/JJk	.	.	.	.	.	.	32ee-\JJk	.	32eee-\JJk 32ee-'\	.
!LO:SIC:s=4Dt/	!	!	!	!	!	!	!	!	!	!	!	!	!	!	!	!	!	!	!	!	!	!	!	!	!	!
4Ret/	.	8B-\	.	8f\L	.	16dd\ 16f\	.	8ff\L	.	8fff\L	.	.	.	.	.	8cc/L	8F\	.	.	.	.	.	8ff\L	.	8fff\L 8ff'\	.
.	.	.	.	.	.	16dd\ 16f\	.	.	.	.	.	.	.	.	.	.	.	.	.	.	.	.	.	.	.	.
.	.	8B-\J	.	8f\J	.	16dd\ 16f\	.	8ff\J	.	8fff\J	.	.	.	.	.	8cc/J	8F\J	.	.	.	.	.	8ff\J	.	8fff\J 8ff'\	.
.	.	.	.	.	.	16dd\JJ 16f\	.	.	.	.	.	.	.	.	.	.	.	.	.	.	.	.	.	.	.	.
!!pagebreak:original
=83	=83	=83	=83	=83	=83	=83	=83	=83	=83	=83	=83	=83	=83	=83	=83	=83	=83	=83	=83	=83	=83	=83	=83	=83	=83	=83
*	*	*	*	*	*	*	*	*	*	*	*	*	*	*	*	*	*	*	*^	*	*	*	*	*	*	*
*rep	*	*	*	*	*	*	*	*	*	*	*	*	*	*	*	*	*	*	*	*	*	*	*	*	*	*	*
!LO:SIC:s=16D/	!	!	!	!	!	!	!	!LO:TX:a:t=8va	!	!	!	!	!	!	!	!	!	!	!	!	!	!	!	!	!	!	!
16Re/	.	8G\L	.	16.g'\LL	.	16b-\LL 16g\	.	16.gg\LLyy	.	16.ggg\LL	.	4.GG/	.	4.b-/ 4.g/	.	16.dd/LL	8D\L	.	4.ee-/	4.ee-\	.	4.b-/ 4.g/	.	16.gg\LL	.	16.ggg\LL 16.gg'\	.
16r	.	.	.	.	.	16b-\ 16g\	.	.	.	.	.	.	.	.	.	.	.	.	.	.	.	.	.	.	.	.	.
.	.	.	.	32f'\JJk	.	.	.	32ff\JJkyy	.	32fff\JJk	.	.	.	.	.	32cc/JJk	.	.	.	.	.	.	.	32ff\JJk	.	32fff\JJk 32ff'\	.
!LO:SIC:s=4Dt/	!	!	!	!	!	!	!	!	!	!	!	!	!	!	!	!	!	!	!	!	!	!	!	!	!	!	!
4Ret/	.	8G\	.	8.e-'\L	.	16b-\ 16g\	.	8.ee-\Lyy	.	8.eee-\L	.	.	.	.	.	8.b-/L	8D\	.	.	.	.	.	.	8.ee-\L	.	8.eee-\L 8.ee-'\	.
.	.	.	.	.	.	16b-\ 16g\	.	.	.	.	.	.	.	.	.	.	.	.	.	.	.	.	.	.	.	.	.
.	.	8G\J	.	.	.	16b-\ 16g\	.	.	.	.	.	.	.	.	.	.	8D\J	.	.	.	.	.	.	.	.	.	.
.	.	.	.	16d'\Jk	.	16b-\JJ 16g\	.	16dd\Jkyy	.	16ddd\Jk	.	.	.	.	.	16a/Jk	.	.	.	.	.	.	.	16dd\Jk	.	16ddd\Jk 16dd'\	.
*Xrep	*	*Xtremolo	*	*	*	*	*	*	*	*	*	*	*	*	*	*	*	*	*	*	*	*	*	*	*	*	*
*	*	*	*	*	*	*	*	*	*	*	*	*	*	*	*	*	*	*	*v	*v	*	*	*	*	*	*	*
=84	=84	=84	=84	=84	=84	=84	=84	=84	=84	=84	=84	=84	=84	=84	=84	=84	=84	=84	=84	=84	=84	=84	=84	=84	=84	=84
*	*	*	*	*	*	*	*	*	*	*	*	*	*	*	*	*	*	*	*	*	*^	*	*^	*	*	*
*	*	*	*	*	*	*	*	*	*	*	*	*tremolo	*	*tremolo	*	*	*	*	*tremolo	*	*tremolo	*tremolo	*	*	*	*	*	*
!LO:SIC:s=8AA\L	!	!LO:TX:a:t=P:problem=mixedbeam	!	!	!	!	!	!	!	!	!	!	!	!	!	!	!	!	!	!	!	!	!	!	!	!	!	!
8Re\L	.	8A\L	.	(16c\LL	.	16a\LL 16g\	.	(yy16cc\LLyy	.	(16ccc\LL	.	8AA/L	.	8a/L 8e-/	.	(16g/LL	8E-\L	.	8ee-/L 8a/	.	8a/L	8g\L	.	(16cc\LL	16ryy	.	(16ccc\LL 16cc\	.
.	.	.	.	16e-\JJ)	.	16a\ 16g\	.	16ee-\JJ)yy	.	16eee-\JJ)	.	.	.	.	.	16b-/JJ)	.	.	.	.	.	.	.	16ee-\JJ)	16ryy	.	16eee-\JJ 16ee-\)	.
!LO:SIC:s=8AA\	!	!	!	!LO:TX:a:t=P:problem=mixedbeam	!	!	!	!	!	!	!	!	!	!	!	!	!	!	!	!	!	!	!	!	!	!	!	!
8Re\	.	8A\	.	8A'\L	.	16a\ 16g\	.	8a'\Lyy	.	8aa'\L	.	8AA/	.	8a/ 8e-/	.	8e-/L	8E-\	.	8ee-/ 8a/	.	8a/	8g\	.	8a/L	8a\L	.	8aa\L 8a'\	.
.	.	.	.	.	.	16a\ 16g\	.	.	.	.	.	.	.	.	.	.	.	.	.	.	.	.	.	.	.	.	.	.
!LO:SIC:s=8AA\J	!	!	!	!	!	!	!	!	!	!	!	!	!	!	!	!	!	!	!	!	!	!	!	!	!	!	!	!
8Re\J	.	8AA/J	.	8AA'/J	.	16a\ 16g\	.	8cc'\Jyy	.	8ccc'\J	.	8AA/J	.	8a/J 8e-/	.	8g/J	8E-\J	.	8ee-/J 8a/	.	8a/J	8g\J	.	8cc/J	8g\J	.	8ccc\J 8cc'\	.
.	.	.	.	.	.	16a\JJ 16g\	.	.	.	.	.	.	.	.	.	.	.	.	.	.	.	.	.	.	.	.	.	.
*	*	*	*	*	*	*Xtremolo	*	*	*	*	*	*Xtremolo	*	*Xtremolo	*	*	*Xtremolo	*	*Xtremolo	*	*XtremoloXtremolo	*	*	*	*	*	*	*
*	*	*	*	*	*	*	*	*	*	*	*	*	*	*	*	*	*	*	*	*	*v	*v	*	*	*	*	*	*
*	*	*	*	*	*	*	*	*	*	*	*	*	*	*	*	*v	*v	*	*	*	*	*	*v	*v	*	*	*
!!LO:PB:g=original
=85	=85	=85	=85	=85	=85	=85	=85	=85	=85	=85	=85	=85	=85	=85	=85	=85	=85	=85	=85	=85	=85	=85	=85	=85	=85
*^	*	*	*	*	*	*	*	*	*	*	*	*	*	*^	*	*	*	*	*	*	*	*	*	*	*
!LO:SIC:s=16D/	!LO:SIC:s=16D\	!	!	!	!	!	!	!	!	!	!	!	!	!	!	!	!	!	!	!	!	!	!	!	!	!	!
16Re\	16Re/	.	4.D\	.	4.A\ 4.D\	.	4.a\ 4.f\	.	16dd'/LL	.	16ddd'\LL	.	4.D\	.	4.d/	4.d\	.	4.d\ 4.F\	.	4.a/ 4.d/	.	4.a/ 4.f/	.	16dd\LL 16f'\	.	16ddd\LL 16dd'\	.
16r	16r	.	.	.	.	.	.	.	16f'/	.	16ff'\	.	.	.	.	.	.	.	.	.	.	.	.	16ff\ 16f'\	.	16ff'\	.
!	!LO:SIC:s=4Dt\	!	!	!	!	!	!	!	!	!	!	!	!	!	!	!	!	!	!	!	!	!	!	!	!	!	!
4r	4Re/	.	.	.	.	.	.	.	(16a/	.	(16aa\	.	.	.	.	.	.	.	.	.	.	.	.	(16aa\ 16a\	.	(16aa\	.
.	.	.	.	.	.	.	.	.	16g#X/)	.	16gg#X\)	.	.	.	.	.	.	.	.	.	.	.	.	16gg#X\ 16g#X\)	.	16gg#X\)	.
.	.	.	.	.	.	.	.	.	16b-'/	.	16bb-'\	.	.	.	.	.	.	.	.	.	.	.	.	16bb-\ 16b-'\	.	16bb-'\	.
.	.	.	.	.	.	.	.	.	16a'/JJ	.	16aa'\JJ	.	.	.	.	.	.	.	.	.	.	.	.	16aa\JJ 16a'\	.	16aa'\JJ	.
=86	=86	=86	=86	=86	=86	=86	=86	=86	=86	=86	=86	=86	=86	=86	=86	=86	=86	=86	=86	=86	=86	=86	=86	=86	=86	=86	=86
*rep	*rep	*	*	*	*	*	*	*	*	*	*	*	*	*	*	*	*	*	*	*	*	*	*	*	*	*	*
!LO:SIC:s=16D\	!LO:SIC:s=16D\v	!	!	!	!	!	!	!	!	!	!	!	!	!	!	!	!	!	!	!	!	!	!	!	!	!LO:TX:a:t=Col Vo. 1o.	!
16Re\	16Re/	.	4.D\	.	4.A\ 4.D\	.	4.a\ 4.f\	.	16f'/LL	.	16ff'\LL	.	4.D\	.	4.d/	4.d\	.	4.d\ 4.F\	.	4.a/ 4.d/	.	4.a/ 4.f/	.	16ff\LL 16f'\	.	16ff'\LLyy	.
16r	16r	.	.	.	.	.	.	.	16g#X'/	.	16gg#X'\	.	.	.	.	.	.	.	.	.	.	.	.	16gg#X\ 16g#X'\	.	16gg#X'\yy	.
!LO:SIC:s=4Dt\	!LO:SIC:s=4Dt\	!	!	!	!	!	!	!	!	!	!	!	!	!	!	!	!	!	!	!	!	!	!	!	!	!	!
4Re\	4Re/	.	.	.	.	.	.	.	(16a/	.	(16aa\	.	.	.	.	.	.	.	.	.	.	.	.	(16aa\ 16a\	.	(yy16aa\yy	.
.	.	.	.	.	.	.	.	.	16g#/)	.	16gg#\)	.	.	.	.	.	.	.	.	.	.	.	.	16gg#\ 16g#\)	.	16gg#\)yy	.
.	.	.	.	.	.	.	.	.	16b-'/	.	16bb-'\	.	.	.	.	.	.	.	.	.	.	.	.	16bb-\ 16b-'\	.	16bb-'\yy	.
.	.	.	.	.	.	.	.	.	16a'/JJ	.	16aa'\JJ	.	.	.	.	.	.	.	.	.	.	.	.	16aa\JJ 16a'\	.	16aa'\JJyy	.
*Xrep	*Xrep	*	*	*	*	*	*	*	*	*	*	*	*	*	*	*	*	*	*	*	*	*	*	*	*	*	*
*v	*v	*	*	*	*	*	*	*	*	*	*	*	*	*	*	*	*	*	*	*	*	*	*	*	*	*	*
=87	=87	=87	=87	=87	=87	=87	=87	=87	=87	=87	=87	=87	=87	=87	=87	=87	=87	=87	=87	=87	=87	=87	=87	=87	=87	=87
*	*	*	*	*	*	*	*	*	*	*	*	*	*	*	*	*	*	*	*	*	*^	*	*^	*	*	*
!LO:SIC:s=16AA\	!	!	!	!	!	!	!	!	!	!	!	!	!	!	!	!	!	!	!	!	!	!	!	!	!	!	!LO:TX:a:t=due	!
16Re\	.	4.D\	.	4.A\ 4.D\	.	4.a\ 4.g\	.	4.e-/ 4.A/	.	(16aa\LL	.	4.D\	.	4.e-/	4.e-\	.	4.c\ 4.G\	.	4.a/ 4.d/	.	4.a/	4.g\	.	(16aa/LL	4.a\	.	(yy16aa\LLyy	.
16r	.	.	.	.	.	.	.	.	.	16gg\)	.	.	.	.	.	.	.	.	.	.	.	.	.	16gg/)	.	.	16gg\)yy	.
!LO:SIC:s=4Dt\	!	!	!	!	!	!	!	!	!	!	!	!	!	!	!	!	!	!	!	!	!	!	!	!	!	!	!	!
4Ret\	.	.	.	.	.	.	.	.	.	16ee-'\	.	.	.	.	.	.	.	.	.	.	.	.	.	16ee-'/	.	.	16ee-'\yy	.
.	.	.	.	.	.	.	.	.	.	(16b-\	.	.	.	.	.	.	.	.	.	.	.	.	.	(16b-/	.	.	(yy16b-\yy	.
.	.	.	.	.	.	.	.	.	.	16cc\)	.	.	.	.	.	.	.	.	.	.	.	.	.	16cc/)	.	.	16cc\)yy	.
.	.	.	.	.	.	.	.	.	.	16a'\JJ	.	.	.	.	.	.	.	.	.	.	.	.	.	16a'/JJ	.	.	16a'\JJyy	.
=88||	=88||	=88||	=88||	=88||	=88||	=88||	=88||	=88||	=88||	=88||	=88||	=88||	=88||	=88||	=88||	=88||	=88||	=88||	=88||	=88||	=88||	=88||	=88||	=88||	=88||	=88||	=88||	=88||
*	*	*	*	*	*	*	*	*	*	*	*	*	*	*	*	*	*^	*	*	*	*	*	*	*	*	*	*	*
!LO:SIC:s=16D/	!	!	!	!	!	!	!	!	!	!	!	!	!	!	!	!	!	!	!	!	!	!	!	!	!	!	!	!	!
16Re/	.	16D\	.	16A\ 16D\	.	16a\ 16f\	.	(16d/LL|	.	(>16dd\LL|	.	16D\	.	16d/	16d\	.	(16d/LL|	16F\	.	16a/ 16c#/	.	16a/	16f\	.	(16dd/LL|	(16dd\LL	.	(yy16dd\LLyy|	.
16r	.	16r	.	16r	.	16ryy	.	(32c/L	.	(32cc\L	.	16r	.	16r	16ryy	.	(32c/L	16r	.	16r	.	16r	16ryy	.	(32cc/L	(32cc\L	.	(yy32cc\Lyy	.
.	.	.	.	.	.	.	.	32B-/JJJ	.	32b-\JJJ	.	.	.	.	.	.	32B-/JJJ	.	.	.	.	.	.	.	32b-/JJJ)	32b-\JJJ)	.	32b-\JJJyy	.
!LO:SIC:s=4D/	!	!	!	!	!	!	!	!	!	!	!	!	!	!	!	!	!	!	!	!	!	!	!	!	!	!	!	!	!
4Re/	.	4D\	.	4A\ 4D\	.	4a\ 4f\	.	4A^/))	.	4a^/))	.	4D\	.	4d/	4d\	.	4A^/))	4F\	.	4a/ 4d/	.	4a/	4f\	.	4a^/)	4a\)	.	4a^/))yy	.
*	*	*	*	*	*	*	*	*	*	*	*	*	*	*	*	*	*v	*v	*	*	*	*	*	*	*v	*v	*	*	*
=89	=89	=89	=89	=89	=89	=89	=89	=89	=89	=89	=89	=89	=89	=89	=89	=89	=89	=89	=89	=89	=89	=89	=89	=89	=89	=89	=89
!LO:SIC:s=16D/	!	!	!	!	!	!	!	!LO:TX:a:t=in 8va	!	!	!	!	!	!	!	!	!	!	!	!	!	!	!	!	!	!	!
16Re/	.	4.D\	.	4.A\ 4.D\	.	4.a\ 4.f\	.	16d'/LLyy	.	16dd'\LL	.	4.D\	.	4.d/	4.d\	.	4.d\ 4.F\	.	4.a/ 4.d/	.	4.a/	4.f\	.	16dd\LL 16d'\	.	16dd'\LLyy	.
16r	.	.	.	.	.	.	.	16f'/yy	.	16ff'\	.	.	.	.	.	.	.	.	.	.	.	.	.	16ff\ 16f'\	.	16ff'\yy	.
!LO:SIC:s=4Dt/	!	!	!	!	!	!	!	!	!	!	!	!	!	!	!	!	!	!	!	!	!	!	!	!	!	!	!
4Ret/	.	.	.	.	.	.	.	(yy16a/yy	.	(16aa\	.	.	.	.	.	.	.	.	.	.	.	.	.	(16aa\ 16a\	.	(yy16aa\yy	.
.	.	.	.	.	.	.	.	16g#X/)yy	.	16gg#X\)	.	.	.	.	.	.	.	.	.	.	.	.	.	16gg#X\ 16g#X\)	.	16gg#X\)yy	.
.	.	.	.	.	.	.	.	16b-'/yy	.	16bb-'\	.	.	.	.	.	.	.	.	.	.	.	.	.	16bb-\ 16b-'\	.	16bb-'\yy	.
.	.	.	.	.	.	.	.	16a'/JJyy	.	16aa'\JJ	.	.	.	.	.	.	.	.	.	.	.	.	.	16aa\JJ 16a'\	.	16aa'\JJyy	.
!!pagebreak:original
=90	=90	=90	=90	=90	=90	=90	=90	=90	=90	=90	=90	=90	=90	=90	=90	=90	=90	=90	=90	=90	=90	=90	=90	=90	=90	=90	=90
*rep	*	*	*	*rep	*	*	*	*	*	*	*	*	*	*	*	*	*	*	*	*	*	*	*	*	*	*	*
!LO:SIC:s=16D/	!	!	!	!	!	!	!	!	!	!	!	!	!	!	!	!	!	!	!	!	!	!	!	!	!	!	!
16Re/	.	4.D\	.	4.A\ 4.D\	.	4.a\ 4.f\	.	16f'/LLyy	.	16ff'\LL	.	4.D\	.	4.d/	4.d\	.	4.d\ 4.F\	.	4.a/ 4.d/	.	4.a/	4.f\	.	16ff\LL 16f'\	.	16ff'\LLyy	.
16r	.	.	.	.	.	.	.	16g#X'/yy	.	16gg#X'\	.	.	.	.	.	.	.	.	.	.	.	.	.	16gg#X\ 16g#X'\	.	16gg#X'\yy	.
!LO:SIC:s=4Dt/	!	!	!	!	!	!	!	!	!	!	!	!	!	!	!	!	!	!	!	!	!	!	!	!	!	!	!
4Ret/	.	.	.	.	.	.	.	(yy16a/yy	.	(16aa\	.	.	.	.	.	.	.	.	.	.	.	.	.	(16aa\ 16a\	.	(yy16aa\yy	.
.	.	.	.	.	.	.	.	16g#/)yy	.	16gg#\)	.	.	.	.	.	.	.	.	.	.	.	.	.	16gg#\ 16g#\)	.	16gg#\)yy	.
.	.	.	.	.	.	.	.	16b-'/yy	.	16bb-'\	.	.	.	.	.	.	.	.	.	.	.	.	.	16bb-\ 16b-'\	.	16bb-'\yy	.
.	.	.	.	.	.	.	.	16a'/JJyy	.	16aa'\JJ	.	.	.	.	.	.	.	.	.	.	.	.	.	16aa\JJ 16a'\	.	16aa'\JJyy	.
*Xrep	*	*	*	*Xrep	*	*	*	*	*	*	*	*	*	*	*	*	*	*	*	*	*	*	*	*	*	*	*
=91	=91	=91	=91	=91	=91	=91	=91	=91	=91	=91	=91	=91	=91	=91	=91	=91	=91	=91	=91	=91	=91	=91	=91	=91	=91	=91	=91
*	*	*	*	*	*	*	*	*	*	*	*	*	*	*	*	*	*	*	*	*	*	*	*	*^	*	*	*
*	*	*	*	*rep	*	*	*	*	*	*	*	*	*	*	*	*	*	*	*	*	*	*	*	*	*	*	*	*
!LO:SIC:s=16AA\	!	!	!	!	!	!	!	!	!	!	!	!	!	!	!	!	!	!	!	!	!	!	!	!	!	!	!	!
16Re\	.	4.D\	.	4.A\ 4.D\	.	4a\ 4g\	.	4e-/ 4A/	.	(16aa\LL	.	4.D\	.	4.e-/	4.e-\	.	4.c\ 4.G\	.	4.a/ 4.d/	.	4.a/	4.g\	.	(16aa/LL	4a\	.	(yy16aa\LLyy	.
16r	.	.	.	.	.	.	.	.	.	16gg\)	.	.	.	.	.	.	.	.	.	.	.	.	.	16gg/)	.	.	16gg\)yy	.
!LO:SIC:s=4Dt\	!	!	!	!	!	!	!	!	!	!	!	!	!	!	!	!	!	!	!	!	!	!	!	!	!	!	!	!
4Ret\	.	.	.	.	.	.	.	.	.	16ee-'\	.	.	.	.	.	.	.	.	.	.	.	.	.	16ee-'/	.	.	16ee-'\yy	.
.	.	.	.	.	.	.	.	.	.	(16b-\	.	.	.	.	.	.	.	.	.	.	.	.	.	(16b-/	.	.	(yy16b-\yy	.
.	.	.	.	.	.	8e-/ 8A/	.	8g/ 8A/	.	16cc\)	.	.	.	.	.	.	.	.	.	.	.	.	.	16cc/)	8g\	.	16cc\)yy	.
.	.	.	.	.	.	.	.	.	.	16ee-'\JJ	.	.	.	.	.	.	.	.	.	.	.	.	.	16a'/JJ	.	.	16ee-'\JJyy	.
*	*	*	*	*Xrep	*	*	*	*	*	*	*	*	*	*	*	*	*	*	*	*	*	*	*	*	*	*	*	*
*	*	*	*	*	*	*	*	*	*	*	*	*	*	*	*	*	*	*	*	*	*	*	*	*v	*v	*	*	*
=92	=92	=92	=92	=92	=92	=92	=92	=92	=92	=92	=92	=92	=92	=92	=92	=92	=92	=92	=92	=92	=92	=92	=92	=92	=92	=92	=92
*	*	*	*	*tremolo	*	*tremolo	*	*tremolo	*	*	*	*	*	*	*	*	*	*	*	*	*	*	*	*	*	*	*
!LO:SIC:s=4Dt/	!	!	!	!	!	!	!	!	!	!	!	!	!	!	!	!	!	!	!	!	!	!	!	!	!	!	!
4Ret/	.	8D\L	.	32A\LLL 32D\	.	32d\LLL	.	32f/LLL 32A/	.	16dd'\LL	.	4D\	.	4f/	4d\	.	4d\ 4F\	.	4a/ 4d/	.	4a/	4f\	.	(16dd/LL 16f/	.	16dd'\LLyy	.
.	.	.	.	32A\ 32D\	.	32d\	.	32f/ 32A/	.	.	.	.	.	.	.	.	.	.	.	.	.	.	.	.	.	.	.
.	.	.	.	32A\ 32D\	.	32d\	.	32f/ 32A/	.	16gg#X'\JJ	.	.	.	.	.	.	.	.	.	.	.	.	.	16gg#X/JJ 16g#X/)	.	16gg#X'\JJyy	.
.	.	.	.	32A\ 32D\	.	32d\	.	32f/ 32A/	.	.	.	.	.	.	.	.	.	.	.	.	.	.	.	.	.	.	.
.	.	8D\	.	32A\ 32D\	.	32d\	.	32f/ 32A/	.	8aa'\L	.	.	.	.	.	.	.	.	.	.	.	.	.	8aa/L 8a/	.	8aa'\Lyy	.
.	.	.	.	32A\ 32D\	.	32d\	.	32f/ 32A/	.	.	.	.	.	.	.	.	.	.	.	.	.	.	.	.	.	.	.
.	.	.	.	32A\ 32D\	.	32d\	.	32f/ 32A/	.	.	.	.	.	.	.	.	.	.	.	.	.	.	.	.	.	.	.
.	.	.	.	32A\JJJ 32D\	.	32d\JJJ	.	32f/JJJ 32A/	.	.	.	.	.	.	.	.	.	.	.	.	.	.	.	.	.	.	.
!LO:SIC:s=8D/	!	!	!	!	!	!	!	!	!	!	!	!	!	!	!	!	!	!	!	!	!	!	!	!	!	!	!
8Re/	.	8D\J	.	16A\LL 16D\	.	16e-\LL 16c\	.	16g/LL 16A/	.	8ee-T\J	.	8D\	.	8e-/	8e-\	.	8c\ 8G\	.	8a/ 8d/	.	8a/	8g\	.	8ee-/J 8e-T/	.	8ee-Tyy\Jyy	.
.	.	.	.	16A\JJ 16D\	.	16e-\JJ 16c\	.	16g/JJ 16A/	.	.	.	.	.	.	.	.	.	.	.	.	.	.	.	.	.	.	.
=93	=93	=93	=93	=93	=93	=93	=93	=93	=93	=93	=93	=93	=93	=93	=93	=93	=93	=93	=93	=93	=93	=93	=93	=93	=93	=93	=93
*rep	*	*	*	*rep	*	*	*	*	*	*	*	*	*	*	*	*	*	*	*rep	*	*	*	*	*	*	*	*
!LO:SIC:s=4Dt/	!	!	!	!	!	!	!	!	!	!	!	!	!	!	!	!	!	!	!	!	!	!	!	!	!	!	!
4Ret/	.	8D\L	.	32A\LLL 32D\	.	32d\LLL	.	32f/LLL 32A/	.	16dd\LL	.	4D\	.	4f/	4d\	.	4d\ 4F\	.	4a/ 4d/	.	4a/	4f\	.	16dd\LL 16d'\	.	16dd\LLyy	.
.	.	.	.	32A\ 32D\	.	32d\	.	32f/ 32A/	.	.	.	.	.	.	.	.	.	.	.	.	.	.	.	.	.	.	.
.	.	.	.	32A\ 32D\	.	32d\	.	32f/ 32A/	.	16gg#X\JJ	.	.	.	.	.	.	.	.	.	.	.	.	.	16gg#X\JJ 16g'\	.	16gg#X\JJyy	.
.	.	.	.	32A\ 32D\	.	32d\	.	32f/ 32A/	.	.	.	.	.	.	.	.	.	.	.	.	.	.	.	.	.	.	.
.	.	8D\	.	32A\ 32D\	.	32d\	.	32f/ 32A/	.	8aa\L	.	.	.	.	.	.	.	.	.	.	.	.	.	8aa\L 8a\	.	8aa\Lyy	.
.	.	.	.	32A\ 32D\	.	32d\	.	32f/ 32A/	.	.	.	.	.	.	.	.	.	.	.	.	.	.	.	.	.	.	.
.	.	.	.	32A\ 32D\	.	32d\	.	32f/ 32A/	.	.	.	.	.	.	.	.	.	.	.	.	.	.	.	.	.	.	.
.	.	.	.	32A\JJJ 32D\	.	32d\JJJ	.	32f/JJJ 32A/	.	.	.	.	.	.	.	.	.	.	.	.	.	.	.	.	.	.	.
!LO:SIC:s=8D/	!	!	!	!	!	!	!	!	!	!	!	!	!	!	!	!	!	!	!	!	!	!	!	!	!	!	!
8Re/	.	8D\J	.	16A\LL 16D\	.	16e-\LL 16c\	.	16g/LL 16A/	.	8ee-T\J	.	8D\	.	8e-/	8e-\	.	8c\ 8G\	.	8a/ 8d/	.	8a/	8g\	.	8ee-\J 8e-T\	.	8ee-Tyy\Jyy	.
.	.	.	.	16A\JJ 16D\	.	16e-\JJ 16c\	.	16g/JJ 16A/	.	.	.	.	.	.	.	.	.	.	.	.	.	.	.	.	.	.	.
*Xrep	*	*	*	*Xrep	*	*	*	*	*	*	*	*	*	*	*	*	*	*	*Xrep	*	*	*	*	*	*	*	*
!!LO:PB:g=original
=94	=94	=94	=94	=94	=94	=94	=94	=94	=94	=94	=94	=94	=94	=94	=94	=94	=94	=94	=94	=94	=94	=94	=94	=94	=94	=94	=94
!LO:SIC:s=4Dt/	!	!	!	!	!	!	!	!	!	!	!	!	!	!	!	!	!	!	!	!	!	!	!	!	!	!	!
4Ret/	.	8D\L	.	32A\LLL 32D\	.	32d\LLL	.	32f/LLL 32A/	.	16dd'\LL	.	4D\	.	4f/	4d\	.	4d\ 4F\	.	4a/ 4d/	.	4a/	4f\	.	16dd\LL 16d'\	.	16ddyy\LL 16d'\yy	.
.	.	.	.	32A\ 32D\	.	32d\	.	32f/ 32A/	.	.	.	.	.	.	.	.	.	.	.	.	.	.	.	.	.	.	.
.	.	.	.	32A\ 32D\	.	32d\	.	32f/ 32A/	.	16gg#X'\JJ	.	.	.	.	.	.	.	.	.	.	.	.	.	16gg#X\JJ 16g'\	.	16gg#Xyy\JJ 16g'\yy	.
.	.	.	.	32A\ 32D\	.	32d\	.	32f/ 32A/	.	.	.	.	.	.	.	.	.	.	.	.	.	.	.	.	.	.	.
.	.	8D\	.	32A\ 32D\	.	32d\	.	32f/ 32A/	.	(16bb-\LL	.	.	.	.	.	.	.	.	.	.	.	.	.	(16bb-\LL 16b-\	.	(16bb-yy\LL yy16b-\yy	.
.	.	.	.	32A\ 32D\	.	32d\	.	32f/ 32A/	.	.	.	.	.	.	.	.	.	.	.	.	.	.	.	.	.	.	.
.	.	.	.	32A\ 32D\	.	32d\	.	32f/ 32A/	.	16aa\J)	.	.	.	.	.	.	.	.	.	.	.	.	.	16aa\J 16a\)	.	16aayy\J 16a\)yy	.
.	.	.	.	32A\JJJ 32D\	.	32d\JJJ	.	32f/JJJ 32A/	.	.	.	.	.	.	.	.	.	.	.	.	.	.	.	.	.	.	.
!LO:SIC:s=8D/	!	!	!	!	!	!	!	!	!	!	!	!	!	!	!	!	!	!	!	!	!	!	!	!	!	!	!
8Re/	.	8D\J	.	16A\LL 16D\	.	16e-\LL 16c\	.	16g/LL 16A/	.	8ee-T\J	.	8D\	.	8e-/	8e-\	.	8c\ 8G\	.	8a/ 8d/	.	8a/	8g\	.	8ee-\J 8e-'\	.	8ee-yy\J 8e-'\yy	.
.	.	.	.	16A\JJ 16D\	.	16e-\JJ 16c\	.	16g/JJ 16A/	.	.	.	.	.	.	.	.	.	.	.	.	.	.	.	.	.	.	.
!!pagebreak:original
=95	=95	=95	=95	=95	=95	=95	=95	=95	=95	=95	=95	=95	=95	=95	=95	=95	=95	=95	=95	=95	=95	=95	=95	=95	=95	=95	=95
*rep	*	*	*	*rep	*	*rep	*	*rep	*	*rep	*	*rep	*	*rep	*rep	*	*rep	*	*rep	*	*rep	*rep	*	*	*	*	*
!LO:SIC:s=4Dt/	!	!	!	!	!	!	!	!	!	!	!	!	!	!	!	!	!	!	!	!	!	!	!	!	!	!	!
4Ret/	.	8D\L	.	32A\LLL 32D\	.	32d\LLL	.	32f/LLL 32A/	.	16dd'\LL	.	4D\	.	4f/	4d\	.	4d\ 4F\	.	4a/ 4d/	.	4a/	4f\	.	16dd\LL 16d'\	.	16ddyy\LL 16d'\yy	.
.	.	.	.	32A\ 32D\	.	32d\	.	32f/ 32A/	.	.	.	.	.	.	.	.	.	.	.	.	.	.	.	.	.	.	.
.	.	.	.	32A\ 32D\	.	32d\	.	32f/ 32A/	.	16gg#X'\JJ	.	.	.	.	.	.	.	.	.	.	.	.	.	16gg#X\JJ 16g'\	.	16gg#Xyy\JJ 16g'\yy	.
.	.	.	.	32A\ 32D\	.	32d\	.	32f/ 32A/	.	.	.	.	.	.	.	.	.	.	.	.	.	.	.	.	.	.	.
.	.	8D\	.	32A\ 32D\	.	32d\	.	32f/ 32A/	.	(16bb-\LL	.	.	.	.	.	.	.	.	.	.	.	.	.	(16bb-\LL 16b-\	.	(16bb-yy\LL yy16b-\yy	.
.	.	.	.	32A\ 32D\	.	32d\	.	32f/ 32A/	.	.	.	.	.	.	.	.	.	.	.	.	.	.	.	.	.	.	.
.	.	.	.	32A\ 32D\	.	32d\	.	32f/ 32A/	.	16aa\J)	.	.	.	.	.	.	.	.	.	.	.	.	.	16aa\J 16a\)	.	16aayy\J 16a\)yy	.
.	.	.	.	32A\JJJ 32D\	.	32d\JJJ	.	32f/JJJ 32A/	.	.	.	.	.	.	.	.	.	.	.	.	.	.	.	.	.	.	.
!LO:SIC:s=8D/	!	!	!	!	!	!	!	!	!	!	!	!	!	!	!	!	!	!	!	!	!	!	!	!	!	!	!
8Re/	.	8D\J	.	16A\LL 16D\	.	16e-\LL 16c\	.	16g/LL 16A/	.	8ee-T\J	.	8D\	.	8e-/	8e-\	.	8c\ 8G\	.	8a/ 8d/	.	8a/	8g\	.	8ee-\J 8e-'\	.	8ee-yy\J 8e-'\yy	.
.	.	.	.	16A\JJ 16D\	.	16e-\JJ 16c\	.	16g/JJ 16A/	.	.	.	.	.	.	.	.	.	.	.	.	.	.	.	.	.	.	.
*Xrep	*	*	*	*Xrep	*	*Xrep	*	*Xrep	*	*Xrep	*	*Xrep	*	*Xrep	*Xrep	*	*Xrep	*	*Xrep	*	*Xrep	*Xrep	*	*	*	*	*
*	*	*	*	*	*	*Xtremolo	*	*Xtremolo	*	*	*	*	*	*	*	*	*	*	*	*	*	*	*	*	*	*	*
*	*	*	*	*	*	*	*	*	*	*	*	*	*	*v	*v	*	*	*	*	*	*v	*v	*	*	*	*	*
=96	=96	=96	=96	=96	=96	=96	=96	=96	=96	=96	=96	=96	=96	=96	=96	=96	=96	=96	=96	=96	=96	=96	=96	=96	=96
!LO:SIC:s=8D/	!	!	!	!	!	!	!	!	!	!	!	!	!	!	!	!	!	!	!	!	!	!	!	!	!
8Re/	.	8D\	.	8A\ 8D\	.	8d\	.	8f/ 8A/	.	8dd\	.	8D\	.	8f/ 8d/	.	8d\ 8F\	.	8a/ 8d/	.	8a/ 8f/	.	8dd\ 8d\	.	8ddyy\ 8d\yy	.
8r	.	8r	.	8r	.	8r	.	8r	.	8r	.	8r	.	8r	.	8r	.	8r	.	8r	.	8r	.	8ryy	.
8r	.	8r	.	8r	.	8r	.	8r	.	8r	.	8r	.	8r	.	8r	.	8r	.	8r	.	8r	.	8ryy	.
=97	=97	=97	=97	=97	=97	=97	=97	=97	=97	=97	=97	=97	=97	=97	=97	=97	=97	=97	=97	=97	=97	=97	=97	=97	=97
!LO:SIC:s=8AA/	!	!	!	!LO:TX:b:t=sec.	!	!	!	!LO:TX:a:t=sec	!	!	!	!	!	!LO:TX:b:t=sec	!	!	!	!	!	!	!	!	!	!	!
8Re/	.	8d\ 8D\	.	8A\ 8D\	.	8a\ 8d\ 8A\ 8D\	.	8ff\ 8a\ 8d\	.	8ddd\ 8ff\ 8d\	.	8D\	.	8dd/ 8f/ 8d/	.	8d\ 8F\	.	8a/ 8d/	.	8dd/ 8f/	.	8ff\ 8dd\	.	8dddyy\ 8dd\yy	.
8r	.	8r	.	8r	.	8r	.	8r	.	8r	.	8r	.	8r	.	8r	.	8r	.	8r	.	8r	.	8ryy	.
8r	.	8r	.	8r	.	8r	.	8r	.	8r	.	8r	.	8r	.	8r	.	8r	.	8r	.	8r	.	8ryy	.
==	==	==	==	==	==	==	==	==	==	==	==	==	==	==	==	==	==	==	==	==	==	==	==	==	==
*-	*-	*-	*-	*-	*-	*-	*-	*-	*-	*-	*-	*-	*-	*-	*-	*-	*-	*-	*-	*-	*-	*-	*-	*-	*-
!!!system-decoration: [(s1,s2,s3[(s4)]s5,s6,s7,s8,s9,s10,s11,s12,s13)]
!!!RDF**kern: | = vertical stroke
!!!RDF**kern: > = above
!!!RDF**kern: < = below
!!!EEV: 2021-07-03
!!!ENC: Berenika Jozajtis
!!!END: Leszek Kubiak
!!!YEC: Copyright 2022 Narodowy Instytut Fryderyka Chopina (https://polishscores.org)
!!!YEM: Licence CC BY 4.0 (https://creativecommons.org/licenses/by/4.0)
